; G-Code generated by Simplify3D(R) Version 4.0.1
; Oct 6, 2018 at 3:39:56 PM
; Settings Summary
;   processName,Optimal(1)
;   applyToModels,Aluminum Rod End Cap,Aluminum Rod End Cap(2),Aluminum Rod End Cap(3),Aluminum Rod End Cap(4)
;   profileName,BortBot (modified)
;   profileVersion,2018-03-11 18:52:45
;   baseProfile,Default
;   printMaterial,PLA
;   printQuality,Medium
;   printExtruders,
;   extruderName,Extruder 1
;   extruderToolheadNumber,0
;   extruderDiameter,0.4
;   extruderAutoWidth,1
;   extruderWidth,0.48
;   extrusionMultiplier,1.01
;   extruderUseRetract,1
;   extruderRetractionDistance,4
;   extruderExtraRestartDistance,0
;   extruderRetractionZLift,0
;   extruderRetractionSpeed,3000
;   extruderUseCoasting,0
;   extruderCoastingDistance,1.4
;   extruderUseWipe,1
;   extruderWipeDistance,2
;   primaryExtruder,0
;   layerHeight,0.3
;   topSolidLayers,2
;   bottomSolidLayers,2
;   perimeterOutlines,3
;   printPerimetersInsideOut,1
;   startPointOption,2
;   startPointOriginX,0
;   startPointOriginY,0
;   sequentialIslands,0
;   spiralVaseMode,0
;   firstLayerHeightPercentage,125
;   firstLayerWidthPercentage,100
;   firstLayerUnderspeed,0.75
;   useRaft,0
;   raftExtruder,0
;   raftTopLayers,2
;   raftBaseLayers,2
;   raftOffset,3
;   raftSeparationDistance,0.3
;   raftTopInfill,90
;   aboveRaftSpeedMultiplier,0.3
;   useSkirt,1
;   skirtExtruder,0
;   skirtLayers,1
;   skirtOutlines,2
;   skirtOffset,3
;   usePrimePillar,0
;   primePillarExtruder,999
;   primePillarWidth,12
;   primePillarLocation,7
;   primePillarSpeedMultiplier,1
;   useOozeShield,0
;   oozeShieldExtruder,999
;   oozeShieldOffset,2
;   oozeShieldOutlines,1
;   oozeShieldSidewallShape,1
;   oozeShieldSidewallAngle,30
;   oozeShieldSpeedMultiplier,1
;   infillExtruder,0
;   internalInfillPattern,Rectilinear
;   externalInfillPattern,Rectilinear
;   infillPercentage,10
;   outlineOverlapPercentage,35
;   infillExtrusionWidthPercentage,90
;   minInfillLength,5
;   infillLayerInterval,1
;   internalInfillAngles,45,-45
;   overlapInternalInfillAngles,0
;   externalInfillAngles,45,-45
;   generateSupport,1
;   supportExtruder,0
;   supportInfillPercentage,10
;   supportExtraInflation,0
;   supportBaseLayers,1
;   denseSupportExtruder,0
;   denseSupportLayers,4
;   denseSupportInfillPercentage,90
;   supportLayerInterval,1
;   supportHorizontalPartOffset,0.5
;   supportUpperSeparationLayers,1
;   supportLowerSeparationLayers,1
;   supportType,0
;   supportGridSpacing,1
;   maxOverhangAngle,46
;   supportAngles,45
;   temperatureName,Extruder 1,Heated Bed
;   temperatureNumber,0,1
;   temperatureSetpointCount,1,1
;   temperatureSetpointLayers,1,1
;   temperatureSetpointTemperatures,200,60
;   temperatureStabilizeAtStartup,1,1
;   temperatureHeatedBed,0,1
;   temperatureRelayBetweenLayers,1,0
;   temperatureRelayBetweenLoops,1,0
;   fanLayers,1,3
;   fanSpeeds,0,40
;   blipFanToFullPower,0
;   adjustSpeedForCooling,1
;   minSpeedLayerTime,15
;   minCoolingSpeedSlowdown,20
;   increaseFanForCooling,1
;   minFanLayerTime,45
;   maxCoolingFanSpeed,100
;   increaseFanForBridging,1
;   bridgingFanSpeed,100
;   use5D,1
;   relativeEdistances,0
;   allowEaxisZeroing,1
;   independentExtruderAxes,0
;   includeM10123,0
;   stickySupport,1
;   applyToolheadOffsets,0
;   gcodeXoffset,0
;   gcodeYoffset,0
;   gcodeZoffset,0
;   overrideMachineDefinition,0
;   machineTypeOverride,0
;   strokeXoverride,100
;   strokeYoverride,100
;   strokeZoverride,100
;   originOffsetXoverride,0
;   originOffsetYoverride,0
;   originOffsetZoverride,0
;   homeXdirOverride,-1
;   homeYdirOverride,-1
;   homeZdirOverride,-1
;   flipXoverride,1
;   flipYoverride,-1
;   flipZoverride,1
;   toolheadOffsets,0,0|0,0|0,0|0,0|0,0|0,0
;   overrideFirmwareConfiguration,0
;   firmwareTypeOverride,RepRap (Marlin/Repetier/Sprinter)
;   GPXconfigOverride,r2
;   baudRateOverride,115200
;   overridePrinterModels,0
;   printerModelsOverride
;   startingGcode,G28  ; Home all,;M208S7; DISABLE THE PROBE,;G1 Z5; probe z clearance,;G1 X0 Y0; ,;M280S3; Enable the probe,;G32; probe the grid,;M374; save the grid,;G1 Z20 ; Set Z20 for ooze
;   layerChangeGcode,
;   retractionGcode,
;   toolChangeGcode,
;   endingGcode,G10 S2.5; retract filament to relieve pressure,M104 S0 ; turn off extruder,M140 S0 ; turn off bed,G91 G1 Z10 ; Clearance from part,G90 G1 X0 Y0 Z170 ; Go to starting position (X0 Y0 Z 170),;M84 ; disable motor,M107; Turn off fan
;   exportFileFormat,gcode
;   celebration,0
;   celebrationSong,Random Song
;   postProcessing,
;   defaultSpeed,3600
;   outlineUnderspeed,0.8
;   solidInfillUnderspeed,1
;   supportUnderspeed,1
;   rapidXYspeed,9000
;   rapidZspeed,1800
;   minBridgingArea,10
;   bridgingExtraInflation,5
;   bridgingExtrusionMultiplier,0.9
;   bridgingSpeedMultiplier,0.6
;   useFixedBridgingAngle,0
;   fixedBridgingAngle,0
;   applyBridgingToPerimeters,1
;   filamentDiameters,1.75|1.75|1.75|1.75|1.75|1.75
;   filamentPricesPerKg,20|46|46|46|46|46
;   filamentDensities,1.33|1.25|1.25|1.25|1.25|1.25
;   useMinPrintHeight,0
;   minPrintHeight,40
;   useMaxPrintHeight,0
;   maxPrintHeight,60
;   useDiaphragm,0
;   diaphragmLayerInterval,20
;   robustSlicing,1
;   mergeAllIntoSolid,0
;   onlyRetractWhenCrossingOutline,1
;   retractBetweenLayers,0
;   useRetractionMinTravel,0
;   retractionMinTravel,3
;   retractWhileWiping,1
;   onlyWipeOutlines,1
;   avoidCrossingOutline,0
;   maxMovementDetourFactor,3
;   toolChangeRetractionDistance,12
;   toolChangeExtraRestartDistance,-0.5
;   toolChangeRetractionSpeed,600
;   externalThinWallType,1
;   internalThinWallType,2
;   thinWallAllowedOverlapPercentage,20
;   singleExtrusionMinLength,1
;   singleExtrusionMinPrintingWidthPercentage,50
;   singleExtrusionMaxPrintingWidthPercentage,200
;   singleExtrusionEndpointExtension,0.2
;   horizontalSizeCompensation,0
G90
M82
M106 S0
M140 S60
M190 S60
M104 S200 T0
M109 S200 T0
G28  ; Home all
;M208S7; DISABLE THE PROBE
;G1 Z5; probe z clearance
;G1 X0 Y0; 
;M280S3; Enable the probe
;G32; probe the grid
;M374; save the grid
;G1 Z20 ; Set Z20 for ooze
G92 E0
G1 E-4.0000 F3000
G1 Z0.375 F1800
; process Optimal(1)
; layer 1, Z = 0.375
M105
T0
; tool H0.375 W0.480
; skirt
G1 X55.097 Y62.708 F9000
G1 E0.0000 F900
G92 E0
G1 X55.272 Y62.574 E0.0166 F2700
G1 X55.291 Y62.560 E0.0184
G1 X56.078 Y62.034 E0.0900
G1 X56.098 Y62.022 E0.0918
G1 X56.288 Y61.912 E0.1084
G1 X56.309 Y61.900 E0.1102
G1 X57.158 Y61.482 E0.1817
G1 X57.180 Y61.472 E0.1835
G1 X57.383 Y61.388 E0.2001
G1 X57.405 Y61.379 E0.2019
G1 X58.302 Y61.075 E0.2735
G1 X58.324 Y61.068 E0.2752
G1 X58.537 Y61.011 E0.2919
G1 X58.560 Y61.006 E0.2937
G1 X59.488 Y60.821 E0.3652
G1 X59.511 Y60.817 E0.3670
G1 X59.730 Y60.789 E0.3836
G1 X59.753 Y60.786 E0.3854
G1 X60.698 Y60.725 E0.4570
G1 X60.721 Y60.724 E0.4587
G1 X60.941 Y60.724 E0.4754
G1 X60.965 Y60.725 E0.4772
G1 X61.910 Y60.786 E0.5487
G1 X61.933 Y60.789 E0.5505
G1 X62.151 Y60.817 E0.5671
G1 X62.174 Y60.821 E0.5689
G1 X63.103 Y61.006 E0.6405
G1 X63.126 Y61.011 E0.6422
G1 X63.338 Y61.068 E0.6589
G1 X63.361 Y61.075 E0.6607
G1 X64.257 Y61.379 E0.7322
G1 X64.279 Y61.388 E0.7340
G1 X64.483 Y61.472 E0.7506
G1 X64.504 Y61.482 E0.7524
G1 X65.353 Y61.900 E0.8240
G1 X65.374 Y61.912 E0.8257
G1 X65.565 Y62.022 E0.8424
G1 X65.585 Y62.034 E0.8442
G1 X66.372 Y62.560 E0.9157
G1 X66.391 Y62.574 E0.9175
G1 X66.565 Y62.708 E0.9341
G1 X66.584 Y62.723 E0.9359
G1 X67.296 Y63.347 E1.0075
G1 X67.313 Y63.363 E1.0092
G1 X67.468 Y63.518 E1.0259
G1 X67.484 Y63.536 E1.0277
G1 X68.109 Y64.248 E1.0992
G1 X68.124 Y64.266 E1.1010
G1 X68.258 Y64.440 E1.1176
G1 X68.271 Y64.459 E1.1194
G1 X68.797 Y65.247 E1.1910
G1 X68.810 Y65.267 E1.1928
G1 X68.887 Y65.401 E1.2045
G1 X68.965 Y65.267 E1.2163
G1 X68.978 Y65.247 E1.2180
G1 X69.504 Y64.459 E1.2896
G1 X69.517 Y64.440 E1.2914
G1 X69.651 Y64.266 E1.3080
G1 X69.666 Y64.248 E1.3098
G1 X70.290 Y63.536 E1.3814
G1 X70.307 Y63.518 E1.3831
G1 X70.462 Y63.363 E1.3998
G1 X70.479 Y63.347 E1.4015
G1 X71.191 Y62.723 E1.4731
G1 X71.209 Y62.708 E1.4749
G1 X71.384 Y62.574 E1.4915
G1 X71.403 Y62.560 E1.4933
G1 X72.190 Y62.034 E1.5649
G1 X72.210 Y62.022 E1.5666
G1 X72.401 Y61.912 E1.5833
G1 X72.422 Y61.900 E1.5850
G1 X73.271 Y61.482 E1.6566
G1 X73.292 Y61.472 E1.6584
G1 X73.496 Y61.388 E1.6750
G1 X73.518 Y61.379 E1.6768
G1 X74.414 Y61.075 E1.7484
G1 X74.437 Y61.068 E1.7501
G1 X74.649 Y61.011 E1.7668
G1 X74.672 Y61.006 E1.7686
G1 X75.601 Y60.821 E1.8401
G1 X75.624 Y60.817 E1.8419
G1 X75.842 Y60.789 E1.8585
G1 X75.865 Y60.786 E1.8603
G1 X76.810 Y60.725 E1.9319
G1 X76.834 Y60.724 E1.9336
G1 X77.054 Y60.724 E1.9503
G1 X77.077 Y60.725 E1.9520
G1 X78.022 Y60.786 E2.0236
G1 X78.045 Y60.789 E2.0254
G1 X78.264 Y60.817 E2.0420
G1 X78.287 Y60.821 E2.0438
G1 X79.215 Y61.006 E2.1154
G1 X79.238 Y61.011 E2.1171
G1 X79.451 Y61.068 E2.1338
G1 X79.473 Y61.075 E2.1356
G1 X80.370 Y61.379 E2.2071
G1 X80.392 Y61.388 E2.2089
G1 X80.595 Y61.472 E2.2255
G1 X80.617 Y61.482 E2.2273
G1 X81.466 Y61.900 E2.2989
G1 X81.487 Y61.912 E2.3006
G1 X81.677 Y62.022 E2.3173
G1 X81.697 Y62.034 E2.3190
G1 X82.484 Y62.560 E2.3906
G1 X82.503 Y62.574 E2.3924
G1 X82.678 Y62.708 E2.4090
G1 X82.696 Y62.723 E2.4108
G1 X83.408 Y63.347 E2.4824
G1 X83.425 Y63.363 E2.4841
G1 X83.581 Y63.518 E2.5008
G1 X83.597 Y63.536 E2.5025
G1 X84.221 Y64.248 E2.5741
G1 X84.236 Y64.266 E2.5759
G1 X84.370 Y64.440 E2.5925
G1 X84.384 Y64.459 E2.5943
G1 X84.910 Y65.247 E2.6659
G1 X84.922 Y65.267 E2.6676
G1 X85.000 Y65.401 E2.6794
G1 X85.078 Y65.267 E2.6912
G1 X85.090 Y65.247 E2.6929
G1 X85.616 Y64.459 E2.7645
G1 X85.630 Y64.440 E2.7663
G1 X85.764 Y64.266 E2.7829
G1 X85.779 Y64.248 E2.7847
G1 X86.403 Y63.536 E2.8562
G1 X86.419 Y63.518 E2.8580
G1 X86.575 Y63.363 E2.8747
G1 X86.592 Y63.347 E2.8764
G1 X87.304 Y62.723 E2.9480
G1 X87.322 Y62.708 E2.9498
G1 X87.497 Y62.574 E2.9664
G1 X87.516 Y62.560 E2.9682
G1 X88.303 Y62.034 E3.0398
G1 X88.323 Y62.022 E3.0415
G1 X88.513 Y61.912 E3.0582
G1 X88.534 Y61.900 E3.0599
G1 X89.383 Y61.482 E3.1315
G1 X89.405 Y61.472 E3.1333
G1 X89.608 Y61.388 E3.1499
G1 X89.630 Y61.379 E3.1517
G1 X90.527 Y61.075 E3.2233
G1 X90.549 Y61.068 E3.2250
G1 X90.762 Y61.011 E3.2417
G1 X90.785 Y61.006 E3.2434
G1 X91.713 Y60.821 E3.3150
G1 X91.736 Y60.817 E3.3168
G1 X91.955 Y60.789 E3.3334
G1 X91.978 Y60.786 E3.3352
G1 X92.923 Y60.725 E3.4068
G1 X92.946 Y60.724 E3.4085
G1 X93.166 Y60.724 E3.4252
G1 X93.190 Y60.725 E3.4269
G1 X94.135 Y60.786 E3.4985
G1 X94.158 Y60.789 E3.5003
G1 X94.376 Y60.817 E3.5169
G1 X94.399 Y60.821 E3.5187
G1 X95.328 Y61.006 E3.5902
G1 X95.351 Y61.011 E3.5920
G1 X95.563 Y61.068 E3.6087
G1 X95.586 Y61.075 E3.6104
G1 X96.482 Y61.379 E3.6820
G1 X96.505 Y61.388 E3.6838
G1 X96.708 Y61.472 E3.7004
G1 X96.729 Y61.482 E3.7022
G1 X97.578 Y61.900 E3.7738
G1 X97.599 Y61.912 E3.7755
G1 X97.790 Y62.022 E3.7922
G1 X97.810 Y62.034 E3.7939
G1 X98.597 Y62.560 E3.8655
G1 X98.616 Y62.574 E3.8673
G1 X98.791 Y62.708 E3.8839
G1 X98.809 Y62.723 E3.8857
G1 X99.521 Y63.347 E3.9573
G1 X99.538 Y63.363 E3.9590
G1 X99.693 Y63.518 E3.9757
G1 X99.709 Y63.536 E3.9774
G1 X100.334 Y64.248 E4.0490
G1 X100.349 Y64.266 E4.0508
G1 X100.483 Y64.440 E4.0674
G1 X100.496 Y64.459 E4.0692
G1 X101.022 Y65.247 E4.1408
G1 X101.035 Y65.267 E4.1425
G1 X101.113 Y65.401 E4.1543
G1 X101.190 Y65.267 E4.1660
G1 X101.203 Y65.247 E4.1678
G1 X101.729 Y64.459 E4.2394
G1 X101.742 Y64.440 E4.2412
G1 X101.876 Y64.266 E4.2578
G1 X101.891 Y64.248 E4.2596
G1 X102.516 Y63.536 E4.3311
G1 X102.532 Y63.518 E4.3329
G1 X102.687 Y63.363 E4.3496
G1 X102.704 Y63.347 E4.3513
G1 X103.416 Y62.723 E4.4229
G1 X103.435 Y62.708 E4.4247
G1 X103.609 Y62.574 E4.4413
G1 X103.628 Y62.560 E4.4431
G1 X104.415 Y62.034 E4.5146
G1 X104.435 Y62.022 E4.5164
G1 X104.626 Y61.912 E4.5330
G1 X104.647 Y61.900 E4.5348
G1 X105.496 Y61.482 E4.6064
G1 X105.517 Y61.472 E4.6082
G1 X105.721 Y61.388 E4.6248
G1 X105.743 Y61.379 E4.6266
G1 X106.639 Y61.075 E4.6981
G1 X106.662 Y61.068 E4.6999
G1 X106.874 Y61.011 E4.7165
G1 X106.897 Y61.006 E4.7183
G1 X107.826 Y60.821 E4.7899
G1 X107.849 Y60.817 E4.7917
G1 X108.067 Y60.789 E4.8083
G1 X108.090 Y60.786 E4.8101
G1 X109.035 Y60.725 E4.8816
G1 X109.059 Y60.724 E4.8834
G1 X109.279 Y60.724 E4.9000
G1 X109.302 Y60.725 E4.9018
G1 X110.247 Y60.786 E4.9734
G1 X110.270 Y60.789 E4.9752
G1 X110.489 Y60.817 E4.9918
G1 X110.512 Y60.821 E4.9936
G1 X111.440 Y61.006 E5.0651
G1 X111.463 Y61.011 E5.0669
G1 X111.676 Y61.068 E5.0835
G1 X111.698 Y61.075 E5.0853
G1 X112.595 Y61.379 E5.1569
G1 X112.617 Y61.388 E5.1587
G1 X112.820 Y61.472 E5.1753
G1 X112.842 Y61.482 E5.1771
G1 X113.691 Y61.900 E5.2486
G1 X113.712 Y61.912 E5.2504
G1 X113.902 Y62.022 E5.2670
G1 X113.922 Y62.034 E5.2688
G1 X114.709 Y62.560 E5.3404
G1 X114.728 Y62.574 E5.3422
G1 X114.903 Y62.708 E5.3588
G1 X114.921 Y62.723 E5.3606
G1 X115.633 Y63.347 E5.4321
G1 X115.650 Y63.363 E5.4339
G1 X115.806 Y63.518 E5.4506
G1 X115.822 Y63.536 E5.4523
G1 X116.446 Y64.248 E5.5239
G1 X116.461 Y64.266 E5.5257
G1 X116.595 Y64.440 E5.5423
G1 X116.609 Y64.459 E5.5441
G1 X117.135 Y65.247 E5.6156
G1 X117.147 Y65.267 E5.6174
G1 X117.257 Y65.457 E5.6341
G1 X117.268 Y65.478 E5.6358
G1 X117.687 Y66.327 E5.7074
G1 X117.697 Y66.349 E5.7092
G1 X117.781 Y66.552 E5.7258
G1 X117.789 Y66.574 E5.7276
G1 X118.094 Y67.470 E5.7991
G1 X118.100 Y67.493 E5.8009
G1 X118.157 Y67.705 E5.8175
G1 X118.163 Y67.728 E5.8193
G1 X118.347 Y68.657 E5.8909
G1 X118.351 Y68.680 E5.8927
G1 X118.380 Y68.898 E5.9093
G1 X118.382 Y68.922 E5.9111
G1 X118.444 Y69.866 E5.9826
G1 X118.445 Y69.890 E5.9844
G1 X118.445 Y70.110 E6.0011
G1 X118.444 Y70.134 E6.0028
G1 X118.382 Y71.078 E6.0744
G1 X118.380 Y71.102 E6.0762
G1 X118.351 Y71.320 E6.0928
G1 X118.347 Y71.343 E6.0946
G1 X118.163 Y72.272 E6.1661
G1 X118.157 Y72.295 E6.1679
G1 X118.100 Y72.507 E6.1846
G1 X118.094 Y72.530 E6.1863
G1 X117.789 Y73.426 E6.2579
G1 X117.781 Y73.448 E6.2597
G1 X117.697 Y73.651 E6.2763
G1 X117.687 Y73.673 E6.2781
G1 X117.268 Y74.522 E6.3496
G1 X117.257 Y74.543 E6.3514
G1 X117.147 Y74.733 E6.3681
G1 X117.135 Y74.753 E6.3698
G1 X116.609 Y75.541 E6.4414
G1 X116.595 Y75.560 E6.4432
G1 X116.461 Y75.734 E6.4598
G1 X116.446 Y75.752 E6.4616
G1 X115.822 Y76.464 E6.5331
G1 X115.806 Y76.481 E6.5349
G1 X115.650 Y76.637 E6.5516
G1 X115.633 Y76.653 E6.5533
G1 X114.921 Y77.277 E6.6249
G1 X114.903 Y77.292 E6.6267
G1 X114.729 Y77.426 E6.6433
G1 X114.709 Y77.440 E6.6451
G1 X113.922 Y77.966 E6.7166
G1 X113.902 Y77.978 E6.7184
G1 X113.712 Y78.088 E6.7350
G1 X113.691 Y78.100 E6.7368
G1 X112.842 Y78.518 E6.8084
G1 X112.820 Y78.528 E6.8102
G1 X112.617 Y78.612 E6.8268
G1 X112.595 Y78.621 E6.8286
G1 X111.698 Y78.925 E6.9001
G1 X111.676 Y78.932 E6.9019
G1 X111.463 Y78.989 E6.9186
G1 X111.440 Y78.994 E6.9203
G1 X110.512 Y79.179 E6.9919
G1 X110.489 Y79.183 E6.9937
G1 X110.271 Y79.211 E7.0103
G1 X110.247 Y79.214 E7.0121
G1 X109.302 Y79.275 E7.0836
G1 X109.279 Y79.276 E7.0854
G1 X109.059 Y79.276 E7.1021
G1 X109.035 Y79.275 E7.1038
G1 X108.090 Y79.214 E7.1754
G1 X108.067 Y79.211 E7.1772
G1 X107.849 Y79.183 E7.1938
G1 X107.826 Y79.179 E7.1956
G1 X106.897 Y78.994 E7.2671
G1 X106.874 Y78.989 E7.2689
G1 X106.662 Y78.932 E7.2856
G1 X106.639 Y78.925 E7.2873
G1 X105.743 Y78.621 E7.3589
G1 X105.721 Y78.612 E7.3607
G1 X105.517 Y78.528 E7.3773
G1 X105.496 Y78.518 E7.3791
G1 X104.647 Y78.100 E7.4506
G1 X104.626 Y78.088 E7.4524
G1 X104.435 Y77.978 E7.4691
G1 X104.415 Y77.966 E7.4708
G1 X103.628 Y77.440 E7.5424
G1 X103.609 Y77.426 E7.5442
G1 X103.434 Y77.292 E7.5608
G1 X103.416 Y77.277 E7.5626
G1 X102.704 Y76.653 E7.6341
G1 X102.687 Y76.637 E7.6359
G1 X102.532 Y76.482 E7.6525
G1 X102.516 Y76.464 E7.6543
G1 X101.891 Y75.752 E7.7259
G1 X101.876 Y75.734 E7.7277
G1 X101.742 Y75.560 E7.7443
G1 X101.729 Y75.541 E7.7461
G1 X101.203 Y74.753 E7.8176
G1 X101.190 Y74.733 E7.8194
G1 X101.113 Y74.599 E7.8312
G1 X101.035 Y74.733 E7.8429
G1 X101.022 Y74.753 E7.8447
G1 X100.496 Y75.541 E7.9163
G1 X100.483 Y75.560 E7.9181
G1 X100.349 Y75.734 E7.9347
G1 X100.334 Y75.752 E7.9365
G1 X99.709 Y76.464 E8.0080
G1 X99.693 Y76.481 E8.0098
G1 X99.538 Y76.637 E8.0264
G1 X99.521 Y76.653 E8.0282
