; G-Code generated by Simplify3D(R) Version 4.0.0
; Mar 11, 2018 at 6:52:48 PM
; Settings Summary
;   processName,Basic 
;   applyToModels,Bahtinov Mask
;   profileName,BortBot
;   profileVersion,2017-10-07 14:50:40
;   baseProfile,Default
;   printMaterial,PLA
;   printQuality,Medium
;   printExtruders,
;   extruderName,Extruder 1
;   extruderToolheadNumber,0
;   extruderDiameter,0.4
;   extruderAutoWidth,1
;   extruderWidth,0.48
;   extrusionMultiplier,1.06
;   extruderUseRetract,1
;   extruderRetractionDistance,2.8
;   extruderExtraRestartDistance,0
;   extruderRetractionZLift,0
;   extruderRetractionSpeed,6000
;   extruderUseCoasting,1
;   extruderCoastingDistance,0.5
;   extruderUseWipe,0
;   extruderWipeDistance,5
;   primaryExtruder,0
;   layerHeight,0.2
;   topSolidLayers,2
;   bottomSolidLayers,2
;   perimeterOutlines,2
;   printPerimetersInsideOut,0
;   startPointOption,2
;   startPointOriginX,0
;   startPointOriginY,0
;   sequentialIslands,0
;   spiralVaseMode,0
;   firstLayerHeightPercentage,100
;   firstLayerWidthPercentage,100
;   firstLayerUnderspeed,0.3
;   useRaft,0
;   raftExtruder,0
;   raftTopLayers,2
;   raftBaseLayers,2
;   raftOffset,3
;   raftSeparationDistance,0.3
;   raftTopInfill,90
;   aboveRaftSpeedMultiplier,0.3
;   useSkirt,1
;   skirtExtruder,0
;   skirtLayers,1
;   skirtOutlines,5
;   skirtOffset,0
;   usePrimePillar,0
;   primePillarExtruder,999
;   primePillarWidth,12
;   primePillarLocation,7
;   primePillarSpeedMultiplier,1
;   useOozeShield,0
;   oozeShieldExtruder,999
;   oozeShieldOffset,2
;   oozeShieldOutlines,1
;   oozeShieldSidewallShape,1
;   oozeShieldSidewallAngle,30
;   oozeShieldSpeedMultiplier,1
;   infillExtruder,0
;   internalInfillPattern,Full Honeycomb
;   externalInfillPattern,Rectilinear
;   infillPercentage,60
;   outlineOverlapPercentage,35
;   infillExtrusionWidthPercentage,100
;   minInfillLength,5
;   infillLayerInterval,1
;   internalInfillAngles,0,120,-120
;   overlapInternalInfillAngles,0
;   externalInfillAngles,45,-45
;   generateSupport,1
;   supportExtruder,0
;   supportInfillPercentage,30
;   supportExtraInflation,0
;   supportBaseLayers,0
;   denseSupportExtruder,0
;   denseSupportLayers,0
;   denseSupportInfillPercentage,70
;   supportLayerInterval,1
;   supportHorizontalPartOffset,0.3
;   supportUpperSeparationLayers,1
;   supportLowerSeparationLayers,1
;   supportType,0
;   supportGridSpacing,2
;   maxOverhangAngle,45
;   supportAngles,0
;   temperatureName,Extruder 1,Heated Bed
;   temperatureNumber,0,1
;   temperatureSetpointCount,1,1
;   temperatureSetpointLayers,1,1
;   temperatureSetpointTemperatures,205,60
;   temperatureStabilizeAtStartup,1,1
;   temperatureHeatedBed,0,1
;   temperatureRelayBetweenLayers,1,0
;   temperatureRelayBetweenLoops,1,0
;   fanLayers,1,3
;   fanSpeeds,0,50
;   blipFanToFullPower,1
;   adjustSpeedForCooling,1
;   minSpeedLayerTime,15
;   minCoolingSpeedSlowdown,20
;   increaseFanForCooling,1
;   minFanLayerTime,45
;   maxCoolingFanSpeed,100
;   increaseFanForBridging,1
;   bridgingFanSpeed,100
;   use5D,1
;   relativeEdistances,0
;   allowEaxisZeroing,1
;   independentExtruderAxes,0
;   includeM10123,0
;   stickySupport,1
;   applyToolheadOffsets,0
;   gcodeXoffset,0
;   gcodeYoffset,0
;   gcodeZoffset,0
;   overrideMachineDefinition,0
;   machineTypeOverride,0
;   strokeXoverride,100
;   strokeYoverride,100
;   strokeZoverride,100
;   originOffsetXoverride,0
;   originOffsetYoverride,0
;   originOffsetZoverride,0
;   homeXdirOverride,-1
;   homeYdirOverride,-1
;   homeZdirOverride,-1
;   flipXoverride,1
;   flipYoverride,-1
;   flipZoverride,1
;   toolheadOffsets,0,0|0,0|0,0|0,0|0,0|0,0
;   overrideFirmwareConfiguration,0
;   firmwareTypeOverride,RepRap (Marlin/Repetier/Sprinter)
;   GPXconfigOverride,r2
;   baudRateOverride,115200
;   overridePrinterModels,0
;   printerModelsOverride
;   startingGcode,;G28  ; Home all,;M208S7; DISABLE THE PROBE,;G1 Z5; probe z clearance,;G1 X0 Y0; ,;M280S3; Enable the probe,;G32; probe the grid,;M374; save the grid,;G1 Z20 ; Set Z20 for ooze
;   layerChangeGcode,
;   retractionGcode,
;   toolChangeGcode,
;   endingGcode,M104 S0 ; turn off extruder,M140 S0 ; turn off bed,G91 G1 Z10 ; Clearance from part,G90 G1 X0 Y0 Z118 ; Go to starting position (X0 Y0 Z 122),M84 ; disable motor,M107; Turn off fan
;   exportFileFormat,gcode
;   celebration,0
;   celebrationSong,Random Song
;   postProcessing,
;   defaultSpeed,4200
;   outlineUnderspeed,0.65
;   solidInfillUnderspeed,0.9
;   supportUnderspeed,0.95
;   rapidXYspeed,4800
;   rapidZspeed,1002
;   minBridgingArea,10
;   bridgingExtraInflation,5
;   bridgingExtrusionMultiplier,0.9
;   bridgingSpeedMultiplier,0.75
;   useFixedBridgingAngle,0
;   fixedBridgingAngle,0
;   applyBridgingToPerimeters,1
;   filamentDiameters,1.75|1.75|1.75|1.75|1.75|1.75
;   filamentPricesPerKg,46|46|46|46|46|46
;   filamentDensities,1.27|1.25|1.25|1.25|1.25|1.25
;   useMinPrintHeight,0
;   minPrintHeight,0
;   useMaxPrintHeight,0
;   maxPrintHeight,0
;   useDiaphragm,0
;   diaphragmLayerInterval,20
;   robustSlicing,1
;   mergeAllIntoSolid,0
;   onlyRetractWhenCrossingOutline,1
;   retractBetweenLayers,0
;   useRetractionMinTravel,0
;   retractionMinTravel,3
;   retractWhileWiping,1
;   onlyWipeOutlines,1
;   avoidCrossingOutline,0
;   maxMovementDetourFactor,3
;   toolChangeRetractionDistance,12
;   toolChangeExtraRestartDistance,-0.5
;   toolChangeRetractionSpeed,600
;   externalThinWallType,1
;   internalThinWallType,1
;   thinWallAllowedOverlapPercentage,10
;   singleExtrusionMinLength,1
;   singleExtrusionMinPrintingWidthPercentage,50
;   singleExtrusionMaxPrintingWidthPercentage,200
;   singleExtrusionEndpointExtension,0.2
;   horizontalSizeCompensation,0
G90
M82
M106 S255
G4 P500
M106 S0
M140 S60
M190 S60
M104 S205 T0
M109 S205 T0
;G28  ; Home all
;M208S7; DISABLE THE PROBE
;G1 Z5; probe z clearance
;G1 X0 Y0; 
;M280S3; Enable the probe
;G32; probe the grid
;M374; save the grid
;G1 Z20 ; Set Z20 for ooze
G92 E0
G1 E-2.8000 F6000
G1 Z0.200 F1002
; process Basic 
; layer 1, Z = 0.200
M105
T0
; tool H0.200 W0.480
; skirt
G1 X55.855 Y52.371 F4800
G1 E0.0000 F1800
G92 E0
G1 X55.930 Y52.291 E0.0046 F1260
G1 X58.799 Y49.564 E0.1721
G1 X58.882 Y49.493 E0.1767
G1 X62.013 Y47.069 E0.3442
G1 X62.103 Y47.007 E0.3489
G1 X65.462 Y44.913 E0.5163
G1 X65.558 Y44.860 E0.5210
G1 X69.112 Y43.116 E0.6885
G1 X69.213 Y43.073 E0.6931
G1 X72.925 Y41.698 E0.8606
G1 X73.030 Y41.665 E0.8652
G1 X76.862 Y40.673 E1.0327
G1 X76.969 Y40.651 E1.0373
G1 X80.883 Y40.052 E1.2048
G1 X80.992 Y40.041 E1.2094
G1 X84.945 Y39.840 E1.3769
G1 X85.055 Y39.840 E1.3816
G1 X89.008 Y40.041 E1.5490
G1 X89.117 Y40.052 E1.5537
G1 X93.031 Y40.651 E1.7212
G1 X93.138 Y40.673 E1.7258
G1 X96.970 Y41.665 E1.8933
G1 X97.075 Y41.698 E1.8979
G1 X100.787 Y43.073 E2.0654
G1 X100.888 Y43.116 E2.0700
G1 X104.442 Y44.860 E2.2375
G1 X104.538 Y44.913 E2.2421
G1 X107.897 Y47.007 E2.4096
G1 X107.987 Y47.069 E2.4143
G1 X111.118 Y49.493 E2.5817
G1 X111.201 Y49.564 E2.5864
G1 X114.070 Y52.291 E2.7539
G1 X114.145 Y52.371 E2.7585
G1 X116.724 Y55.375 E2.9260
G1 X116.791 Y55.461 E2.9306
G1 X119.053 Y58.710 E3.0981
G1 X119.111 Y58.803 E3.1027
G1 X121.032 Y62.265 E3.2702
G1 X121.080 Y62.363 E3.2748
G1 X122.641 Y66.001 E3.4423
G1 X122.679 Y66.104 E3.4470
G1 X123.864 Y69.881 E3.6144
G1 X123.892 Y69.987 E3.6191
G1 X124.689 Y73.865 E3.7866
G1 X124.705 Y73.973 E3.7912
G1 X125.106 Y77.911 E3.9587
G1 X125.111 Y78.021 E3.9633
G1 X125.111 Y81.979 E4.1308
G1 X125.106 Y82.089 E4.1354
G1 X124.705 Y86.027 E4.3029
G1 X124.689 Y86.135 E4.3075
G1 X123.892 Y90.013 E4.4750
G1 X123.864 Y90.119 E4.4797
G1 X122.679 Y93.896 E4.6471
G1 X122.641 Y93.999 E4.6518
G1 X121.080 Y97.637 E4.8193
G1 X121.032 Y97.735 E4.8239
G1 X119.111 Y101.197 E4.9914
G1 X119.053 Y101.290 E4.9960
G1 X116.791 Y104.539 E5.1635
G1 X116.724 Y104.625 E5.1681
G1 X114.145 Y107.629 E5.3356
G1 X114.070 Y107.709 E5.3402
G1 X111.201 Y110.436 E5.5077
G1 X111.118 Y110.507 E5.5124
G1 X107.987 Y112.931 E5.6798
G1 X107.897 Y112.993 E5.6845
G1 X104.538 Y115.087 E5.8520
G1 X104.442 Y115.140 E5.8566
G1 X100.888 Y116.884 E6.0241
G1 X100.787 Y116.927 E6.0287
G1 X97.075 Y118.302 E6.1962
G1 X96.970 Y118.335 E6.2008
G1 X93.138 Y119.327 E6.3683
G1 X93.031 Y119.349 E6.3729
G1 X89.117 Y119.948 E6.5404
G1 X89.008 Y119.959 E6.5451
G1 X85.055 Y120.160 E6.7125
G1 X84.945 Y120.160 E6.7172
G1 X80.992 Y119.959 E6.8847
G1 X80.883 Y119.948 E6.8893
G1 X76.969 Y119.349 E7.0568
G1 X76.862 Y119.327 E7.0614
G1 X73.030 Y118.335 E7.2289
G1 X72.925 Y118.302 E7.2335
G1 X69.213 Y116.927 E7.4010
G1 X69.112 Y116.884 E7.4056
G1 X65.558 Y115.140 E7.5731
G1 X65.462 Y115.087 E7.5778
G1 X62.103 Y112.993 E7.7452
G1 X62.013 Y112.931 E7.7499
G1 X58.882 Y110.507 E7.9174
G1 X58.799 Y110.436 E7.9220
G1 X55.930 Y107.709 E8.0895
G1 X55.855 Y107.629 E8.0941
G1 X53.276 Y104.625 E8.2616
G1 X53.209 Y104.539 E8.2662
G1 X50.947 Y101.290 E8.4337
G1 X50.889 Y101.197 E8.4383
G1 X48.968 Y97.735 E8.6058
G1 X48.920 Y97.637 E8.6104
G1 X47.359 Y93.999 E8.7779
G1 X47.321 Y93.896 E8.7826
G1 X46.136 Y90.119 E8.9501
G1 X46.108 Y90.013 E8.9547
G1 X45.311 Y86.135 E9.1222
G1 X45.295 Y86.027 E9.1268
G1 X44.894 Y82.089 E9.2943
G1 X44.889 Y81.979 E9.2989
G1 X44.889 Y78.021 E9.4664
G1 X44.894 Y77.911 E9.4710
G1 X45.295 Y73.973 E9.6385
G1 X45.311 Y73.865 E9.6431
G1 X46.108 Y69.987 E9.8106
G1 X46.136 Y69.881 E9.8153
G1 X47.321 Y66.104 E9.9827
G1 X47.359 Y66.001 E9.9874
G1 X48.920 Y62.363 E10.1549
G1 X48.968 Y62.265 E10.1595
G1 X50.889 Y58.803 E10.3270
G1 X50.947 Y58.710 E10.3316
G1 X53.209 Y55.461 E10.4991
G1 X53.276 Y55.375 E10.5037
G1 X55.529 Y52.750 E10.6501
G1 X55.855 Y52.371 F1260
G1 X56.211 Y52.693 F4800
G92 E0
G1 X56.270 Y52.631 E0.0036 F1260
G1 X59.121 Y49.920 E0.1701
G1 X59.186 Y49.865 E0.1737
G1 X62.297 Y47.456 E0.3401
G1 X62.367 Y47.408 E0.3437
G1 X65.706 Y45.327 E0.5102
G1 X65.780 Y45.285 E0.5138
G1 X69.313 Y43.553 E0.6802
G1 X69.391 Y43.519 E0.6838
G1 X73.081 Y42.152 E0.8503
G1 X73.162 Y42.127 E0.8539
G1 X76.971 Y41.141 E1.0203
G1 X77.054 Y41.124 E1.0239
G1 X80.943 Y40.528 E1.1904
G1 X81.028 Y40.519 E1.1940
G1 X84.957 Y40.320 E1.3605
G1 X85.043 Y40.320 E1.3641
G1 X88.972 Y40.519 E1.5305
G1 X89.057 Y40.528 E1.5341
G1 X92.946 Y41.124 E1.7006
G1 X93.029 Y41.141 E1.7042
G1 X96.838 Y42.127 E1.8706
G1 X96.919 Y42.152 E1.8742
G1 X100.609 Y43.519 E2.0407
G1 X100.687 Y43.553 E2.0443
G1 X104.220 Y45.285 E2.2108
G1 X104.294 Y45.327 E2.2144
G1 X107.633 Y47.408 E2.3808
G1 X107.703 Y47.456 E2.3844
G1 X110.814 Y49.865 E2.5509
G1 X110.879 Y49.920 E2.5545
G1 X113.730 Y52.631 E2.7209
G1 X113.789 Y52.693 E2.7245
G1 X116.352 Y55.678 E2.8910
G1 X116.404 Y55.745 E2.8946
G1 X118.652 Y58.975 E3.0610
G1 X118.697 Y59.047 E3.0646
G1 X120.606 Y62.487 E3.2311
G1 X120.644 Y62.563 E3.2347
G1 X122.195 Y66.179 E3.4012
G1 X122.225 Y66.259 E3.4048
G1 X123.403 Y70.013 E3.5712
G1 X123.424 Y70.095 E3.5748
G1 X124.216 Y73.949 E3.7413
G1 X124.229 Y74.033 E3.7449
G1 X124.627 Y77.948 E3.9113
G1 X124.631 Y78.033 E3.9149
G1 X124.631 Y81.967 E4.0814
G1 X124.627 Y82.052 E4.0850
G1 X124.229 Y85.967 E4.2514
G1 X124.216 Y86.051 E4.2551
G1 X123.424 Y89.905 E4.4215
G1 X123.403 Y89.987 E4.4251
G1 X122.225 Y93.741 E4.5916
G1 X122.195 Y93.821 E4.5952
G1 X120.644 Y97.437 E4.7616
G1 X120.606 Y97.513 E4.7652
G1 X118.697 Y100.953 E4.9317
G1 X118.652 Y101.025 E4.9353
G1 X116.404 Y104.255 E5.1017
G1 X116.352 Y104.322 E5.1053
G1 X113.789 Y107.307 E5.2718
G1 X113.730 Y107.369 E5.2754
G1 X110.879 Y110.080 E5.4419
G1 X110.814 Y110.135 E5.4455
G1 X107.703 Y112.544 E5.6119
G1 X107.633 Y112.592 E5.6155
G1 X104.294 Y114.673 E5.7820
G1 X104.220 Y114.715 E5.7856
G1 X100.687 Y116.447 E5.9520
G1 X100.609 Y116.481 E5.9556
G1 X96.919 Y117.847 E6.1221
G1 X96.838 Y117.873 E6.1257
G1 X93.029 Y118.859 E6.2921
G1 X92.946 Y118.876 E6.2957
G1 X89.057 Y119.472 E6.4622
G1 X88.972 Y119.481 E6.4658
G1 X85.043 Y119.680 E6.6323
G1 X84.957 Y119.680 E6.6359
G1 X81.028 Y119.481 E6.8023
G1 X80.943 Y119.472 E6.8059
G1 X77.054 Y118.876 E6.9724
G1 X76.971 Y118.859 E6.9760
G1 X73.162 Y117.873 E7.1424
G1 X73.081 Y117.847 E7.1460
G1 X69.391 Y116.481 E7.3125
G1 X69.313 Y116.447 E7.3161
G1 X65.780 Y114.715 E7.4825
G1 X65.706 Y114.673 E7.4862
G1 X62.367 Y112.592 E7.6526
G1 X62.297 Y112.544 E7.6562
G1 X59.186 Y110.135 E7.8227
G1 X59.121 Y110.080 E7.8263
G1 X56.270 Y107.369 E7.9927
G1 X56.211 Y107.307 E7.9963
G1 X53.648 Y104.322 E8.1628
G1 X53.596 Y104.255 E8.1664
G1 X51.348 Y101.025 E8.3328
G1 X51.303 Y100.953 E8.3364
G1 X49.394 Y97.513 E8.5029
G1 X49.356 Y97.437 E8.5065
G1 X47.805 Y93.821 E8.6730
G1 X47.775 Y93.741 E8.6766
G1 X46.597 Y89.987 E8.8430
G1 X46.576 Y89.905 E8.8466
G1 X45.784 Y86.051 E9.0131
G1 X45.771 Y85.967 E9.0167
G1 X45.373 Y82.052 E9.1831
G1 X45.369 Y81.967 E9.1867
G1 X45.369 Y78.033 E9.3532
G1 X45.373 Y77.948 E9.3568
G1 X45.771 Y74.033 E9.5232
G1 X45.784 Y73.949 E9.5268
G1 X46.576 Y70.095 E9.6933
G1 X46.597 Y70.013 E9.6969
G1 X47.775 Y66.259 E9.8634
G1 X47.805 Y66.179 E9.8670
G1 X49.356 Y62.563 E10.0334
G1 X49.394 Y62.487 E10.0370
G1 X51.303 Y59.047 E10.2035
G1 X51.348 Y58.975 E10.2071
G1 X53.596 Y55.745 E10.3735
G1 X53.648 Y55.678 E10.3771
G1 X55.885 Y53.072 E10.5224
G1 X56.211 Y52.693 F1260
G1 X56.567 Y53.015 F4800
G92 E0
G1 X56.609 Y52.970 E0.0026 F1260
G1 X59.443 Y50.276 E0.1680
G1 X59.489 Y50.237 E0.1706
G1 X62.581 Y47.843 E0.3360
G1 X62.631 Y47.809 E0.3386
G1 X65.950 Y45.740 E0.5040
G1 X66.003 Y45.711 E0.5066
G1 X69.513 Y43.989 E0.6720
G1 X69.569 Y43.965 E0.6746
G1 X73.236 Y42.607 E0.8400
G1 X73.294 Y42.589 E0.8426
G1 X77.079 Y41.609 E1.0080
G1 X77.139 Y41.596 E1.0106
G1 X81.004 Y41.004 E1.1760
G1 X81.064 Y40.998 E1.1786
G1 X84.970 Y40.800 E1.3440
G1 X85.030 Y40.800 E1.3466
G1 X88.936 Y40.998 E1.5120
G1 X88.996 Y41.004 E1.5146
G1 X92.861 Y41.596 E1.6800
G1 X92.921 Y41.609 E1.6826
G1 X96.706 Y42.589 E1.8480
G1 X96.764 Y42.607 E1.8506
G1 X100.431 Y43.965 E2.0160
G1 X100.487 Y43.989 E2.0186
G1 X103.997 Y45.711 E2.1840
G1 X104.050 Y45.740 E2.1866
G1 X107.369 Y47.809 E2.3520
G1 X107.419 Y47.843 E2.3546
G1 X110.511 Y50.237 E2.5200
G1 X110.557 Y50.276 E2.5226
G1 X113.391 Y52.970 E2.6880
G1 X113.433 Y53.015 E2.6906
G1 X115.980 Y55.981 E2.8560
G1 X116.017 Y56.029 E2.8586
G1 X118.251 Y59.239 E3.0240
G1 X118.283 Y59.290 E3.0266
G1 X120.181 Y62.709 E3.1920
G1 X120.207 Y62.764 E3.1946
G1 X121.749 Y66.357 E3.3600
G1 X121.770 Y66.414 E3.3626
G1 X122.941 Y70.145 E3.5280
G1 X122.956 Y70.204 E3.5306
G1 X123.743 Y74.034 E3.6960
G1 X123.753 Y74.094 E3.6986
G1 X124.148 Y77.984 E3.8640
G1 X124.151 Y78.045 E3.8666
G1 X124.151 Y81.955 E4.0320
G1 X124.148 Y82.016 E4.0346
G1 X123.753 Y85.906 E4.2000
G1 X123.743 Y85.966 E4.2026
G1 X122.956 Y89.796 E4.3680
G1 X122.941 Y89.855 E4.3706
G1 X121.770 Y93.586 E4.5360
G1 X121.749 Y93.643 E4.5386
G1 X120.207 Y97.236 E4.7040
G1 X120.181 Y97.291 E4.7066
G1 X118.283 Y100.710 E4.8720
G1 X118.251 Y100.761 E4.8746
G1 X116.017 Y103.971 E5.0400
G1 X115.980 Y104.019 E5.0426
G1 X113.433 Y106.985 E5.2080
G1 X113.391 Y107.030 E5.2106
G1 X110.557 Y109.724 E5.3760
G1 X110.511 Y109.763 E5.3786
G1 X107.419 Y112.157 E5.5440
G1 X107.369 Y112.191 E5.5466
G1 X104.050 Y114.260 E5.7120
G1 X103.997 Y114.289 E5.7146
G1 X100.487 Y116.011 E5.8800
G1 X100.431 Y116.035 E5.8826
G1 X96.764 Y117.393 E6.0480
G1 X96.706 Y117.411 E6.0506
G1 X92.921 Y118.391 E6.2160
G1 X92.861 Y118.404 E6.2186
G1 X88.996 Y118.996 E6.3840
G1 X88.936 Y119.002 E6.3866
G1 X85.030 Y119.200 E6.5520
G1 X84.970 Y119.200 E6.5546
G1 X81.064 Y119.002 E6.7200
G1 X81.004 Y118.996 E6.7226
G1 X77.139 Y118.404 E6.8880
G1 X77.079 Y118.391 E6.8906
G1 X73.294 Y117.411 E7.0560
G1 X73.236 Y117.393 E7.0586
G1 X69.569 Y116.035 E7.2240
G1 X69.513 Y116.011 E7.2266
G1 X66.003 Y114.289 E7.3920
G1 X65.950 Y114.260 E7.3946
G1 X62.631 Y112.191 E7.5600
G1 X62.581 Y112.157 E7.5626
G1 X59.489 Y109.763 E7.7280
G1 X59.443 Y109.724 E7.7306
G1 X56.609 Y107.030 E7.8960
G1 X56.567 Y106.985 E7.8985
G1 X54.020 Y104.019 E8.0640
G1 X53.983 Y103.971 E8.0665
G1 X51.749 Y100.761 E8.2320
G1 X51.717 Y100.710 E8.2345
G1 X49.819 Y97.291 E8.4000
G1 X49.793 Y97.236 E8.4025
