; G-Code generated by Simplify3D(R) Version 4.0.0
; Feb 25, 2018 at 7:17:41 PM
; Settings Summary
;   processName,Basic 
;   applyToModels,Collimation Ball mount
;   profileName,BortBot (modified)
;   profileVersion,2017-10-07 14:50:40
;   baseProfile,Default
;   printMaterial,PLA
;   printQuality,Medium
;   printExtruders,
;   extruderName,Extruder 1
;   extruderToolheadNumber,0
;   extruderDiameter,0.4
;   extruderAutoWidth,1
;   extruderWidth,0.48
;   extrusionMultiplier,1.06
;   extruderUseRetract,1
;   extruderRetractionDistance,2.4
;   extruderExtraRestartDistance,0.8
;   extruderRetractionZLift,0
;   extruderRetractionSpeed,6000
;   extruderUseCoasting,0
;   extruderCoastingDistance,0.2
;   extruderUseWipe,0
;   extruderWipeDistance,5
;   primaryExtruder,0
;   layerHeight,0.25
;   topSolidLayers,3
;   bottomSolidLayers,3
;   perimeterOutlines,2
;   printPerimetersInsideOut,0
;   startPointOption,2
;   startPointOriginX,0
;   startPointOriginY,0
;   sequentialIslands,0
;   spiralVaseMode,0
;   firstLayerHeightPercentage,100
;   firstLayerWidthPercentage,100
;   firstLayerUnderspeed,0.4
;   useRaft,0
;   raftExtruder,0
;   raftTopLayers,2
;   raftBaseLayers,2
;   raftOffset,3
;   raftSeparationDistance,0.3
;   raftTopInfill,90
;   aboveRaftSpeedMultiplier,0.3
;   useSkirt,1
;   skirtExtruder,0
;   skirtLayers,1
;   skirtOutlines,3
;   skirtOffset,8
;   usePrimePillar,0
;   primePillarExtruder,999
;   primePillarWidth,12
;   primePillarLocation,7
;   primePillarSpeedMultiplier,1
;   useOozeShield,0
;   oozeShieldExtruder,999
;   oozeShieldOffset,2
;   oozeShieldOutlines,1
;   oozeShieldSidewallShape,1
;   oozeShieldSidewallAngle,30
;   oozeShieldSpeedMultiplier,1
;   infillExtruder,0
;   internalInfillPattern,Triangular
;   externalInfillPattern,Rectilinear
;   infillPercentage,50
;   outlineOverlapPercentage,35
;   infillExtrusionWidthPercentage,100
;   minInfillLength,5
;   infillLayerInterval,1
;   internalInfillAngles,0,60,-60
;   overlapInternalInfillAngles,1
;   externalInfillAngles,45,-45
;   generateSupport,1
;   supportExtruder,0
;   supportInfillPercentage,30
;   supportExtraInflation,0
;   supportBaseLayers,0
;   denseSupportExtruder,0
;   denseSupportLayers,0
;   denseSupportInfillPercentage,70
;   supportLayerInterval,1
;   supportHorizontalPartOffset,0.3
;   supportUpperSeparationLayers,1
;   supportLowerSeparationLayers,1
;   supportType,0
;   supportGridSpacing,4
;   maxOverhangAngle,45
;   supportAngles,0
;   temperatureName,Extruder 1
;   temperatureNumber,0
;   temperatureSetpointCount,1
;   temperatureSetpointLayers,1
;   temperatureSetpointTemperatures,200
;   temperatureStabilizeAtStartup,1
;   temperatureHeatedBed,0
;   temperatureRelayBetweenLayers,1
;   temperatureRelayBetweenLoops,1
;   fanLayers,1,3
;   fanSpeeds,0,60
;   blipFanToFullPower,1
;   adjustSpeedForCooling,1
;   minSpeedLayerTime,15
;   minCoolingSpeedSlowdown,20
;   increaseFanForCooling,0
;   minFanLayerTime,45
;   maxCoolingFanSpeed,100
;   increaseFanForBridging,0
;   bridgingFanSpeed,100
;   use5D,1
;   relativeEdistances,0
;   allowEaxisZeroing,1
;   independentExtruderAxes,0
;   includeM10123,0
;   stickySupport,1
;   applyToolheadOffsets,0
;   gcodeXoffset,0
;   gcodeYoffset,0
;   gcodeZoffset,0
;   overrideMachineDefinition,0
;   machineTypeOverride,0
;   strokeXoverride,100
;   strokeYoverride,100
;   strokeZoverride,100
;   originOffsetXoverride,0
;   originOffsetYoverride,0
;   originOffsetZoverride,0
;   homeXdirOverride,-1
;   homeYdirOverride,-1
;   homeZdirOverride,-1
;   flipXoverride,1
;   flipYoverride,-1
;   flipZoverride,1
;   toolheadOffsets,0,0|0,0|0,0|0,0|0,0|0,0
;   overrideFirmwareConfiguration,0
;   firmwareTypeOverride,RepRap (Marlin/Repetier/Sprinter)
;   GPXconfigOverride,r2
;   baudRateOverride,115200
;   overridePrinterModels,0
;   printerModelsOverride
;   startingGcode,;G28  ; Home all,;M208S7; DISABLE THE PROBE,;G1 Z5; probe z clearance,;G1 X0 Y0; ,;M280S3; Enable the probe,;G32; probe the grid,;M374; save the grid,;G1 Z20 ; Set Z20 for ooze
;   layerChangeGcode,
;   retractionGcode,
;   toolChangeGcode,
;   endingGcode,M104 S0 ; turn off extruder,M140 S0 ; turn off bed,G91 G1 Z10 ; Clearance from part,G90 G1 X0 Y0 Z118 ; Go to starting position (X0 Y0 Z 122),M84 ; disable motor
;   exportFileFormat,gcode
;   celebration,0
;   celebrationSong,Random Song
;   postProcessing,
;   defaultSpeed,3000
;   outlineUnderspeed,0.65
;   solidInfillUnderspeed,0.8
;   supportUnderspeed,0.8
;   rapidXYspeed,3600
;   rapidZspeed,1002
;   minBridgingArea,50
;   bridgingExtraInflation,0
;   bridgingExtrusionMultiplier,1
;   bridgingSpeedMultiplier,1
;   useFixedBridgingAngle,0
;   fixedBridgingAngle,0
;   applyBridgingToPerimeters,0
;   filamentDiameters,1.75|1.75|1.75|1.75|1.75|1.75
;   filamentPricesPerKg,46|46|46|46|46|46
;   filamentDensities,1.27|1.25|1.25|1.25|1.25|1.25
;   useMinPrintHeight,0
;   minPrintHeight,0
;   useMaxPrintHeight,0
;   maxPrintHeight,0
;   useDiaphragm,0
;   diaphragmLayerInterval,20
;   robustSlicing,1
;   mergeAllIntoSolid,0
;   onlyRetractWhenCrossingOutline,1
;   retractBetweenLayers,1
;   useRetractionMinTravel,0
;   retractionMinTravel,3
;   retractWhileWiping,0
;   onlyWipeOutlines,1
;   avoidCrossingOutline,0
;   maxMovementDetourFactor,3
;   toolChangeRetractionDistance,12
;   toolChangeExtraRestartDistance,-0.5
;   toolChangeRetractionSpeed,600
;   externalThinWallType,0
;   internalThinWallType,2
;   thinWallAllowedOverlapPercentage,10
;   singleExtrusionMinLength,1
;   singleExtrusionMinPrintingWidthPercentage,50
;   singleExtrusionMaxPrintingWidthPercentage,200
;   singleExtrusionEndpointExtension,0.2
;   horizontalSizeCompensation,0
G90
M82
M106 S255
G4 P500
M106 S0
M104 S200 T0
M109 S200 T0
;G28  ; Home all
;M208S7; DISABLE THE PROBE
;G1 Z5; probe z clearance
;G1 X0 Y0; 
;M280S3; Enable the probe
;G32; probe the grid
;M374; save the grid
;G1 Z20 ; Set Z20 for ooze
G92 E0
G1 E-2.4000 F6000
G1 Z0.250 F1002
; process Basic 
; layer 1, Z = 0.250
M105
T0
; tool H0.250 W0.480
; skirt
G1 X49.545 Y50.028 F3600
G1 E0.8000 F1800
G92 E0
G1 X49.580 Y49.991 E0.0027 F1200
G1 X50.709 Y48.914 E0.0852
G1 X50.747 Y48.880 E0.0879
G1 X51.310 Y48.427 E0.1261
G1 X51.350 Y48.397 E0.1287
G1 X52.643 Y47.523 E0.2113
G1 X52.686 Y47.497 E0.2139
G1 X53.316 Y47.144 E0.2521
G1 X53.361 Y47.121 E0.2548
G1 X54.782 Y46.476 E0.3373
G1 X54.829 Y46.457 E0.3400
G1 X55.510 Y46.214 E0.3782
G1 X55.558 Y46.199 E0.3809
G1 X56.892 Y45.847 E0.4539
G1 X56.917 Y45.841 E0.4552
G1 X57.269 Y45.763 E0.4743
G1 X57.294 Y45.758 E0.4756
G1 X117.350 Y35.169 E3.7006
G1 X117.821 Y35.275 E3.7261
G1 X123.677 Y39.456 E4.1066
G1 X123.931 Y39.867 E4.1322
G1 X125.297 Y48.525 E4.5957
G1 X125.299 Y48.536 E4.5963
G1 X125.320 Y48.689 E4.6045
G1 X125.321 Y48.700 E4.6051
G1 X125.951 Y53.908 E4.8825
G1 X125.952 Y53.918 E4.8831
G1 X125.968 Y54.073 E4.8913
G1 X125.969 Y54.084 E4.8919
G1 X126.410 Y59.311 E5.1693
G1 X126.411 Y59.321 E5.1698
G1 X126.421 Y59.477 E5.1780
G1 X126.422 Y59.487 E5.1786
G1 X126.673 Y64.727 E5.4560
G1 X126.674 Y64.738 E5.4566
G1 X126.678 Y64.893 E5.4648
G1 X126.679 Y64.904 E5.4654
G1 X126.741 Y70.149 E5.7428
G1 X126.741 Y70.160 E5.7434
G1 X126.740 Y70.315 E5.7516
G1 X126.740 Y70.326 E5.7521
G1 X126.612 Y75.570 E6.0295
G1 X126.612 Y75.581 E6.0301
G1 X126.605 Y75.736 E6.0383
G1 X126.605 Y75.747 E6.0389
G1 X126.288 Y80.983 E6.3163
G1 X126.287 Y80.993 E6.3169
G1 X126.275 Y81.148 E6.3251
G1 X126.274 Y81.159 E6.3257
G1 X125.768 Y86.380 E6.6031
G1 X125.767 Y86.391 E6.6036
G1 X125.749 Y86.545 E6.6119
G1 X125.747 Y86.556 E6.6124
G1 X125.053 Y91.755 E6.8898
G1 X125.052 Y91.766 E6.8904
G1 X125.028 Y91.920 E6.8986
G1 X125.026 Y91.931 E6.8992
G1 X124.145 Y97.101 E7.1766
G1 X124.143 Y97.112 E7.1772
G1 X124.114 Y97.265 E7.1854
G1 X124.112 Y97.275 E7.1860
G1 X123.044 Y102.411 E7.4634
G1 X123.041 Y102.421 E7.4639
G1 X123.007 Y102.573 E7.4722
G1 X123.004 Y102.583 E7.4727
G1 X121.751 Y107.677 E7.7501
G1 X121.748 Y107.687 E7.7507
G1 X121.709 Y107.838 E7.7589
G1 X121.706 Y107.848 E7.7595
G1 X120.269 Y112.893 E8.0369
G1 X120.266 Y112.903 E8.0375
G1 X120.221 Y113.052 E8.0457
G1 X120.218 Y113.062 E8.0462
G1 X117.514 Y121.400 E8.5098
G1 X117.199 Y121.767 E8.5353
G1 X110.761 Y124.979 E8.9158
G1 X110.279 Y125.011 E8.9414
G1 X83.046 Y115.634 E10.4646
G1 X83.021 Y115.625 E10.4659
G1 X82.676 Y115.489 E10.4856
G1 X82.652 Y115.479 E10.4870
G1 X81.828 Y115.113 E10.5346
G1 X81.782 Y115.090 E10.5373
G1 X81.133 Y114.732 E10.5766
G1 X81.088 Y114.705 E10.5793
G1 X80.186 Y114.100 E10.6368
G1 X80.144 Y114.069 E10.6395
G1 X79.565 Y113.605 E10.6787
G1 X79.526 Y113.570 E10.6815
G1 X78.741 Y112.819 E10.7390
G1 X78.705 Y112.782 E10.7417
G1 X78.214 Y112.224 E10.7810
G1 X78.182 Y112.184 E10.7837
G1 X77.536 Y111.309 E10.8412
G1 X77.507 Y111.266 E10.8440
G1 X77.120 Y110.632 E10.8832
G1 X77.095 Y110.587 E10.8860
G1 X76.610 Y109.615 E10.9434
G1 X76.589 Y109.568 E10.9462
G1 X76.316 Y108.879 E10.9853
G1 X76.299 Y108.830 E10.9881
G1 X75.988 Y107.789 E11.0456
G1 X75.975 Y107.738 E11.0483
G1 X75.825 Y107.011 E11.0876
G1 X75.817 Y106.960 E11.0903
G1 X75.689 Y105.880 E11.1478
G1 X75.685 Y105.829 E11.1505
G1 X75.662 Y105.087 E11.1898
G1 X75.662 Y105.036 E11.1925
G1 X75.721 Y103.951 E11.2500
G1 X75.726 Y103.899 E11.2527
G1 X75.831 Y103.164 E11.2920
G1 X75.840 Y103.113 E11.2947
G1 X76.085 Y102.054 E11.3522
G1 X76.099 Y102.004 E11.3549
G1 X76.328 Y101.298 E11.3942
G1 X76.346 Y101.249 E11.3969
G1 X76.769 Y100.248 E11.4544
G1 X76.791 Y100.201 E11.4572
G1 X77.138 Y99.545 E11.4964
G1 X77.164 Y99.500 E11.4991
G1 X77.752 Y98.587 E11.5566
G1 X77.782 Y98.544 E11.5594
G1 X78.237 Y97.957 E11.5986
G1 X78.270 Y97.917 E11.6014
G1 X79.018 Y97.106 E11.6597
G1 X79.057 Y97.068 E11.6626
G1 X79.631 Y96.548 E11.7036
G1 X79.673 Y96.513 E11.7064
G1 X81.543 Y95.103 E11.8303
G1 X82.169 Y94.460 E11.8778
G1 X82.685 Y93.733 E11.9249
G1 X83.083 Y92.934 E11.9721
G1 X83.353 Y92.084 E12.0193
G1 X83.488 Y91.203 E12.0664
G1 X83.487 Y90.311 E12.1136
G1 X83.348 Y89.430 E12.1608
G1 X83.075 Y88.581 E12.2079
G1 X82.674 Y87.784 E12.2551
G1 X82.156 Y87.058 E12.3023
G1 X81.531 Y86.421 E12.3494
G1 X80.816 Y85.888 E12.3966
G1 X80.028 Y85.471 E12.4438
G1 X79.185 Y85.180 E12.4910
G1 X78.307 Y85.023 E12.5381
G1 X77.415 Y85.004 E12.5853
G1 X76.531 Y85.121 E12.6325
G1 X75.675 Y85.374 E12.6796
G1 X74.869 Y85.755 E12.7268
G1 X74.131 Y86.256 E12.7740
G1 X73.479 Y86.865 E12.8211
G1 X72.929 Y87.567 E12.8683
G1 X72.493 Y88.345 E12.9155
G1 X72.182 Y89.181 E12.9626
G1 X72.004 Y90.055 E13.0098
G1 X71.963 Y90.946 E13.0570
G1 X72.060 Y91.838 E13.1044
G1 X72.666 Y94.100 E13.2283
G1 X72.678 Y94.153 E13.2312
G1 X72.810 Y94.917 E13.2722
G1 X72.817 Y94.971 E13.2750
G1 X72.907 Y96.071 E13.3334
G1 X72.909 Y96.123 E13.3361
G1 X72.905 Y96.865 E13.3754
G1 X72.903 Y96.917 E13.3781
G1 X72.804 Y98.000 E13.4356
G1 X72.797 Y98.051 E13.4384
G1 X72.666 Y98.781 E13.4776
G1 X72.655 Y98.832 E13.4803
G1 X72.372 Y99.881 E13.5378
G1 X72.356 Y99.930 E13.5405
G1 X72.102 Y100.628 E13.5798
G1 X72.082 Y100.675 E13.5825
G1 X71.623 Y101.661 E13.6400
G1 X71.599 Y101.707 E13.6428
G1 X71.229 Y102.350 E13.6820
G1 X71.201 Y102.394 E13.6848
G1 X70.580 Y103.285 E13.7422
G1 X70.548 Y103.327 E13.7450
G1 X70.073 Y103.897 E13.7842
G1 X70.038 Y103.935 E13.7870
G1 X69.273 Y104.707 E13.8444
G1 X69.235 Y104.742 E13.8472
G1 X68.669 Y105.222 E13.8864
G1 X68.628 Y105.254 E13.8891
G1 X67.742 Y105.883 E13.9466
G1 X67.699 Y105.911 E13.9493
G1 X67.059 Y106.287 E13.9886
G1 X67.013 Y106.311 E13.9913
G1 X66.032 Y106.779 E14.0488
G1 X65.984 Y106.799 E14.0516
G1 X65.289 Y107.059 E14.0908
G1 X65.240 Y107.075 E14.0936
G1 X64.193 Y107.367 E14.1510
G1 X64.142 Y107.379 E14.1538
G1 X63.412 Y107.516 E14.1930
G1 X63.361 Y107.524 E14.1958
G1 X62.280 Y107.632 E14.2533
G1 X62.228 Y107.635 E14.2560
G1 X61.486 Y107.645 E14.2952
G1 X61.435 Y107.643 E14.2980
G1 X60.351 Y107.564 E14.3554
G1 X60.299 Y107.558 E14.3582
G1 X59.566 Y107.441 E14.3974
G1 X59.516 Y107.430 E14.4002
G1 X58.641 Y107.211 E14.4478
G1 X58.616 Y107.204 E14.4492
G1 X58.261 Y107.099 E14.4688
G1 X58.236 Y107.091 E14.4702
G1 X52.619 Y105.157 E14.7843
G1 X52.596 Y105.148 E14.7857
G1 X52.259 Y105.016 E14.8048
G1 X52.236 Y105.007 E14.8061
G1 X50.973 Y104.450 E14.8791
G1 X50.928 Y104.427 E14.8818
G1 X50.294 Y104.081 E14.9200
G1 X50.251 Y104.055 E14.9226
G1 X48.948 Y103.195 E15.0052
G1 X48.907 Y103.166 E15.0078
G1 X48.340 Y102.719 E15.0460
G1 X48.302 Y102.686 E15.0487
G1 X47.161 Y101.621 E15.1312
G1 X47.126 Y101.585 E15.1339
G1 X46.641 Y101.049 E15.1721
G1 X46.609 Y101.010 E15.1748
G1 X45.663 Y99.769 E15.2573
G1 X45.634 Y99.728 E15.2600
G1 X45.245 Y99.119 E15.2982
G1 X45.220 Y99.075 E15.3008
G1 X44.494 Y97.693 E15.3834
G1 X44.473 Y97.648 E15.3861
G1 X44.192 Y96.983 E15.4242
G1 X44.174 Y96.935 E15.4269
G1 X43.689 Y95.452 E15.5094
G1 X43.676 Y95.403 E15.5121
G1 X43.510 Y94.700 E15.5503
G1 X43.500 Y94.651 E15.5530
G1 X43.270 Y93.107 E15.6355
G1 X43.265 Y93.057 E15.6382
G1 X43.219 Y92.336 E15.6764
G1 X43.218 Y92.285 E15.6791
G1 X43.249 Y90.725 E15.7616
G1 X43.252 Y90.675 E15.7643
G1 X43.327 Y89.956 E15.8025
G1 X43.334 Y89.906 E15.8051
G1 X43.579 Y88.619 E15.8744
G1 X43.582 Y88.603 E15.8753
G1 X43.630 Y88.386 E15.8870
G1 X43.633 Y88.371 E15.8879
G1 X44.793 Y83.623 E16.1463
G1 X45.574 Y79.211 E16.3833
G1 X46.069 Y74.758 E16.6202
G1 X46.277 Y70.283 E16.8571
G1 X46.196 Y65.803 E17.0941
G1 X45.793 Y60.932 E17.3526
G1 X45.791 Y60.916 E17.3534
G1 X45.779 Y60.694 E17.3652
G1 X45.778 Y60.679 E17.3660
G1 X45.738 Y59.368 E17.4353
G1 X45.738 Y59.318 E17.4380
G1 X45.777 Y58.597 E17.4762
G1 X45.781 Y58.547 E17.4788
G1 X45.995 Y57.000 E17.5614
G1 X46.004 Y56.951 E17.5640
G1 X46.162 Y56.246 E17.6022
G1 X46.175 Y56.197 E17.6049
G1 X46.644 Y54.708 E17.6875
G1 X46.661 Y54.661 E17.6901
G1 X46.935 Y53.993 E17.7283
G1 X46.956 Y53.947 E17.7310
G1 X47.667 Y52.557 E17.8135
G1 X47.691 Y52.514 E17.8162
G1 X48.073 Y51.900 E17.8544
G1 X48.102 Y51.859 E17.8570
G1 X49.035 Y50.608 E17.9396
G1 X49.066 Y50.568 E17.9423
G1 X49.545 Y50.028 E17.9805
G1 X49.898 Y50.353 F3600
G92 E0
G1 X49.919 Y50.332 E0.0016 F1200
G1 X51.033 Y49.268 E0.0831
G1 X51.056 Y49.248 E0.0847
G1 X51.603 Y48.807 E0.1218
G1 X51.627 Y48.789 E0.1234
G1 X52.904 Y47.927 E0.2049
G1 X52.929 Y47.911 E0.2065
G1 X53.542 Y47.568 E0.2436
G1 X53.569 Y47.554 E0.2452
G1 X54.972 Y46.917 E0.3267
G1 X55.000 Y46.906 E0.3283
G1 X55.661 Y46.670 E0.3654
G1 X55.690 Y46.661 E0.3670
G1 X57.010 Y46.312 E0.4392
G1 X57.025 Y46.308 E0.4400
G1 X57.367 Y46.233 E0.4586
G1 X57.382 Y46.230 E0.4594
G1 X117.338 Y35.658 E3.6790
G1 X117.621 Y35.722 E3.6943
G1 X123.320 Y39.790 E4.0646
G1 X123.472 Y40.037 E4.0799
G1 X124.823 Y48.597 E4.5382
G1 X124.823 Y48.604 E4.5386
G1 X124.844 Y48.754 E4.5466
G1 X124.845 Y48.760 E4.5469
G1 X125.474 Y53.963 E4.8241
G1 X125.475 Y53.970 E4.8244
G1 X125.490 Y54.120 E4.8324
G1 X125.491 Y54.126 E4.8328
G1 X125.931 Y59.349 E5.1099
G1 X125.932 Y59.355 E5.1103
G1 X125.942 Y59.506 E5.1182
G1 X125.942 Y59.513 E5.1186
G1 X126.194 Y64.748 E5.3958
G1 X126.194 Y64.754 E5.3961
G1 X126.198 Y64.905 E5.4041
G1 X126.199 Y64.912 E5.4044
G1 X126.261 Y70.152 E5.6816
G1 X126.261 Y70.159 E5.6819
G1 X126.260 Y70.310 E5.6899
G1 X126.260 Y70.316 E5.6903
G1 X126.132 Y75.556 E5.9674
G1 X126.132 Y75.562 E5.9678
G1 X126.126 Y75.713 E5.9758
G1 X126.125 Y75.720 E5.9761
G1 X125.809 Y80.951 E6.2533
G1 X125.808 Y80.958 E6.2536
G1 X125.796 Y81.109 E6.2616
G1 X125.796 Y81.115 E6.2620
G1 X125.290 Y86.332 E6.5391
G1 X125.290 Y86.338 E6.5395
G1 X125.272 Y86.488 E6.5475
G1 X125.271 Y86.495 E6.5478
G1 X124.578 Y91.690 E6.8250
G1 X124.577 Y91.696 E6.8253
G1 X124.554 Y91.846 E6.8333
G1 X124.553 Y91.852 E6.8337
G1 X123.672 Y97.018 E7.1108
G1 X123.671 Y97.025 E7.1112
G1 X123.643 Y97.173 E7.1192
G1 X123.641 Y97.180 E7.1195
G1 X122.574 Y102.311 E7.3967
G1 X122.573 Y102.317 E7.3970
G1 X122.539 Y102.465 E7.4050
G1 X122.538 Y102.471 E7.4054
G1 X121.286 Y107.560 E7.6825
G1 X121.284 Y107.566 E7.6829
G1 X121.245 Y107.713 E7.6909
G1 X121.244 Y107.719 E7.6912
G1 X119.808 Y112.760 E7.9684
G1 X119.806 Y112.766 E7.9687
G1 X119.762 Y112.910 E7.9767
