; G-Code generated by Simplify3D(R) Version 4.0.1
; Sep 16, 2018 at 1:30:16 PM
; Settings Summary
;   processName,Process1
;   applyToModels,eyepiece spacer
;   profileName,BortBot (modified)
;   profileVersion,2018-03-11 18:52:45
;   baseProfile,Default
;   printMaterial,PLA
;   printQuality,Medium
;   printExtruders,
;   extruderName,Extruder 1
;   extruderToolheadNumber,0
;   extruderDiameter,0.5
;   extruderAutoWidth,1
;   extruderWidth,0.6
;   extrusionMultiplier,1.02
;   extruderUseRetract,1
;   extruderRetractionDistance,1.2
;   extruderExtraRestartDistance,0
;   extruderRetractionZLift,0
;   extruderRetractionSpeed,6000
;   extruderUseCoasting,1
;   extruderCoastingDistance,1.4
;   extruderUseWipe,0
;   extruderWipeDistance,4.4
;   primaryExtruder,0
;   layerHeight,0.2
;   topSolidLayers,3
;   bottomSolidLayers,2
;   perimeterOutlines,3
;   printPerimetersInsideOut,0
;   startPointOption,2
;   startPointOriginX,0
;   startPointOriginY,0
;   sequentialIslands,0
;   spiralVaseMode,0
;   firstLayerHeightPercentage,125
;   firstLayerWidthPercentage,100
;   firstLayerUnderspeed,0.75
;   useRaft,0
;   raftExtruder,0
;   raftTopLayers,2
;   raftBaseLayers,2
;   raftOffset,3
;   raftSeparationDistance,0.3
;   raftTopInfill,90
;   aboveRaftSpeedMultiplier,0.3
;   useSkirt,1
;   skirtExtruder,0
;   skirtLayers,1
;   skirtOutlines,2
;   skirtOffset,3
;   usePrimePillar,0
;   primePillarExtruder,999
;   primePillarWidth,12
;   primePillarLocation,7
;   primePillarSpeedMultiplier,1
;   useOozeShield,0
;   oozeShieldExtruder,999
;   oozeShieldOffset,2
;   oozeShieldOutlines,1
;   oozeShieldSidewallShape,1
;   oozeShieldSidewallAngle,30
;   oozeShieldSpeedMultiplier,1
;   infillExtruder,0
;   internalInfillPattern,Full Honeycomb
;   externalInfillPattern,Rectilinear
;   infillPercentage,30
;   outlineOverlapPercentage,35
;   infillExtrusionWidthPercentage,100
;   minInfillLength,5
;   infillLayerInterval,2
;   internalInfillAngles,0,120,-120
;   overlapInternalInfillAngles,0
;   externalInfillAngles,45,-45
;   generateSupport,0
;   supportExtruder,0
;   supportInfillPercentage,30
;   supportExtraInflation,0
;   supportBaseLayers,1
;   denseSupportExtruder,0
;   denseSupportLayers,4
;   denseSupportInfillPercentage,90
;   supportLayerInterval,1
;   supportHorizontalPartOffset,0.4
;   supportUpperSeparationLayers,1
;   supportLowerSeparationLayers,2
;   supportType,0
;   supportGridSpacing,1
;   maxOverhangAngle,46
;   supportAngles,30
;   temperatureName,Extruder 1,Heated Bed
;   temperatureNumber,0,1
;   temperatureSetpointCount,1,1
;   temperatureSetpointLayers,1,1
;   temperatureSetpointTemperatures,240,60
;   temperatureStabilizeAtStartup,1,1
;   temperatureHeatedBed,0,1
;   temperatureRelayBetweenLayers,1,0
;   temperatureRelayBetweenLoops,1,0
;   fanLayers,1,3
;   fanSpeeds,0,40
;   blipFanToFullPower,0
;   adjustSpeedForCooling,1
;   minSpeedLayerTime,15
;   minCoolingSpeedSlowdown,20
;   increaseFanForCooling,1
;   minFanLayerTime,45
;   maxCoolingFanSpeed,100
;   increaseFanForBridging,1
;   bridgingFanSpeed,100
;   use5D,1
;   relativeEdistances,0
;   allowEaxisZeroing,1
;   independentExtruderAxes,0
;   includeM10123,0
;   stickySupport,1
;   applyToolheadOffsets,0
;   gcodeXoffset,0
;   gcodeYoffset,0
;   gcodeZoffset,0
;   overrideMachineDefinition,0
;   machineTypeOverride,0
;   strokeXoverride,100
;   strokeYoverride,100
;   strokeZoverride,100
;   originOffsetXoverride,0
;   originOffsetYoverride,0
;   originOffsetZoverride,0
;   homeXdirOverride,-1
;   homeYdirOverride,-1
;   homeZdirOverride,-1
;   flipXoverride,1
;   flipYoverride,-1
;   flipZoverride,1
;   toolheadOffsets,0,0|0,0|0,0|0,0|0,0|0,0
;   overrideFirmwareConfiguration,0
;   firmwareTypeOverride,RepRap (Marlin/Repetier/Sprinter)
;   GPXconfigOverride,r2
;   baudRateOverride,115200
;   overridePrinterModels,0
;   printerModelsOverride
;   startingGcode,G28  ; Home all,;M208S7; DISABLE THE PROBE,;G1 Z5; probe z clearance,;G1 X0 Y0; ,;M280S3; Enable the probe,;G32; probe the grid,;M374; save the grid,;G1 Z20 ; Set Z20 for ooze
;   layerChangeGcode,
;   retractionGcode,
;   toolChangeGcode,
;   endingGcode,G10 S1; retract filament to relieve pressure,M104 S0 ; turn off extruder,M140 S0 ; turn off bed,G91 G1 Z10 ; Clearance from part,G90 G1 X0 Y0 Z170 ; Go to starting position (X0 Y0 Z 170),;M84 ; disable motor,M107; Turn off fan
;   exportFileFormat,gcode
;   celebration,0
;   celebrationSong,Random Song
;   postProcessing,
;   defaultSpeed,2400
;   outlineUnderspeed,0.8
;   solidInfillUnderspeed,1
;   supportUnderspeed,1
;   rapidXYspeed,9000
;   rapidZspeed,1800
;   minBridgingArea,10
;   bridgingExtraInflation,5
;   bridgingExtrusionMultiplier,0.9
;   bridgingSpeedMultiplier,0.6
;   useFixedBridgingAngle,0
;   fixedBridgingAngle,0
;   applyBridgingToPerimeters,1
;   filamentDiameters,1.75|1.75|1.75|1.75|1.75|1.75
;   filamentPricesPerKg,12|46|46|46|46|46
;   filamentDensities,1.33|1.25|1.25|1.25|1.25|1.25
;   useMinPrintHeight,0
;   minPrintHeight,0
;   useMaxPrintHeight,0
;   maxPrintHeight,2.75
;   useDiaphragm,0
;   diaphragmLayerInterval,20
;   robustSlicing,1
;   mergeAllIntoSolid,0
;   onlyRetractWhenCrossingOutline,1
;   retractBetweenLayers,0
;   useRetractionMinTravel,0
;   retractionMinTravel,3
;   retractWhileWiping,0
;   onlyWipeOutlines,1
;   avoidCrossingOutline,0
;   maxMovementDetourFactor,3
;   toolChangeRetractionDistance,12
;   toolChangeExtraRestartDistance,-0.5
;   toolChangeRetractionSpeed,600
;   externalThinWallType,1
;   internalThinWallType,1
;   thinWallAllowedOverlapPercentage,10
;   singleExtrusionMinLength,1
;   singleExtrusionMinPrintingWidthPercentage,50
;   singleExtrusionMaxPrintingWidthPercentage,200
;   singleExtrusionEndpointExtension,0.2
;   horizontalSizeCompensation,0
G90
M82
M106 S0
M140 S60
M190 S60
M104 S240 T0
M109 S240 T0
G28  ; Home all
;M208S7; DISABLE THE PROBE
;G1 Z5; probe z clearance
;G1 X0 Y0; 
;M280S3; Enable the probe
;G32; probe the grid
;M374; save the grid
;G1 Z20 ; Set Z20 for ooze
G92 E0
G1 E-1.2000 F6000
G1 Z0.250 F1800
; process Process1
; layer 1, Z = 0.250
M106 S2
M105
T0
; tool H0.250 W0.600
; skirt
G1 X68.552 Y67.222 F9000
G1 E0.0000 F1800
G92 E0
G1 X68.572 Y67.204 E0.0017 F1800
G1 X68.722 Y67.066 E0.0147
G1 X68.743 Y67.048 E0.0164
G1 X70.770 Y65.402 E0.1826
G1 X70.792 Y65.386 E0.1843
G1 X70.958 Y65.266 E0.1973
G1 X70.980 Y65.251 E0.1990
G1 X73.188 Y63.856 E0.3651
G1 X73.211 Y63.843 E0.3668
G1 X73.390 Y63.744 E0.3798
G1 X73.414 Y63.732 E0.3815
G1 X75.772 Y62.608 E0.5477
G1 X75.796 Y62.597 E0.5494
G1 X75.986 Y62.520 E0.5624
G1 X76.011 Y62.511 E0.5641
G1 X78.485 Y61.673 E0.7302
G1 X78.511 Y61.666 E0.7319
G1 X78.708 Y61.612 E0.7449
G1 X78.734 Y61.605 E0.7466
G1 X81.290 Y61.067 E0.9128
G1 X81.316 Y61.062 E0.9145
G1 X81.518 Y61.032 E0.9275
G1 X81.545 Y61.029 E0.9292
G1 X84.146 Y60.796 E1.0953
G1 X84.173 Y60.794 E1.0970
G1 X84.377 Y60.788 E1.1101
G1 X84.404 Y60.788 E1.1118
G1 X87.015 Y60.865 E1.2779
G1 X87.042 Y60.866 E1.2796
G1 X87.245 Y60.884 E1.2926
G1 X87.272 Y60.888 E1.2943
G1 X89.855 Y61.272 E1.4605
G1 X89.882 Y61.277 E1.4622
G1 X90.082 Y61.319 E1.4752
G1 X90.108 Y61.326 E1.4769
G1 X92.628 Y62.013 E1.6430
G1 X92.653 Y62.021 E1.6447
G1 X92.847 Y62.087 E1.6577
G1 X92.872 Y62.096 E1.6594
G1 X95.293 Y63.077 E1.8256
G1 X95.317 Y63.088 E1.8273
G1 X95.502 Y63.175 E1.8403
G1 X95.526 Y63.188 E1.8420
G1 X97.814 Y64.448 E2.0081
G1 X97.837 Y64.462 E2.0098
G1 X98.010 Y64.571 E2.0228
G1 X98.032 Y64.586 E2.0245
G1 X100.154 Y66.108 E2.1907
G1 X100.176 Y66.124 E2.1924
G1 X100.334 Y66.253 E2.2054
G1 X100.355 Y66.270 E2.2071
G1 X102.282 Y68.033 E2.3733
G1 X102.302 Y68.051 E2.3750
G1 X102.444 Y68.198 E2.3880
G1 X102.462 Y68.218 E2.3897
G1 X104.168 Y70.196 E2.5558
G1 X104.185 Y70.217 E2.5575
G1 X104.309 Y70.379 E2.5705
G1 X104.324 Y70.401 E2.5722
G1 X105.784 Y72.567 E2.7384
G1 X105.799 Y72.589 E2.7401
G1 X105.903 Y72.766 E2.7531
G1 X105.916 Y72.789 E2.7548
G1 X107.109 Y75.112 E2.9209
G1 X107.120 Y75.136 E2.9226
G1 X107.203 Y75.324 E2.9356
G1 X107.213 Y75.348 E2.9373
G1 X108.123 Y77.797 E3.1035
G1 X108.132 Y77.822 E3.1052
G1 X108.192 Y78.018 E3.1182
G1 X108.199 Y78.043 E3.1199
G1 X108.813 Y80.582 E3.2860
G1 X108.818 Y80.608 E3.2877
G1 X108.855 Y80.810 E3.3008
G1 X108.859 Y80.836 E3.3024
G1 X109.165 Y83.404 E3.4670
G1 X109.167 Y83.424 E3.4682
G1 X109.178 Y83.577 E3.4780
G1 X109.180 Y83.597 E3.4793
G1 X109.220 Y84.934 E3.5644
G1 X109.220 Y84.948 E3.5652
G1 X109.220 Y85.051 E3.5718
G1 X109.220 Y85.064 E3.5726
G1 X109.180 Y86.396 E3.6574
G1 X109.179 Y86.416 E3.6587
G1 X109.168 Y86.569 E3.6684
G1 X109.166 Y86.589 E3.6697
G1 X108.861 Y89.151 E3.8338
G1 X108.857 Y89.177 E3.8355
G1 X108.821 Y89.378 E3.8485
G1 X108.815 Y89.404 E3.8502
G1 X108.203 Y91.943 E4.0163
G1 X108.196 Y91.969 E4.0180
G1 X108.136 Y92.165 E4.0310
G1 X108.127 Y92.190 E4.0327
G1 X107.219 Y94.639 E4.1989
G1 X107.209 Y94.663 E4.2006
G1 X107.126 Y94.851 E4.2136
G1 X107.115 Y94.875 E4.2153
G1 X105.923 Y97.199 E4.3815
G1 X105.910 Y97.222 E4.3832
G1 X105.806 Y97.398 E4.3962
G1 X105.792 Y97.421 E4.3979
G1 X104.333 Y99.588 E4.5640
G1 X104.317 Y99.610 E4.5657
G1 X104.193 Y99.772 E4.5787
G1 X104.177 Y99.793 E4.5804
G1 X102.472 Y101.772 E4.7466
G1 X102.454 Y101.792 E4.7483
G1 X102.311 Y101.939 E4.7613
G1 X102.292 Y101.957 E4.7630
G1 X100.366 Y103.721 E4.9291
G1 X100.345 Y103.738 E4.9308
G1 X100.187 Y103.867 E4.9438
G1 X100.165 Y103.883 E4.9455
G1 X98.044 Y105.407 E5.1117
G1 X98.021 Y105.422 E5.1134
G1 X97.848 Y105.531 E5.1264
G1 X97.826 Y105.544 E5.1281
G1 X95.538 Y106.806 E5.2942
G1 X95.515 Y106.818 E5.2959
G1 X95.330 Y106.906 E5.3090
G1 X95.306 Y106.917 E5.3107
G1 X92.885 Y107.900 E5.4768
G1 X92.860 Y107.909 E5.4785
G1 X92.667 Y107.974 E5.4915
G1 X92.641 Y107.982 E5.4932
G1 X90.122 Y108.671 E5.6594
G1 X90.096 Y108.678 E5.6611
G1 X89.896 Y108.720 E5.6741
G1 X89.869 Y108.725 E5.6758
G1 X87.286 Y109.111 E5.8419
G1 X87.259 Y109.114 E5.8436
G1 X87.056 Y109.132 E5.8566
G1 X87.029 Y109.134 E5.8583
G1 X84.418 Y109.212 E6.0245
G1 X84.392 Y109.212 E6.0262
G1 X84.187 Y109.206 E6.0392
G1 X84.160 Y109.205 E6.0409
G1 X81.559 Y108.973 E6.2070
G1 X81.532 Y108.970 E6.2087
G1 X81.330 Y108.940 E6.2217
G1 X81.304 Y108.935 E6.2234
G1 X78.747 Y108.398 E6.3896
G1 X78.722 Y108.392 E6.3913
G1 X78.524 Y108.338 E6.4043
G1 X78.499 Y108.330 E6.4060
G1 X76.024 Y107.494 E6.5722
G1 X75.999 Y107.485 E6.5738
G1 X75.809 Y107.408 E6.5869
G1 X75.785 Y107.398 E6.5886
G1 X73.426 Y106.275 E6.7547
G1 X73.403 Y106.263 E6.7564
G1 X73.224 Y106.164 E6.7694
G1 X73.201 Y106.150 E6.7711
G1 X70.991 Y104.757 E6.9373
G1 X70.969 Y104.742 E6.9390
G1 X70.803 Y104.623 E6.9520
G1 X70.782 Y104.606 E6.9537
G1 X68.753 Y102.961 E7.1198
G1 X68.733 Y102.944 E7.1215
G1 X68.582 Y102.806 E7.1345
G1 X68.563 Y102.787 E7.1362
G1 X66.743 Y100.914 E7.3024
G1 X66.725 Y100.894 E7.3041
G1 X66.591 Y100.739 E7.3171
G1 X66.574 Y100.718 E7.3188
G1 X64.989 Y98.643 E7.4849
G1 X64.973 Y98.621 E7.4866
G1 X64.859 Y98.451 E7.4996
G1 X64.845 Y98.429 E7.5013
G1 X63.516 Y96.180 E7.6675
G1 X63.503 Y96.157 E7.6692
G1 X63.409 Y95.975 E7.6822
G1 X63.398 Y95.951 E7.6839
G1 X62.344 Y93.560 E7.8501
G1 X62.334 Y93.536 E7.8518
G1 X62.263 Y93.344 E7.8648
G1 X62.254 Y93.319 E7.8665
G1 X61.491 Y90.821 E8.0326
G1 X61.484 Y90.795 E8.0343
G1 X61.436 Y90.596 E8.0473
G1 X61.430 Y90.570 E8.0490
G1 X60.967 Y87.999 E8.2152
G1 X60.963 Y87.973 E8.2169
G1 X60.939 Y87.770 E8.2299
G1 X60.937 Y87.743 E8.2316
G1 X60.781 Y85.136 E8.3977
G1 X60.780 Y85.109 E8.3994
G1 X60.780 Y84.905 E8.4124
G1 X60.781 Y84.878 E8.4141
G1 X60.935 Y82.271 E8.5803
G1 X60.937 Y82.244 E8.5820
G1 X60.962 Y82.041 E8.5950
G1 X60.966 Y82.014 E8.5967
G1 X61.427 Y79.444 E8.7628
G1 X61.432 Y79.417 E8.7645
G1 X61.480 Y79.219 E8.7776
G1 X61.487 Y79.193 E8.7793
G1 X62.249 Y76.694 E8.9454
G1 X62.258 Y76.669 E8.9471
G1 X62.329 Y76.477 E8.9601
G1 X62.339 Y76.453 E8.9618
G1 X63.391 Y74.062 E9.1280
G1 X63.403 Y74.038 E9.1297
G1 X63.496 Y73.856 E9.1427
G1 X63.509 Y73.832 E9.1444
G1 X64.837 Y71.583 E9.3105
G1 X64.851 Y71.560 E9.3122
G1 X64.965 Y71.391 E9.3252
G1 X64.981 Y71.369 E9.3269
G1 X66.565 Y69.292 E9.4931
G1 X66.582 Y69.272 E9.4948
G1 X66.715 Y69.117 E9.5078
G1 X66.733 Y69.097 E9.5095
G1 X67.577 Y68.227 E9.5866
G1 X68.552 Y67.222 F1800
G1 X68.977 Y67.647 F9000
G92 E0
G1 X68.983 Y67.640 E0.0006 F1800
G1 X69.121 Y67.514 E0.0124
G1 X69.128 Y67.508 E0.0130
G1 X71.142 Y65.873 E0.1780
G1 X71.149 Y65.868 E0.1786
G1 X71.300 Y65.759 E0.1905
G1 X71.308 Y65.754 E0.1910
G1 X73.501 Y64.368 E0.3561
G1 X73.509 Y64.364 E0.3566
G1 X73.672 Y64.274 E0.3685
G1 X73.680 Y64.270 E0.3691
G1 X76.022 Y63.153 E0.5341
G1 X76.030 Y63.150 E0.5347
G1 X76.203 Y63.079 E0.5465
G1 X76.212 Y63.076 E0.5471
G1 X78.669 Y62.245 E0.7121
G1 X78.677 Y62.242 E0.7127
G1 X78.858 Y62.193 E0.7246
G1 X78.866 Y62.191 E0.7251
G1 X81.405 Y61.656 E0.8902
G1 X81.413 Y61.654 E0.8907
G1 X81.598 Y61.626 E0.9026
G1 X81.607 Y61.625 E0.9032
G1 X84.191 Y61.394 E1.0682
G1 X84.200 Y61.394 E1.0688
G1 X84.387 Y61.388 E1.0806
G1 X84.395 Y61.388 E1.0812
G1 X86.989 Y61.464 E1.2462
G1 X86.997 Y61.465 E1.2468
G1 X87.183 Y61.481 E1.2587
G1 X87.192 Y61.482 E1.2592
G1 X89.758 Y61.865 E1.4243
G1 X89.767 Y61.866 E1.4248
G1 X89.950 Y61.905 E1.4367
G1 X89.958 Y61.907 E1.4373
G1 X92.461 Y62.590 E1.6023
G1 X92.470 Y62.592 E1.6029
G1 X92.647 Y62.652 E1.6147
G1 X92.655 Y62.655 E1.6153
G1 X95.059 Y63.630 E1.7803
G1 X95.067 Y63.633 E1.7809
G1 X95.236 Y63.713 E1.7928
G1 X95.244 Y63.717 E1.7933
G1 X97.516 Y64.969 E1.9584
G1 X97.524 Y64.974 E1.9589
G1 X97.682 Y65.073 E1.9708
G1 X97.689 Y65.078 E1.9714
G1 X99.798 Y66.590 E2.1364
G1 X99.805 Y66.596 E2.1370
G1 X99.950 Y66.713 E2.1488
G1 X99.956 Y66.719 E2.1494
G1 X101.871 Y68.470 E2.3144
G1 X101.877 Y68.476 E2.3150
G1 X102.008 Y68.610 E2.3269
G1 X102.014 Y68.616 E2.3274
G1 X103.708 Y70.581 E2.4925
G1 X103.713 Y70.588 E2.4930
G1 X103.827 Y70.736 E2.5049
G1 X103.832 Y70.744 E2.5055
G1 X105.282 Y72.895 E2.6705
G1 X105.287 Y72.902 E2.6711
G1 X105.382 Y73.063 E2.6829
G1 X105.386 Y73.071 E2.6835
G1 X106.571 Y75.379 E2.8485
G1 X106.575 Y75.387 E2.8491
G1 X106.650 Y75.558 E2.8610
G1 X106.654 Y75.566 E2.8615
G1 X107.558 Y77.997 E3.0266
G1 X107.561 Y78.006 E3.0271
G1 X107.615 Y78.184 E3.0390
G1 X107.617 Y78.193 E3.0396
G1 X108.228 Y80.715 E3.2046
G1 X108.229 Y80.723 E3.2052
G1 X108.263 Y80.907 E3.2170
G1 X108.264 Y80.916 E3.2176
G1 X108.569 Y83.469 E3.3811
G1 X108.569 Y83.475 E3.3816
G1 X108.580 Y83.615 E3.3905
G1 X108.580 Y83.621 E3.3909
G1 X108.620 Y84.948 E3.4753
G1 X108.620 Y84.952 E3.4756
G1 X108.620 Y85.046 E3.4816
G1 X108.620 Y85.051 E3.4818
G1 X108.581 Y86.372 E3.5659
G1 X108.580 Y86.378 E3.5663
G1 X108.570 Y86.518 E3.5752
G1 X108.569 Y86.525 E3.5757
G1 X108.266 Y89.071 E3.7388
G1 X108.265 Y89.080 E3.7394
G1 X108.232 Y89.263 E3.7512
G1 X108.230 Y89.272 E3.7518
G1 X107.621 Y91.794 E3.9168
G1 X107.619 Y91.802 E3.9174
G1 X107.565 Y91.981 E3.9292
G1 X107.562 Y91.989 E3.9298
G1 X106.659 Y94.422 E4.0948
G1 X106.656 Y94.430 E4.0954
G1 X106.581 Y94.601 E4.1073
G1 X106.577 Y94.609 E4.1078
G1 X105.393 Y96.917 E4.2729
G1 X105.389 Y96.925 E4.2734
G1 X105.294 Y97.086 E4.2853
G1 X105.289 Y97.093 E4.2859
G1 X103.840 Y99.245 E4.4509
G1 X103.835 Y99.253 E4.4515
G1 X103.722 Y99.401 E4.4633
G1 X103.716 Y99.408 E4.4639
G1 X102.023 Y101.374 E4.6289
G1 X102.017 Y101.380 E4.6295
G1 X101.887 Y101.514 E4.6414
G1 X101.881 Y101.521 E4.6419
G1 X99.967 Y103.272 E4.8070
G1 X99.960 Y103.278 E4.8075
G1 X99.815 Y103.396 E4.8194
G1 X99.808 Y103.401 E4.8200
G1 X97.701 Y104.914 E4.9850
G1 X97.693 Y104.919 E4.9856
G1 X97.536 Y105.019 E4.9974
G1 X97.528 Y105.023 E4.9980
G1 X95.256 Y106.277 E5.1630
G1 X95.248 Y106.281 E5.1636
G1 X95.080 Y106.361 E5.1755
G1 X95.072 Y106.365 E5.1760
G1 X92.668 Y107.340 E5.3411
G1 X92.660 Y107.343 E5.3416
G1 X92.483 Y107.403 E5.3535
G1 X92.474 Y107.406 E5.3541
G1 X89.972 Y108.090 E5.5191
G1 X89.963 Y108.092 E5.5197
G1 X89.781 Y108.131 E5.5315
G1 X89.772 Y108.133 E5.5321
G1 X87.206 Y108.516 E5.6971
G1 X87.197 Y108.517 E5.6977
G1 X87.011 Y108.534 E5.7096
G1 X87.002 Y108.535 E5.7101
G1 X84.409 Y108.612 E5.8752
