; G-Code generated by Simplify3D(R) Version 4.0.0
; Mar 11, 2018 at 4:05:32 PM
; Settings Summary
;   processName,Basic 
;   applyToModels,Focuser
;   profileName,BortBot (modified)
;   profileVersion,2017-10-07 14:50:40
;   baseProfile,Default
;   printMaterial,PLA
;   printQuality,Medium
;   printExtruders,
;   extruderName,Extruder 1
;   extruderToolheadNumber,0
;   extruderDiameter,0.4
;   extruderAutoWidth,1
;   extruderWidth,0.48
;   extrusionMultiplier,1.06
;   extruderUseRetract,1
;   extruderRetractionDistance,2.8
;   extruderExtraRestartDistance,0
;   extruderRetractionZLift,0
;   extruderRetractionSpeed,6000
;   extruderUseCoasting,1
;   extruderCoastingDistance,0.5
;   extruderUseWipe,0
;   extruderWipeDistance,5
;   primaryExtruder,0
;   layerHeight,0.3
;   topSolidLayers,2
;   bottomSolidLayers,2
;   perimeterOutlines,2
;   printPerimetersInsideOut,0
;   startPointOption,2
;   startPointOriginX,0
;   startPointOriginY,0
;   sequentialIslands,0
;   spiralVaseMode,0
;   firstLayerHeightPercentage,100
;   firstLayerWidthPercentage,100
;   firstLayerUnderspeed,0.3
;   useRaft,0
;   raftExtruder,0
;   raftTopLayers,2
;   raftBaseLayers,2
;   raftOffset,3
;   raftSeparationDistance,0.3
;   raftTopInfill,90
;   aboveRaftSpeedMultiplier,0.3
;   useSkirt,1
;   skirtExtruder,0
;   skirtLayers,1
;   skirtOutlines,5
;   skirtOffset,0
;   usePrimePillar,0
;   primePillarExtruder,999
;   primePillarWidth,12
;   primePillarLocation,7
;   primePillarSpeedMultiplier,1
;   useOozeShield,0
;   oozeShieldExtruder,999
;   oozeShieldOffset,2
;   oozeShieldOutlines,1
;   oozeShieldSidewallShape,1
;   oozeShieldSidewallAngle,30
;   oozeShieldSpeedMultiplier,1
;   infillExtruder,0
;   internalInfillPattern,Triangular
;   externalInfillPattern,Rectilinear
;   infillPercentage,40
;   outlineOverlapPercentage,35
;   infillExtrusionWidthPercentage,100
;   minInfillLength,5
;   infillLayerInterval,1
;   internalInfillAngles,0,60,-60
;   overlapInternalInfillAngles,0
;   externalInfillAngles,45,-45
;   generateSupport,1
;   supportExtruder,0
;   supportInfillPercentage,30
;   supportExtraInflation,0
;   supportBaseLayers,0
;   denseSupportExtruder,0
;   denseSupportLayers,0
;   denseSupportInfillPercentage,70
;   supportLayerInterval,1
;   supportHorizontalPartOffset,0.3
;   supportUpperSeparationLayers,1
;   supportLowerSeparationLayers,1
;   supportType,0
;   supportGridSpacing,2
;   maxOverhangAngle,45
;   supportAngles,0
;   temperatureName,Extruder 1
;   temperatureNumber,0
;   temperatureSetpointCount,1
;   temperatureSetpointLayers,1
;   temperatureSetpointTemperatures,205
;   temperatureStabilizeAtStartup,1
;   temperatureHeatedBed,0
;   temperatureRelayBetweenLayers,1
;   temperatureRelayBetweenLoops,1
;   fanLayers,1,3
;   fanSpeeds,0,50
;   blipFanToFullPower,1
;   adjustSpeedForCooling,1
;   minSpeedLayerTime,15
;   minCoolingSpeedSlowdown,20
;   increaseFanForCooling,1
;   minFanLayerTime,45
;   maxCoolingFanSpeed,100
;   increaseFanForBridging,1
;   bridgingFanSpeed,100
;   use5D,1
;   relativeEdistances,0
;   allowEaxisZeroing,1
;   independentExtruderAxes,0
;   includeM10123,0
;   stickySupport,1
;   applyToolheadOffsets,0
;   gcodeXoffset,0
;   gcodeYoffset,0
;   gcodeZoffset,0
;   overrideMachineDefinition,0
;   machineTypeOverride,0
;   strokeXoverride,100
;   strokeYoverride,100
;   strokeZoverride,100
;   originOffsetXoverride,0
;   originOffsetYoverride,0
;   originOffsetZoverride,0
;   homeXdirOverride,-1
;   homeYdirOverride,-1
;   homeZdirOverride,-1
;   flipXoverride,1
;   flipYoverride,-1
;   flipZoverride,1
;   toolheadOffsets,0,0|0,0|0,0|0,0|0,0|0,0
;   overrideFirmwareConfiguration,0
;   firmwareTypeOverride,RepRap (Marlin/Repetier/Sprinter)
;   GPXconfigOverride,r2
;   baudRateOverride,115200
;   overridePrinterModels,0
;   printerModelsOverride
;   startingGcode,;G28  ; Home all,;M208S7; DISABLE THE PROBE,;G1 Z5; probe z clearance,;G1 X0 Y0; ,;M280S3; Enable the probe,;G32; probe the grid,;M374; save the grid,;G1 Z20 ; Set Z20 for ooze
;   layerChangeGcode,
;   retractionGcode,
;   toolChangeGcode,
;   endingGcode,M104 S0 ; turn off extruder,M140 S0 ; turn off bed,G91 G1 Z10 ; Clearance from part,G90 G1 X0 Y0 Z118 ; Go to starting position (X0 Y0 Z 122),M84 ; disable motor,M107; Turn off fan
;   exportFileFormat,gcode
;   celebration,0
;   celebrationSong,Random Song
;   postProcessing,
;   defaultSpeed,4200
;   outlineUnderspeed,0.65
;   solidInfillUnderspeed,0.9
;   supportUnderspeed,0.95
;   rapidXYspeed,4800
;   rapidZspeed,1002
;   minBridgingArea,10
;   bridgingExtraInflation,5
;   bridgingExtrusionMultiplier,0.9
;   bridgingSpeedMultiplier,0.75
;   useFixedBridgingAngle,0
;   fixedBridgingAngle,0
;   applyBridgingToPerimeters,1
;   filamentDiameters,1.75|1.75|1.75|1.75|1.75|1.75
;   filamentPricesPerKg,46|46|46|46|46|46
;   filamentDensities,1.27|1.25|1.25|1.25|1.25|1.25
;   useMinPrintHeight,0
;   minPrintHeight,0
;   useMaxPrintHeight,0
;   maxPrintHeight,0
;   useDiaphragm,0
;   diaphragmLayerInterval,20
;   robustSlicing,1
;   mergeAllIntoSolid,0
;   onlyRetractWhenCrossingOutline,1
;   retractBetweenLayers,0
;   useRetractionMinTravel,0
;   retractionMinTravel,3
;   retractWhileWiping,1
;   onlyWipeOutlines,1
;   avoidCrossingOutline,0
;   maxMovementDetourFactor,3
;   toolChangeRetractionDistance,12
;   toolChangeExtraRestartDistance,-0.5
;   toolChangeRetractionSpeed,600
;   externalThinWallType,1
;   internalThinWallType,1
;   thinWallAllowedOverlapPercentage,10
;   singleExtrusionMinLength,1
;   singleExtrusionMinPrintingWidthPercentage,50
;   singleExtrusionMaxPrintingWidthPercentage,200
;   singleExtrusionEndpointExtension,0.2
;   horizontalSizeCompensation,0
G90
M82
M106 S255
G4 P500
M106 S0
M104 S205 T0
M109 S205 T0
;G28  ; Home all
;M208S7; DISABLE THE PROBE
;G1 Z5; probe z clearance
;G1 X0 Y0; 
;M280S3; Enable the probe
;G32; probe the grid
;M374; save the grid
;G1 Z20 ; Set Z20 for ooze
G92 E0
G1 E-2.8000 F6000
G1 Z0.300 F1002
; process Basic 
; layer 1, Z = 0.300
M105
T0
; tool H0.300 W0.480
; skirt
G1 X70.271 Y33.385 F4800
G1 E0.0000 F1800
G92 E0
G1 X71.537 Y32.120 E0.1136 F1260
G1 X98.463 Y32.120 E1.8223
G1 X99.729 Y33.385 E1.9359
G1 X99.729 Y126.615 E7.8523
G1 X98.463 Y127.880 E7.9658
G1 X71.537 Y127.880 E9.6746
G1 X70.271 Y126.615 E9.7882
G1 X70.271 Y33.885 E15.6728
G1 X70.271 Y33.385 F1260
G1 X70.751 Y33.584 F4800
G92 E0
G1 X71.735 Y32.600 E0.0883 F1260
G1 X98.265 Y32.600 E1.7719
G1 X99.249 Y33.584 E1.8602
G1 X99.249 Y126.416 E7.7513
G1 X98.265 Y127.400 E7.8397
G1 X71.735 Y127.400 E9.5232
G1 X70.751 Y126.416 E9.6115
G1 X70.751 Y34.084 E15.4709
G1 X70.751 Y33.584 F1260
G1 X71.231 Y33.783 F4800
G92 E0
G1 X71.934 Y33.080 E0.0631 F1260
G1 X98.066 Y33.080 E1.7214
G1 X98.769 Y33.783 E1.7845
G1 X98.769 Y126.217 E7.6504
G1 X98.066 Y126.920 E7.7135
G1 X71.934 Y126.920 E9.3718
G1 X71.231 Y126.217 E9.4349
G1 X71.231 Y34.283 E15.2691
G1 X71.231 Y33.783 F1260
G1 X71.711 Y33.982 F4800
G92 E0
G1 X72.133 Y33.560 E0.0379 F1260
G1 X97.867 Y33.560 E1.6709
G1 X98.289 Y33.982 E1.7088
G1 X98.289 Y126.018 E7.5495
G1 X97.867 Y126.440 E7.5873
G1 X72.133 Y126.440 E9.2204
G1 X71.711 Y126.018 E9.2582
G1 X71.711 Y34.482 E15.0672
G1 X71.711 Y33.982 F1260
G1 X72.191 Y34.181 F4800
G92 E0
G1 X72.332 Y34.040 E0.0126 F1260
G1 X97.668 Y34.040 E1.6205
G1 X97.809 Y34.181 E1.6331
G1 X97.809 Y125.819 E7.4485
G1 X97.668 Y125.960 E7.4611
G1 X72.332 Y125.960 E9.0690
G1 X72.191 Y125.819 E9.0816
G1 X72.191 Y34.681 E14.8653
G1 X72.191 Y34.181 F1260
G92 E0
G1 E-2.8000 F6000
; outer perimeter
G1 X72.671 Y34.520 F4800
G1 E0.0000 F6000
G92 E0
G1 X97.329 Y34.520 E1.5648 F819
G1 X97.329 Y125.480 E7.3371
G1 X72.671 Y125.480 E8.9019
G1 X72.671 Y35.020 E14.6425
G1 X72.671 Y34.520 F819
; inner perimeter
G1 X73.151 Y35.000 F4800
G92 E0
G1 X96.849 Y35.000 E1.5039 F1040
G1 X96.849 Y125.000 E7.2153
G1 X73.151 Y125.000 E8.7191
G1 X73.151 Y35.500 E14.3988
G1 X73.151 Y35.000 F1040
; outer perimeter
G1 X83.041 Y40.774 F4800
G92 E0
G1 X82.875 Y41.131 E0.0250 F819
G1 X82.774 Y41.512 E0.0500
G1 X82.740 Y41.905 E0.0750
G1 X82.775 Y42.297 E0.1000
G1 X82.878 Y42.677 E0.1250
G1 X83.045 Y43.034 E0.1500
G1 X83.272 Y43.356 E0.1750
G1 X83.551 Y43.634 E0.2000
G1 X83.874 Y43.859 E0.2250
G1 X84.231 Y44.025 E0.2500
G1 X84.612 Y44.126 E0.2750
G1 X85.005 Y44.160 E0.3000
G1 X85.397 Y44.125 E0.3250
G1 X85.777 Y44.022 E0.3500
G1 X86.134 Y43.855 E0.3750
G1 X86.456 Y43.628 E0.4000
G1 X86.734 Y43.349 E0.4250
G1 X86.959 Y43.026 E0.4500
G1 X87.125 Y42.669 E0.4750
G1 X87.226 Y42.288 E0.5000
G1 X87.260 Y41.895 E0.5250
G1 X87.225 Y41.503 E0.5500
G1 X87.122 Y41.123 E0.5750
G1 X86.955 Y40.766 E0.6000
G1 X86.728 Y40.444 E0.6250
G1 X86.449 Y40.166 E0.6500
G1 X86.126 Y39.941 E0.6750
G1 X85.769 Y39.775 E0.7000
G1 X85.388 Y39.674 E0.7250
G1 X84.995 Y39.640 E0.7499
G1 X84.603 Y39.675 E0.7749
G1 X84.223 Y39.778 E0.8000
G1 X83.866 Y39.945 E0.8249
G1 X83.544 Y40.172 E0.8499
G1 X83.340 Y40.375 E0.8682
G1 X83.268 Y40.447 F819
G1 X83.041 Y40.774 F819
; inner perimeter
G1 X82.623 Y40.534 F4800
G92 E0
G1 X82.422 Y40.968 E0.0303 F1040
G1 X82.299 Y41.429 E0.0607
G1 X82.258 Y41.906 E0.0910
G1 X82.301 Y42.382 E0.1213
G1 X82.426 Y42.843 E0.1516
G1 X82.628 Y43.276 E0.1820
G1 X82.903 Y43.667 E0.2123
G1 X83.242 Y44.004 E0.2426
G1 X83.634 Y44.277 E0.2729
G1 X84.068 Y44.478 E0.3033
G1 X84.529 Y44.601 E0.3336
G1 X85.006 Y44.642 E0.3639
G1 X85.482 Y44.599 E0.3943
G1 X85.943 Y44.474 E0.4246
G1 X86.376 Y44.272 E0.4549
G1 X86.767 Y43.997 E0.4853
G1 X87.104 Y43.658 E0.5156
G1 X87.377 Y43.266 E0.5459
G1 X87.578 Y42.832 E0.5762
G1 X87.701 Y42.371 E0.6066
G1 X87.742 Y41.894 E0.6369
G1 X87.699 Y41.418 E0.6672
G1 X87.574 Y40.957 E0.6975
G1 X87.372 Y40.524 E0.7279
G1 X87.097 Y40.133 E0.7582
G1 X86.758 Y39.796 E0.7885
G1 X86.366 Y39.523 E0.8189
G1 X85.932 Y39.322 E0.8492
G1 X85.470 Y39.199 E0.8795
G1 X84.994 Y39.158 E0.9098
G1 X84.518 Y39.201 E0.9402
G1 X84.057 Y39.326 E0.9705
G1 X83.624 Y39.528 E1.0008
G1 X83.234 Y39.803 E1.0311
G1 X82.911 Y40.126 E1.0601
G1 X82.899 Y40.138 F1040
G1 X82.623 Y40.534 F1040
; outer perimeter
G1 X84.995 Y77.740 F4800
G92 E0
G1 X84.603 Y77.775 E0.0250 F819
G1 X84.223 Y77.878 E0.0500
G1 X83.866 Y78.045 E0.0750
G1 X83.544 Y78.272 E0.1000
G1 X83.268 Y78.547 E0.1247
G1 X83.041 Y78.874 E0.1500
G1 X82.875 Y79.231 E0.1750
G1 X82.774 Y79.612 E0.2000
G1 X82.740 Y80.005 E0.2250
G1 X82.775 Y80.397 E0.2500
G1 X82.878 Y80.777 E0.2750
G1 X83.045 Y81.134 E0.3000
G1 X83.272 Y81.456 E0.3250
G1 X83.551 Y81.734 E0.3500
G1 X83.874 Y81.959 E0.3750
G1 X84.231 Y82.125 E0.4000
G1 X84.612 Y82.226 E0.4250
G1 X85.005 Y82.260 E0.4500
G1 X85.397 Y82.225 E0.4750
G1 X85.777 Y82.122 E0.5000
G1 X86.134 Y81.955 E0.5250
G1 X86.456 Y81.728 E0.5500
G1 X86.734 Y81.449 E0.5750
G1 X86.959 Y81.126 E0.6000
G1 X87.125 Y80.769 E0.6250
G1 X87.226 Y80.388 E0.6500
G1 X87.260 Y79.995 E0.6750
G1 X87.225 Y79.603 E0.7000
G1 X87.122 Y79.223 E0.7250
G1 X86.955 Y78.866 E0.7500
G1 X86.728 Y78.544 E0.7750
G1 X86.449 Y78.266 E0.7999
G1 X86.126 Y78.041 E0.8249
G1 X85.769 Y77.875 E0.8499
G1 X85.490 Y77.801 E0.8682
G1 X85.388 Y77.774 F819
G1 X84.995 Y77.740 F819
; inner perimeter
G1 X84.994 Y77.258 F4800
G92 E0
G1 X84.518 Y77.301 E0.0303 F1040
G1 X84.057 Y77.426 E0.0607
G1 X83.624 Y77.628 E0.0910
G1 X83.234 Y77.903 E0.1213
G1 X82.899 Y78.238 E0.1513
G1 X82.623 Y78.634 E0.1820
G1 X82.422 Y79.068 E0.2123
G1 X82.299 Y79.529 E0.2426
G1 X82.258 Y80.006 E0.2730
G1 X82.301 Y80.482 E0.3033
G1 X82.426 Y80.943 E0.3336
G1 X82.628 Y81.376 E0.3639
G1 X82.903 Y81.767 E0.3943
G1 X83.242 Y82.104 E0.4246
G1 X83.634 Y82.377 E0.4549
G1 X84.068 Y82.578 E0.4853
G1 X84.529 Y82.701 E0.5156
G1 X85.006 Y82.742 E0.5459
G1 X85.482 Y82.699 E0.5762
G1 X85.943 Y82.574 E0.6066
G1 X86.376 Y82.372 E0.6369
G1 X86.767 Y82.097 E0.6672
G1 X87.104 Y81.758 E0.6976
G1 X87.377 Y81.366 E0.7279
G1 X87.578 Y80.932 E0.7582
G1 X87.701 Y80.471 E0.7885
G1 X87.742 Y79.994 E0.8189
G1 X87.699 Y79.518 E0.8492
G1 X87.574 Y79.057 E0.8795
G1 X87.372 Y78.624 E0.9099
G1 X87.097 Y78.233 E0.9402
G1 X86.758 Y77.896 E0.9705
G1 X86.366 Y77.623 E1.0008
G1 X85.932 Y77.422 E1.0312
G1 X85.492 Y77.305 E1.0601
G1 X85.470 Y77.299 F1040
G1 X84.994 Y77.258 F1040
G92 E0
G1 E-2.8000 F6000
; outer perimeter
G1 X84.995 Y115.840 F4800
G1 E0.0000 F6000
G92 E0
G1 X84.603 Y115.875 E0.0250 F819
G1 X84.223 Y115.978 E0.0500
G1 X83.866 Y116.145 E0.0750
G1 X83.544 Y116.372 E0.1000
G1 X83.268 Y116.647 E0.1247
G1 X83.041 Y116.974 E0.1500
G1 X82.875 Y117.331 E0.1750
G1 X82.774 Y117.712 E0.2000
G1 X82.740 Y118.105 E0.2250
G1 X82.775 Y118.497 E0.2500
G1 X82.878 Y118.877 E0.2750
G1 X83.045 Y119.234 E0.3000
G1 X83.272 Y119.556 E0.3250
G1 X83.551 Y119.834 E0.3500
G1 X83.874 Y120.059 E0.3750
G1 X84.231 Y120.225 E0.4000
G1 X84.612 Y120.326 E0.4250
G1 X85.005 Y120.360 E0.4500
G1 X85.397 Y120.325 E0.4750
G1 X85.777 Y120.222 E0.5000
G1 X86.134 Y120.055 E0.5250
G1 X86.456 Y119.828 E0.5500
G1 X86.734 Y119.549 E0.5750
G1 X86.959 Y119.226 E0.6000
G1 X87.125 Y118.869 E0.6250
G1 X87.226 Y118.488 E0.6500
G1 X87.260 Y118.095 E0.6750
G1 X87.225 Y117.703 E0.7000
G1 X87.122 Y117.323 E0.7250
G1 X86.955 Y116.966 E0.7500
G1 X86.728 Y116.644 E0.7750
G1 X86.449 Y116.366 E0.7999
G1 X86.126 Y116.141 E0.8249
G1 X85.769 Y115.975 E0.8499
G1 X85.490 Y115.901 E0.8682
G1 X85.388 Y115.874 F819
G1 X84.995 Y115.840 F819
; inner perimeter
G1 X84.994 Y115.358 F4800
G92 E0
G1 X84.518 Y115.401 E0.0303 F1040
G1 X84.057 Y115.526 E0.0607
G1 X83.624 Y115.728 E0.0910
G1 X83.234 Y116.003 E0.1213
G1 X82.899 Y116.338 E0.1513
G1 X82.623 Y116.734 E0.1820
G1 X82.422 Y117.168 E0.2123
G1 X82.299 Y117.629 E0.2426
G1 X82.258 Y118.106 E0.2730
G1 X82.301 Y118.582 E0.3033
G1 X82.426 Y119.043 E0.3336
G1 X82.628 Y119.476 E0.3639
G1 X82.903 Y119.867 E0.3943
G1 X83.242 Y120.204 E0.4246
G1 X83.634 Y120.477 E0.4549
G1 X84.067 Y120.678 E0.4853
G1 X84.529 Y120.801 E0.5156
G1 X85.006 Y120.842 E0.5459
G1 X85.482 Y120.799 E0.5762
G1 X85.943 Y120.674 E0.6066
G1 X86.376 Y120.472 E0.6369
G1 X86.767 Y120.197 E0.6672
G1 X87.104 Y119.858 E0.6976
G1 X87.377 Y119.466 E0.7279
G1 X87.578 Y119.032 E0.7582
G1 X87.701 Y118.571 E0.7885
G1 X87.742 Y118.094 E0.8189
G1 X87.699 Y117.618 E0.8492
G1 X87.574 Y117.157 E0.8795
G1 X87.372 Y116.724 E0.9099
G1 X87.097 Y116.333 E0.9402
G1 X86.758 Y115.996 E0.9705
G1 X86.366 Y115.723 E1.0008
G1 X85.932 Y115.522 E1.0312
G1 X85.492 Y115.405 E1.0601
G1 X85.470 Y115.399 F1040
G1 X84.994 Y115.358 F1040
; solid layer
G1 X87.657 Y116.598 F4800
G92 E0
G1 X95.747 Y124.688 E0.7260 F1134
G1 X95.068 Y124.688 E0.7691
G1 X88.014 Y117.634 E1.4022
G1 X88.055 Y118.094 E1.4315
G1 X88.034 Y118.333 E1.4468
G1 X94.389 Y124.688 E2.0171
G1 X93.710 Y124.688 E2.0602
G1 X87.933 Y118.911 E2.5787
G1 X87.873 Y119.139 E2.5936
G1 X87.749 Y119.406 E2.6123
G1 X93.032 Y124.688 E3.0864
G1 X92.353 Y124.688 E3.1294
G1 X87.500 Y119.835 E3.5650
G1 X87.344 Y120.059 E3.5823
G1 X87.195 Y120.209 E3.5957
G1 X91.674 Y124.688 E3.9977
G1 X90.995 Y124.688 E4.0408
G1 X86.836 Y120.529 E4.4140
G1 X86.533 Y120.742 E4.4375
G1 X86.423 Y120.794 E4.4453
G1 X90.316 Y124.688 E4.7947
G1 X89.637 Y124.688 E4.8378
G1 X85.946 Y120.997 E5.1691
G1 X85.537 Y121.107 E5.1960
G1 X85.391 Y121.120 E5.2053
G1 X88.959 Y124.688 E5.5255
G1 X88.280 Y124.688 E5.5685
G1 X85.076 Y121.484 E5.8561
G1 X84.722 Y121.131 F1134
G1 X74.025 Y124.688 F4800
G92 E0
G1 X73.463 Y124.127 E0.0504 F1134
G1 X73.463 Y123.448 E0.0935
G1 X74.703 Y124.688 E0.2048
G1 X75.382 Y124.688 E0.2478
G1 X73.463 Y122.769 E0.4201
G1 X73.463 Y122.090 E0.4631
G1 X76.061 Y124.688 E0.6963
G1 X76.740 Y124.688 E0.7394
G1 X73.463 Y121.411 E1.0334
G1 X73.463 Y120.733 E1.0765
G1 X77.419 Y124.688 E1.4315
G1 X78.098 Y124.688 E1.4746
G1 X73.463 Y120.054 E1.8905
G1 X73.463 Y119.375 E1.9335
G1 X78.776 Y124.688 E2.4104
G1 X79.455 Y124.688 E2.4535
G1 X73.463 Y118.696 E2.9912
G1 X73.463 Y118.017 E3.0343
G1 X80.134 Y124.688 E3.6330
G1 X80.813 Y124.688 E3.6760
G1 X73.463 Y117.338 E4.3356
G1 X73.463 Y116.660 E4.3787
G1 X81.492 Y124.688 E5.0992
G1 X82.170 Y124.688 E5.1423
G1 X73.463 Y115.981 E5.9238
G1 X73.463 Y115.302 E5.9668
G1 X82.849 Y124.688 E6.8092
