; G-Code generated by Simplify3D(R) Version 4.0.1
; Sep 16, 2018 at 6:17:18 PM
; Settings Summary
;   processName,Process1
;   applyToModels,Focuser
;   profileName,BortBot (modified)
;   profileVersion,2018-03-11 18:52:45
;   baseProfile,Default
;   printMaterial,PLA
;   printQuality,Medium
;   printExtruders,
;   extruderName,Extruder 1
;   extruderToolheadNumber,0
;   extruderDiameter,0.5
;   extruderAutoWidth,1
;   extruderWidth,0.6
;   extrusionMultiplier,1.02
;   extruderUseRetract,1
;   extruderRetractionDistance,1.2
;   extruderExtraRestartDistance,-0.2
;   extruderRetractionZLift,0
;   extruderRetractionSpeed,6000
;   extruderUseCoasting,1
;   extruderCoastingDistance,1.4
;   extruderUseWipe,0
;   extruderWipeDistance,4.4
;   primaryExtruder,0
;   layerHeight,0.2
;   topSolidLayers,3
;   bottomSolidLayers,2
;   perimeterOutlines,3
;   printPerimetersInsideOut,0
;   startPointOption,2
;   startPointOriginX,0
;   startPointOriginY,0
;   sequentialIslands,0
;   spiralVaseMode,0
;   firstLayerHeightPercentage,125
;   firstLayerWidthPercentage,100
;   firstLayerUnderspeed,0.75
;   useRaft,0
;   raftExtruder,0
;   raftTopLayers,2
;   raftBaseLayers,2
;   raftOffset,3
;   raftSeparationDistance,0.3
;   raftTopInfill,90
;   aboveRaftSpeedMultiplier,0.3
;   useSkirt,1
;   skirtExtruder,0
;   skirtLayers,1
;   skirtOutlines,2
;   skirtOffset,3
;   usePrimePillar,0
;   primePillarExtruder,999
;   primePillarWidth,12
;   primePillarLocation,7
;   primePillarSpeedMultiplier,1
;   useOozeShield,0
;   oozeShieldExtruder,999
;   oozeShieldOffset,2
;   oozeShieldOutlines,1
;   oozeShieldSidewallShape,1
;   oozeShieldSidewallAngle,30
;   oozeShieldSpeedMultiplier,1
;   infillExtruder,0
;   internalInfillPattern,Full Honeycomb
;   externalInfillPattern,Rectilinear
;   infillPercentage,30
;   outlineOverlapPercentage,35
;   infillExtrusionWidthPercentage,100
;   minInfillLength,5
;   infillLayerInterval,2
;   internalInfillAngles,0,120,-120
;   overlapInternalInfillAngles,0
;   externalInfillAngles,45,-45
;   generateSupport,0
;   supportExtruder,0
;   supportInfillPercentage,30
;   supportExtraInflation,0
;   supportBaseLayers,1
;   denseSupportExtruder,0
;   denseSupportLayers,4
;   denseSupportInfillPercentage,90
;   supportLayerInterval,1
;   supportHorizontalPartOffset,0.4
;   supportUpperSeparationLayers,1
;   supportLowerSeparationLayers,2
;   supportType,0
;   supportGridSpacing,1
;   maxOverhangAngle,46
;   supportAngles,30
;   temperatureName,Extruder 1,Heated Bed
;   temperatureNumber,0,1
;   temperatureSetpointCount,1,1
;   temperatureSetpointLayers,1,1
;   temperatureSetpointTemperatures,240,60
;   temperatureStabilizeAtStartup,1,1
;   temperatureHeatedBed,0,1
;   temperatureRelayBetweenLayers,1,0
;   temperatureRelayBetweenLoops,1,0
;   fanLayers,1,3
;   fanSpeeds,0,40
;   blipFanToFullPower,0
;   adjustSpeedForCooling,1
;   minSpeedLayerTime,15
;   minCoolingSpeedSlowdown,20
;   increaseFanForCooling,1
;   minFanLayerTime,45
;   maxCoolingFanSpeed,100
;   increaseFanForBridging,1
;   bridgingFanSpeed,100
;   use5D,1
;   relativeEdistances,0
;   allowEaxisZeroing,1
;   independentExtruderAxes,0
;   includeM10123,0
;   stickySupport,1
;   applyToolheadOffsets,0
;   gcodeXoffset,0
;   gcodeYoffset,0
;   gcodeZoffset,0
;   overrideMachineDefinition,0
;   machineTypeOverride,0
;   strokeXoverride,100
;   strokeYoverride,100
;   strokeZoverride,100
;   originOffsetXoverride,0
;   originOffsetYoverride,0
;   originOffsetZoverride,0
;   homeXdirOverride,-1
;   homeYdirOverride,-1
;   homeZdirOverride,-1
;   flipXoverride,1
;   flipYoverride,-1
;   flipZoverride,1
;   toolheadOffsets,0,0|0,0|0,0|0,0|0,0|0,0
;   overrideFirmwareConfiguration,0
;   firmwareTypeOverride,RepRap (Marlin/Repetier/Sprinter)
;   GPXconfigOverride,r2
;   baudRateOverride,115200
;   overridePrinterModels,0
;   printerModelsOverride
;   startingGcode,G28  ; Home all,;M208S7; DISABLE THE PROBE,;G1 Z5; probe z clearance,;G1 X0 Y0; ,;M280S3; Enable the probe,;G32; probe the grid,;M374; save the grid,;G1 Z20 ; Set Z20 for ooze
;   layerChangeGcode,
;   retractionGcode,
;   toolChangeGcode,
;   endingGcode,;G10 S1; retract filament to relieve pressure,M104 S0 ; turn off extruder,M140 S0 ; turn off bed,G91 G1 Z10 ; Clearance from part,G90 G1 X0 Y0 Z170 ; Go to starting position (X0 Y0 Z 170),M84 ; disable motor,M107; Turn off fan
;   exportFileFormat,gcode
;   celebration,0
;   celebrationSong,Random Song
;   postProcessing,
;   defaultSpeed,2400
;   outlineUnderspeed,0.8
;   solidInfillUnderspeed,1
;   supportUnderspeed,1
;   rapidXYspeed,9000
;   rapidZspeed,1800
;   minBridgingArea,10
;   bridgingExtraInflation,5
;   bridgingExtrusionMultiplier,0.9
;   bridgingSpeedMultiplier,0.6
;   useFixedBridgingAngle,0
;   fixedBridgingAngle,0
;   applyBridgingToPerimeters,1
;   filamentDiameters,1.75|1.75|1.75|1.75|1.75|1.75
;   filamentPricesPerKg,12|46|46|46|46|46
;   filamentDensities,1.33|1.25|1.25|1.25|1.25|1.25
;   useMinPrintHeight,0
;   minPrintHeight,0
;   useMaxPrintHeight,0
;   maxPrintHeight,2.75
;   useDiaphragm,0
;   diaphragmLayerInterval,20
;   robustSlicing,1
;   mergeAllIntoSolid,0
;   onlyRetractWhenCrossingOutline,1
;   retractBetweenLayers,0
;   useRetractionMinTravel,0
;   retractionMinTravel,3
;   retractWhileWiping,0
;   onlyWipeOutlines,1
;   avoidCrossingOutline,0
;   maxMovementDetourFactor,3
;   toolChangeRetractionDistance,12
;   toolChangeExtraRestartDistance,-0.5
;   toolChangeRetractionSpeed,600
;   externalThinWallType,1
;   internalThinWallType,1
;   thinWallAllowedOverlapPercentage,10
;   singleExtrusionMinLength,1
;   singleExtrusionMinPrintingWidthPercentage,50
;   singleExtrusionMaxPrintingWidthPercentage,200
;   singleExtrusionEndpointExtension,0.2
;   horizontalSizeCompensation,0
G90
M82
M106 S0
M140 S60
M190 S60
M104 S240 T0
M109 S240 T0
G28  ; Home all
;M208S7; DISABLE THE PROBE
;G1 Z5; probe z clearance
;G1 X0 Y0; 
;M280S3; Enable the probe
;G32; probe the grid
;M374; save the grid
;G1 Z20 ; Set Z20 for ooze
G92 E0
G1 E-1.2000 F6000
G1 Z0.250 F1800
; process Process1
; layer 1, Z = 0.250
M105
T0
; tool H0.250 W0.600
; skirt
G1 X51.581 Y48.297 F9000
G1 E-0.2000 F1800
G92 E0
G1 X51.751 Y48.138 E0.0148 F1800
G1 X51.774 Y48.118 E0.0167
G1 X55.395 Y45.152 E0.3144
G1 X55.412 Y45.139 E0.3158
G1 X55.548 Y45.038 E0.3266
G1 X55.566 Y45.026 E0.3280
G1 X59.434 Y42.446 E0.6237
G1 X59.453 Y42.434 E0.6251
G1 X59.598 Y42.348 E0.6359
G1 X59.617 Y42.337 E0.6373
G1 X63.719 Y40.148 E0.9330
G1 X63.739 Y40.138 E0.9344
G1 X63.891 Y40.066 E0.9452
G1 X63.912 Y40.057 E0.9466
G1 X68.208 Y38.281 E1.2423
G1 X68.228 Y38.273 E1.2437
G1 X68.388 Y38.216 E1.2545
G1 X68.409 Y38.209 E1.2559
G1 X72.858 Y36.862 E1.5516
G1 X72.879 Y36.856 E1.5530
G1 X73.043 Y36.815 E1.5637
G1 X73.065 Y36.810 E1.5651
G1 X77.625 Y35.904 E1.8609
G1 X77.647 Y35.900 E1.8623
G1 X77.814 Y35.876 E1.8730
G1 X77.836 Y35.873 E1.8744
G1 X82.462 Y35.418 E2.1702
G1 X82.484 Y35.416 E2.1716
G1 X82.653 Y35.408 E2.1823
G1 X82.675 Y35.407 E2.1837
G1 X87.325 Y35.407 E2.4794
G1 X87.347 Y35.408 E2.4809
G1 X87.516 Y35.416 E2.4916
G1 X87.537 Y35.418 E2.4930
G1 X92.164 Y35.873 E2.7887
G1 X92.186 Y35.876 E2.7901
G1 X92.353 Y35.900 E2.8009
G1 X92.375 Y35.904 E2.8023
G1 X96.935 Y36.810 E3.0980
G1 X96.957 Y36.815 E3.0994
G1 X97.121 Y36.856 E3.1102
G1 X97.142 Y36.862 E3.1116
G1 X101.591 Y38.209 E3.4073
G1 X101.612 Y38.216 E3.4087
G1 X101.772 Y38.273 E3.4195
G1 X101.792 Y38.281 E3.4209
G1 X106.088 Y40.057 E3.7166
G1 X106.109 Y40.066 E3.7180
G1 X106.261 Y40.138 E3.7288
G1 X106.281 Y40.148 E3.7302
G1 X110.383 Y42.337 E4.0259
G1 X110.402 Y42.348 E4.0273
G1 X110.547 Y42.434 E4.0380
G1 X110.566 Y42.446 E4.0395
G1 X114.434 Y45.026 E4.3352
G1 X114.452 Y45.038 E4.3366
G1 X114.588 Y45.139 E4.3473
G1 X114.605 Y45.152 E4.3487
G1 X118.226 Y48.118 E4.6465
G1 X118.249 Y48.138 E4.6484
G1 X118.419 Y48.297 E4.6632
G1 X118.440 Y48.318 E4.6651
G1 X119.202 Y49.137 E4.7363
G1 X119.227 Y49.166 E4.7387
G1 X119.410 Y49.399 E4.7575
G1 X119.432 Y49.430 E4.7599
G1 X120.061 Y50.393 E4.8331
G1 X120.081 Y50.426 E4.8356
G1 X120.221 Y50.686 E4.8544
G1 X120.238 Y50.721 E4.8568
G1 X120.694 Y51.777 E4.9300
G1 X120.707 Y51.813 E4.9324
G1 X120.801 Y52.093 E4.9512
G1 X120.812 Y52.130 E4.9537
G1 X121.081 Y53.248 E5.0268
G1 X121.088 Y53.286 E5.0293
G1 X121.133 Y53.578 E5.0481
G1 X121.137 Y53.616 E5.0505
G1 X121.212 Y54.764 E5.1237
G1 X121.213 Y54.802 E5.1261
G1 X121.207 Y55.098 E5.1449
G1 X121.205 Y55.136 E5.1474
G1 X121.083 Y56.280 E5.2205
G1 X121.078 Y56.318 E5.2230
G1 X121.021 Y56.608 E5.2418
G1 X121.012 Y56.646 E5.2442
G1 X120.698 Y57.752 E5.3174
G1 X120.686 Y57.789 E5.3198
G1 X120.581 Y58.065 E5.3386
G1 X120.566 Y58.100 E5.3411
G1 X120.067 Y59.137 E5.4142
G1 X120.049 Y59.171 E5.4167
G1 X119.899 Y59.425 E5.4355
G1 X119.878 Y59.457 E5.4379
G1 X119.210 Y60.394 E5.5111
G1 X119.187 Y60.424 E5.5136
G1 X118.995 Y60.649 E5.5323
G1 X118.969 Y60.678 E5.5348
G1 X118.774 Y60.871 E5.5523
G1 X122.760 Y67.774 E6.0593
G1 X123.025 Y67.702 E6.0768
G1 X123.062 Y67.693 E6.0792
G1 X123.353 Y67.640 E6.0980
G1 X123.391 Y67.635 E6.1005
G1 X124.536 Y67.525 E6.1737
G1 X124.574 Y67.523 E6.1761
G1 X124.870 Y67.520 E6.1949
G1 X124.908 Y67.521 E6.1973
G1 X126.055 Y67.608 E6.2705
G1 X126.093 Y67.612 E6.2729
G1 X126.385 Y67.660 E6.2917
G1 X126.423 Y67.668 E6.2942
G1 X127.538 Y67.948 E6.3674
G1 X127.575 Y67.959 E6.3698
G1 X127.854 Y68.056 E6.3886
G1 X127.890 Y68.070 E6.3911
G1 X128.941 Y68.537 E6.4642
G1 X128.976 Y68.554 E6.4667
G1 X129.235 Y68.696 E6.4855
G1 X129.268 Y68.716 E6.4879
G1 X130.224 Y69.355 E6.5611
G1 X130.255 Y69.378 E6.5635
G1 X130.486 Y69.562 E6.5823
G1 X130.515 Y69.588 E6.5848
G1 X131.348 Y70.380 E6.6579
G1 X131.375 Y70.408 E6.6604
G1 X131.571 Y70.629 E6.6792
G1 X131.595 Y70.659 E6.6816
G1 X132.282 Y71.582 E6.7548
G1 X132.303 Y71.614 E6.7572
G1 X132.459 Y71.865 E6.7760
G1 X132.478 Y71.899 E6.7785
G1 X132.997 Y72.925 E6.8516
G1 X133.013 Y72.960 E6.8541
G1 X133.123 Y73.234 E6.8729
G1 X133.136 Y73.270 E6.8753
G1 X133.460 Y74.328 E6.9457
G1 X133.467 Y74.355 E6.9475
G1 X133.516 Y74.557 E6.9607
G1 X133.522 Y74.584 E6.9625
G1 X134.116 Y77.921 E7.1780
G1 X134.119 Y77.936 E7.1790
G1 X134.136 Y78.057 E7.1868
G1 X134.138 Y78.072 E7.1878
G1 X134.491 Y81.399 E7.4006
G1 X134.492 Y81.415 E7.4016
G1 X134.501 Y81.536 E7.4093
G1 X134.502 Y81.552 E7.4104
G1 X134.619 Y84.865 E7.6212
G1 X134.619 Y84.873 E7.6217
G1 X134.620 Y84.934 E7.6256
G1 X134.620 Y84.942 E7.6261
G1 X134.620 Y132.114 E10.6267
G1 X134.483 Y132.445 E10.6495
G1 X132.472 Y134.456 E10.8304
G1 X132.142 Y134.593 E10.8531
G1 X37.858 Y134.593 E16.8505
G1 X37.528 Y134.456 E16.8733
G1 X35.517 Y132.445 E17.0541
G1 X35.380 Y132.114 E17.0769
G1 X35.380 Y84.942 E20.0775
G1 X35.380 Y84.934 E20.0780
G1 X35.381 Y84.873 E20.0819
G1 X35.381 Y84.865 E20.0824
G1 X35.498 Y81.552 E20.2933
G1 X35.499 Y81.537 E20.2943
G1 X35.508 Y81.415 E20.3020
G1 X35.509 Y81.399 E20.3031
G1 X35.862 Y78.072 E20.5159
G1 X35.864 Y78.057 E20.5169
G1 X35.881 Y77.936 E20.5246
G1 X35.884 Y77.921 E20.5256
G1 X36.478 Y74.584 E20.7412
G1 X36.484 Y74.557 E20.7429
G1 X36.533 Y74.355 E20.7562
G1 X36.540 Y74.328 E20.7579
G1 X36.864 Y73.270 E20.8283
G1 X36.877 Y73.234 E20.8308
G1 X36.987 Y72.960 E20.8496
G1 X37.003 Y72.925 E20.8520
G1 X37.522 Y71.899 E20.9252
G1 X37.541 Y71.865 E20.9276
G1 X37.697 Y71.614 E20.9464
G1 X37.718 Y71.582 E20.9489
G1 X38.405 Y70.659 E21.0220
G1 X38.429 Y70.629 E21.0245
G1 X38.625 Y70.408 E21.0433
G1 X38.652 Y70.380 E21.0457
G1 X39.485 Y69.588 E21.1189
G1 X39.514 Y69.562 E21.1213
G1 X39.745 Y69.378 E21.1401
G1 X39.776 Y69.355 E21.1426
G1 X40.732 Y68.716 E21.2157
G1 X40.765 Y68.696 E21.2182
G1 X41.024 Y68.554 E21.2370
G1 X41.059 Y68.537 E21.2394
G1 X42.110 Y68.070 E21.3126
G1 X42.146 Y68.056 E21.3150
G1 X42.425 Y67.959 E21.3338
G1 X42.462 Y67.948 E21.3363
G1 X43.577 Y67.668 E21.4095
G1 X43.615 Y67.660 E21.4119
G1 X43.907 Y67.612 E21.4307
G1 X43.945 Y67.608 E21.4332
G1 X45.092 Y67.521 E21.5063
G1 X45.130 Y67.520 E21.5088
G1 X45.426 Y67.523 E21.5275
G1 X45.464 Y67.525 E21.5300
G1 X46.609 Y67.635 E21.6032
G1 X46.647 Y67.640 E21.6056
G1 X46.938 Y67.693 E21.6244
G1 X46.975 Y67.702 E21.6269
G1 X47.240 Y67.774 E21.6443
G1 X51.226 Y60.871 E22.1514
G1 X51.031 Y60.678 E22.1689
G1 X51.005 Y60.649 E22.1713
G1 X50.813 Y60.424 E22.1901
G1 X50.790 Y60.394 E22.1925
G1 X50.122 Y59.457 E22.2657
G1 X50.101 Y59.425 E22.2682
G1 X49.951 Y59.171 E22.2870
G1 X49.933 Y59.137 E22.2894
G1 X49.434 Y58.100 E22.3626
G1 X49.419 Y58.065 E22.3650
G1 X49.314 Y57.789 E22.3838
G1 X49.302 Y57.752 E22.3863
G1 X48.988 Y56.646 E22.4594
G1 X48.979 Y56.608 E22.4619
G1 X48.922 Y56.318 E22.4807
G1 X48.917 Y56.280 E22.4831
G1 X48.795 Y55.136 E22.5563
G1 X48.793 Y55.098 E22.5587
G1 X48.787 Y54.802 E22.5775
G1 X48.788 Y54.764 E22.5800
G1 X48.863 Y53.616 E22.6531
G1 X48.867 Y53.578 E22.6556
G1 X48.912 Y53.286 E22.6744
G1 X48.919 Y53.248 E22.6768
G1 X49.188 Y52.130 E22.7500
G1 X49.199 Y52.093 E22.7524
G1 X49.293 Y51.813 E22.7712
G1 X49.306 Y51.777 E22.7737
G1 X49.762 Y50.721 E22.8468
G1 X49.779 Y50.686 E22.8493
G1 X49.919 Y50.426 E22.8681
G1 X49.939 Y50.393 E22.8705
G1 X50.568 Y49.430 E22.9437
G1 X50.590 Y49.399 E22.9462
G1 X50.641 Y49.333 E22.9514
G1 X50.773 Y49.166 F1800
G1 X50.798 Y49.137 F1800
G1 X51.560 Y48.318 F1800
G1 X51.581 Y48.297 F1800
G1 X51.999 Y48.728 F9000
G92 E0
G1 X52.154 Y48.582 E0.0135 F1800
G1 X52.162 Y48.576 E0.0141
G1 X55.769 Y45.621 E0.3108
G1 X55.775 Y45.617 E0.3112
G1 X55.899 Y45.525 E0.3210
G1 X55.905 Y45.521 E0.3215
G1 X59.761 Y42.950 E0.6163
G1 X59.767 Y42.946 E0.6168
G1 X59.900 Y42.866 E0.6266
G1 X59.906 Y42.863 E0.6271
G1 X63.995 Y40.681 E0.9218
G1 X64.001 Y40.678 E0.9223
G1 X64.141 Y40.612 E0.9321
G1 X64.148 Y40.609 E0.9326
G1 X68.430 Y38.838 E1.2274
G1 X68.437 Y38.835 E1.2279
G1 X68.583 Y38.783 E1.2377
G1 X68.590 Y38.781 E1.2382
G1 X73.025 Y37.438 E1.5329
G1 X73.032 Y37.436 E1.5334
G1 X73.182 Y37.398 E1.5432
G1 X73.189 Y37.397 E1.5437
G1 X77.735 Y36.494 E1.8385
G1 X77.742 Y36.493 E1.8390
G1 X77.895 Y36.470 E1.8488
G1 X77.902 Y36.469 E1.8492
G1 X82.514 Y36.016 E2.1440
G1 X82.521 Y36.015 E2.1445
G1 X82.675 Y36.008 E2.1543
G1 X82.683 Y36.007 E2.1548
G1 X87.317 Y36.007 E2.4496
G1 X87.325 Y36.008 E2.4500
G1 X87.479 Y36.015 E2.4599
G1 X87.486 Y36.016 E2.4603
G1 X92.098 Y36.469 E2.7551
G1 X92.105 Y36.470 E2.7556
G1 X92.258 Y36.493 E2.7654
G1 X92.265 Y36.494 E2.7659
G1 X96.811 Y37.397 E3.0607
G1 X96.818 Y37.398 E3.0611
G1 X96.968 Y37.436 E3.0710
G1 X96.975 Y37.438 E3.0714
G1 X101.410 Y38.781 E3.3662
G1 X101.417 Y38.783 E3.3667
G1 X101.563 Y38.835 E3.3765
G1 X101.570 Y38.838 E3.3770
G1 X105.852 Y40.609 E3.6718
G1 X105.859 Y40.612 E3.6722
G1 X105.999 Y40.678 E3.6821
G1 X106.005 Y40.681 E3.6825
G1 X110.094 Y42.863 E3.9773
G1 X110.100 Y42.866 E3.9778
G1 X110.233 Y42.946 E3.9876
G1 X110.239 Y42.950 E3.9881
G1 X114.095 Y45.521 E4.2829
G1 X114.101 Y45.525 E4.2833
G1 X114.225 Y45.617 E4.2931
G1 X114.231 Y45.621 E4.2936
G1 X117.838 Y48.576 E4.5902
G1 X117.846 Y48.582 E4.5909
G1 X118.001 Y48.728 E4.6044
G1 X118.008 Y48.735 E4.6050
G1 X118.755 Y49.536 E4.6747
G1 X118.763 Y49.546 E4.6755
G1 X118.929 Y49.758 E4.6927
G1 X118.937 Y49.769 E4.6935
G1 X119.552 Y50.710 E4.7650
G1 X119.559 Y50.721 E4.7658
G1 X119.686 Y50.959 E4.7830
G1 X119.692 Y50.970 E4.7838
G1 X120.138 Y52.003 E4.8554
G1 X120.142 Y52.015 E4.8562
G1 X120.228 Y52.271 E4.8733
G1 X120.231 Y52.283 E4.8741
G1 X120.495 Y53.376 E4.9457
G1 X120.497 Y53.389 E4.9465
G1 X120.538 Y53.655 E4.9637
G1 X120.539 Y53.668 E4.9645
G1 X120.613 Y54.790 E5.0360
G1 X120.613 Y54.803 E5.0368
G1 X120.607 Y55.073 E5.0540
G1 X120.607 Y55.086 E5.0548
G1 X120.488 Y56.204 E5.1263
G1 X120.486 Y56.217 E5.1271
G1 X120.435 Y56.481 E5.1443
G1 X120.432 Y56.494 E5.1451
G1 X120.124 Y57.576 E5.2166
G1 X120.120 Y57.588 E5.2175
G1 X120.025 Y57.840 E5.2346
G1 X120.019 Y57.852 E5.2354
G1 X119.532 Y58.865 E5.3070
G1 X119.526 Y58.877 E5.3078
G1 X119.389 Y59.109 E5.3249
G1 X119.382 Y59.120 E5.3258
G1 X118.729 Y60.035 E5.3973
G1 X118.721 Y60.045 E5.3981
G1 X118.547 Y60.251 E5.4153
G1 X118.538 Y60.260 E5.4161
