; G-Code generated by Simplify3D(R) Version 4.0.1
; Sep 5, 2018 at 7:34:55 PM
; Settings Summary
;   processName,Process1
;   applyToModels,Split Pupil Finder 1,Focuser,eyepiece spacer
;   profileName,BortBot (modified)
;   profileVersion,2018-03-11 18:52:45
;   baseProfile,Default
;   printMaterial,PLA
;   printQuality,Medium
;   printExtruders,
;   extruderName,Extruder 1
;   extruderToolheadNumber,0
;   extruderDiameter,0.5
;   extruderAutoWidth,1
;   extruderWidth,0.6
;   extrusionMultiplier,1.02
;   extruderUseRetract,1
;   extruderRetractionDistance,1.2
;   extruderExtraRestartDistance,0
;   extruderRetractionZLift,0
;   extruderRetractionSpeed,6000
;   extruderUseCoasting,1
;   extruderCoastingDistance,1.4
;   extruderUseWipe,0
;   extruderWipeDistance,4.4
;   primaryExtruder,0
;   layerHeight,0.4
;   topSolidLayers,3
;   bottomSolidLayers,2
;   perimeterOutlines,3
;   printPerimetersInsideOut,0
;   startPointOption,2
;   startPointOriginX,0
;   startPointOriginY,0
;   sequentialIslands,0
;   spiralVaseMode,0
;   firstLayerHeightPercentage,125
;   firstLayerWidthPercentage,100
;   firstLayerUnderspeed,0.75
;   useRaft,0
;   raftExtruder,0
;   raftTopLayers,2
;   raftBaseLayers,2
;   raftOffset,3
;   raftSeparationDistance,0.3
;   raftTopInfill,90
;   aboveRaftSpeedMultiplier,0.3
;   useSkirt,1
;   skirtExtruder,0
;   skirtLayers,1
;   skirtOutlines,2
;   skirtOffset,3
;   usePrimePillar,0
;   primePillarExtruder,999
;   primePillarWidth,12
;   primePillarLocation,7
;   primePillarSpeedMultiplier,1
;   useOozeShield,0
;   oozeShieldExtruder,999
;   oozeShieldOffset,2
;   oozeShieldOutlines,1
;   oozeShieldSidewallShape,1
;   oozeShieldSidewallAngle,30
;   oozeShieldSpeedMultiplier,1
;   infillExtruder,0
;   internalInfillPattern,Rectilinear
;   externalInfillPattern,Rectilinear
;   infillPercentage,30
;   outlineOverlapPercentage,35
;   infillExtrusionWidthPercentage,100
;   minInfillLength,5
;   infillLayerInterval,1
;   internalInfillAngles,45,-45
;   overlapInternalInfillAngles,0
;   externalInfillAngles,45,-45
;   generateSupport,1
;   supportExtruder,0
;   supportInfillPercentage,30
;   supportExtraInflation,0
;   supportBaseLayers,1
;   denseSupportExtruder,0
;   denseSupportLayers,4
;   denseSupportInfillPercentage,90
;   supportLayerInterval,1
;   supportHorizontalPartOffset,0.4
;   supportUpperSeparationLayers,1
;   supportLowerSeparationLayers,2
;   supportType,0
;   supportGridSpacing,1
;   maxOverhangAngle,46
;   supportAngles,30
;   temperatureName,Extruder 1,Heated Bed
;   temperatureNumber,0,1
;   temperatureSetpointCount,1,1
;   temperatureSetpointLayers,1,1
;   temperatureSetpointTemperatures,245,60
;   temperatureStabilizeAtStartup,1,1
;   temperatureHeatedBed,0,1
;   temperatureRelayBetweenLayers,1,0
;   temperatureRelayBetweenLoops,1,0
;   fanLayers,1,3
;   fanSpeeds,0,40
;   blipFanToFullPower,0
;   adjustSpeedForCooling,1
;   minSpeedLayerTime,15
;   minCoolingSpeedSlowdown,20
;   increaseFanForCooling,1
;   minFanLayerTime,45
;   maxCoolingFanSpeed,100
;   increaseFanForBridging,1
;   bridgingFanSpeed,100
;   use5D,1
;   relativeEdistances,0
;   allowEaxisZeroing,1
;   independentExtruderAxes,0
;   includeM10123,0
;   stickySupport,1
;   applyToolheadOffsets,0
;   gcodeXoffset,0
;   gcodeYoffset,0
;   gcodeZoffset,0
;   overrideMachineDefinition,0
;   machineTypeOverride,0
;   strokeXoverride,100
;   strokeYoverride,100
;   strokeZoverride,100
;   originOffsetXoverride,0
;   originOffsetYoverride,0
;   originOffsetZoverride,0
;   homeXdirOverride,-1
;   homeYdirOverride,-1
;   homeZdirOverride,-1
;   flipXoverride,1
;   flipYoverride,-1
;   flipZoverride,1
;   toolheadOffsets,0,0|0,0|0,0|0,0|0,0|0,0
;   overrideFirmwareConfiguration,0
;   firmwareTypeOverride,RepRap (Marlin/Repetier/Sprinter)
;   GPXconfigOverride,r2
;   baudRateOverride,115200
;   overridePrinterModels,0
;   printerModelsOverride
;   startingGcode,G28  ; Home all,;M208S7; DISABLE THE PROBE,;G1 Z5; probe z clearance,;G1 X0 Y0; ,;M280S3; Enable the probe,;G32; probe the grid,;M374; save the grid,;G1 Z20 ; Set Z20 for ooze
;   layerChangeGcode,
;   retractionGcode,
;   toolChangeGcode,
;   endingGcode,G10 S1; retract filament to relieve pressure,M104 S0 ; turn off extruder,M140 S0 ; turn off bed,G91 G1 Z10 ; Clearance from part,G90 G1 X0 Y0 Z170 ; Go to starting position (X0 Y0 Z 170),;M84 ; disable motor,M107; Turn off fan
;   exportFileFormat,gcode
;   celebration,0
;   celebrationSong,Random Song
;   postProcessing,
;   defaultSpeed,2400
;   outlineUnderspeed,0.8
;   solidInfillUnderspeed,1
;   supportUnderspeed,1
;   rapidXYspeed,9000
;   rapidZspeed,1800
;   minBridgingArea,10
;   bridgingExtraInflation,5
;   bridgingExtrusionMultiplier,0.9
;   bridgingSpeedMultiplier,0.6
;   useFixedBridgingAngle,0
;   fixedBridgingAngle,0
;   applyBridgingToPerimeters,1
;   filamentDiameters,1.75|1.75|1.75|1.75|1.75|1.75
;   filamentPricesPerKg,12|46|46|46|46|46
;   filamentDensities,1.33|1.25|1.25|1.25|1.25|1.25
;   useMinPrintHeight,0
;   minPrintHeight,0
;   useMaxPrintHeight,0
;   maxPrintHeight,2.75
;   useDiaphragm,0
;   diaphragmLayerInterval,20
;   robustSlicing,1
;   mergeAllIntoSolid,0
;   onlyRetractWhenCrossingOutline,1
;   retractBetweenLayers,0
;   useRetractionMinTravel,0
;   retractionMinTravel,3
;   retractWhileWiping,1
;   onlyWipeOutlines,0
;   avoidCrossingOutline,0
;   maxMovementDetourFactor,3
;   toolChangeRetractionDistance,12
;   toolChangeExtraRestartDistance,-0.5
;   toolChangeRetractionSpeed,600
;   externalThinWallType,1
;   internalThinWallType,1
;   thinWallAllowedOverlapPercentage,10
;   singleExtrusionMinLength,1
;   singleExtrusionMinPrintingWidthPercentage,50
;   singleExtrusionMaxPrintingWidthPercentage,200
;   singleExtrusionEndpointExtension,0.2
;   horizontalSizeCompensation,0
G90
M82
M106 S0
M140 S60
M190 S60
M104 S245 T0
M109 S245 T0
G28  ; Home all
;M208S7; DISABLE THE PROBE
;G1 Z5; probe z clearance
;G1 X0 Y0; 
;M280S3; Enable the probe
;G32; probe the grid
;M374; save the grid
;G1 Z20 ; Set Z20 for ooze
G92 E0
G1 E-1.2000 F6000
G1 Z0.500 F1800
; process Process1
; layer 1, Z = 0.500
M105
T0
; tool H0.500 W0.600
; skirt
G1 X44.098 Y49.923 F9000
G1 E0.0000 F1800
G92 E0
G1 X47.745 Y46.792 E0.6114 F1800
G1 X47.763 Y46.778 E0.6143
G1 X47.901 Y46.671 E0.6366
G1 X47.919 Y46.657 E0.6395
G1 X51.864 Y43.912 E1.2509
G1 X51.883 Y43.899 E1.2538
G1 X52.032 Y43.807 E1.2761
G1 X52.051 Y43.795 E1.2790
G1 X56.253 Y41.463 E1.8904
G1 X56.274 Y41.452 E1.8933
G1 X56.431 Y41.375 E1.9156
G1 X56.451 Y41.365 E1.9185
G1 X60.868 Y39.470 E2.5299
G1 X60.889 Y39.462 E2.5328
G1 X61.053 Y39.401 E2.5551
G1 X61.075 Y39.394 E2.5580
G1 X65.661 Y37.955 E3.1694
G1 X65.682 Y37.949 E3.1723
G1 X65.852 Y37.905 E3.1945
G1 X65.874 Y37.900 E3.1974
G1 X70.582 Y36.932 E3.8089
G1 X70.604 Y36.928 E3.8118
G1 X70.777 Y36.901 E3.8340
G1 X70.800 Y36.899 E3.8370
G1 X75.581 Y36.412 E4.4484
G1 X75.604 Y36.411 E4.4513
G1 X75.779 Y36.402 E4.4735
G1 X75.801 Y36.401 E4.4764
G1 X80.608 Y36.401 E5.0879
G1 X80.630 Y36.402 E5.0908
G1 X80.805 Y36.411 E5.1130
G1 X80.828 Y36.412 E5.1159
G1 X85.609 Y36.899 E5.7274
G1 X85.632 Y36.901 E5.7303
G1 X85.805 Y36.928 E5.7525
G1 X85.827 Y36.932 E5.7554
G1 X90.535 Y37.900 E6.3669
G1 X90.557 Y37.905 E6.3698
G1 X90.727 Y37.949 E6.3920
G1 X90.748 Y37.955 E6.3949
G1 X95.334 Y39.394 E7.0064
G1 X95.356 Y39.401 E7.0093
G1 X95.520 Y39.462 E7.0315
G1 X95.541 Y39.470 E7.0344
G1 X99.958 Y41.365 E7.6458
G1 X99.978 Y41.375 E7.6488
G1 X100.135 Y41.452 E7.6710
G1 X100.156 Y41.463 E7.6739
G1 X104.358 Y43.795 E8.2853
G1 X104.378 Y43.807 E8.2882
G1 X104.526 Y43.899 E8.3105
G1 X104.545 Y43.912 E8.3134
G1 X108.490 Y46.657 E8.9248
G1 X108.508 Y46.671 E8.9277
G1 X108.646 Y46.778 E8.9500
G1 X108.664 Y46.792 E8.9529
G1 X112.311 Y49.923 E9.5643
G1 X112.328 Y49.938 E9.5672
G1 X112.454 Y50.059 E9.5895
G1 X112.471 Y50.075 E9.5924
G1 X115.782 Y53.558 E10.2038
G1 X115.797 Y53.575 E10.2067
G1 X115.911 Y53.708 E10.2290
G1 X115.925 Y53.725 E10.2319
G1 X118.868 Y57.527 E10.8434
G1 X118.882 Y57.545 E10.8464
G1 X118.983 Y57.691 E10.8689
G1 X118.995 Y57.710 E10.8718
G1 X121.580 Y61.867 E11.4946
G1 X121.591 Y61.887 E11.4975
G1 X121.676 Y62.039 E11.5196
G1 X121.686 Y62.059 E11.5225
G1 X123.760 Y66.296 E12.1226
G1 X123.770 Y66.316 E12.1255
G1 X123.838 Y66.476 E12.1475
G1 X123.846 Y66.497 E12.1504
G1 X125.515 Y71.003 E12.7618
G1 X125.523 Y71.025 E12.7647
G1 X125.575 Y71.192 E12.7869
G1 X125.581 Y71.213 E12.7898
G1 X126.786 Y75.866 E13.4013
G1 X126.791 Y75.889 E13.4042
G1 X126.826 Y76.060 E13.4264
G1 X126.830 Y76.082 E13.4293
G1 X127.558 Y80.833 E14.0408
G1 X127.561 Y80.856 E14.0437
G1 X127.579 Y81.030 E14.0659
G1 X127.581 Y81.052 E14.0688
G1 X127.822 Y85.809 E14.6747
G1 X127.822 Y85.820 E14.6761
G1 X127.824 Y85.907 E14.6873
G1 X127.825 Y85.919 E14.6887
G1 X127.825 Y133.104 E20.6916
G1 X127.688 Y133.435 E20.7372
G1 X125.677 Y135.445 E21.0989
G1 X125.346 Y135.582 E21.1445
G1 X31.063 Y135.582 E33.1392
G1 X30.732 Y135.445 E33.1847
G1 X28.722 Y133.435 E33.5465
G1 X28.585 Y133.104 E33.5920
G1 X28.585 Y85.919 E39.5949
G1 X28.585 Y85.907 E39.5964
G1 X28.587 Y85.820 E39.6075
G1 X28.587 Y85.809 E39.6090
G1 X28.829 Y81.052 E40.2148
G1 X28.830 Y81.030 E40.2177
G1 X28.848 Y80.856 E40.2400
G1 X28.851 Y80.833 E40.2429
G1 X29.579 Y76.082 E40.8543
G1 X29.583 Y76.060 E40.8572
G1 X29.618 Y75.889 E40.8795
G1 X29.623 Y75.866 E40.8824
G1 X30.828 Y71.214 E41.4938
G1 X30.834 Y71.192 E41.4967
G1 X30.886 Y71.025 E41.5190
G1 X30.894 Y71.003 E41.5219
G1 X32.563 Y66.496 E42.1333
G1 X32.571 Y66.475 E42.1362
G1 X32.640 Y66.315 E42.1583
G1 X32.649 Y66.294 E42.1612
G1 X34.751 Y62.007 E42.7687
G1 X34.761 Y61.987 E42.7716
G1 X34.846 Y61.834 E42.7937
G1 X34.857 Y61.815 E42.7966
G1 X37.396 Y57.736 E43.4078
G1 X37.408 Y57.717 E43.4107
G1 X37.508 Y57.573 E43.4330
G1 X37.522 Y57.555 E43.4359
G1 X40.483 Y53.726 E44.0516
G1 X40.497 Y53.709 E44.0545
G1 X40.612 Y53.575 E44.0769
G1 X40.627 Y53.558 E44.0798
G1 X43.126 Y50.930 E44.5412
G1 X43.939 Y50.075 F1800
G1 X43.955 Y50.059 F1800
G1 X44.081 Y49.938 F1800
G1 X44.098 Y49.923 F1800
G1 X110.579 Y20.877 F9000
G92 E0
G1 X110.523 Y20.523 E0.0455 F1800
G1 X111.189 Y17.759 E0.4073
G1 X111.400 Y17.469 E0.4528
G1 X119.655 Y12.421 E1.6839
G1 X120.009 Y12.365 E1.7295
G1 X122.773 Y13.031 E2.0912
G1 X123.063 Y13.242 E2.1367
G1 X128.396 Y21.962 E3.4371
G1 X133.106 Y19.081 E4.1396
G1 X133.460 Y19.025 E4.1852
G1 X136.224 Y19.691 E4.5469
G1 X136.514 Y19.902 E4.5924
G1 X156.154 Y52.016 E9.3814
G1 X156.210 Y52.369 E9.4270
G1 X155.543 Y55.133 E9.7887
G1 X155.333 Y55.423 E9.8342
G1 X138.797 Y65.536 E12.3002
G1 X138.703 Y65.762 E12.3313
G1 X135.692 Y68.773 E12.8730
G1 X135.362 Y68.910 E12.9185
G1 X134.555 Y68.910 E13.0211
G1 X133.692 Y69.773 E13.1764
G1 X133.362 Y69.910 E13.2219
G1 X128.078 Y69.910 E13.8941
G1 X127.748 Y69.773 E13.9396
G1 X125.737 Y67.762 E14.3013
G1 X125.600 Y67.431 E14.3469
G1 X125.600 Y66.625 E14.4494
G1 X123.737 Y64.762 E14.7846
G1 X123.600 Y64.431 E14.8302
G1 X123.600 Y60.148 E15.3751
G1 X123.737 Y59.817 E15.4207
G1 X126.748 Y56.807 E15.9623
G1 X127.078 Y56.670 E16.0078
G1 X127.885 Y56.670 E16.1104
G1 X128.748 Y55.807 E16.2657
G1 X129.078 Y55.670 E16.3112
G1 X130.396 Y55.670 E16.4789
G1 X133.024 Y54.063 E16.8708
G1 X117.297 Y28.348 E20.7056
G1 X114.951 Y27.768 E21.0129
G1 X114.665 Y27.558 E21.0581
G1 X112.866 Y24.617 E21.4967
G1 X111.309 Y22.071 E21.8763
G1 X110.579 Y20.877 F1800
G1 X111.153 Y20.666 F9000
G92 E0
G1 X111.134 Y20.548 E0.0152 F1800
G1 X111.745 Y18.015 E0.3465
G1 X111.815 Y17.919 E0.3617
G1 X119.866 Y12.995 E1.5624
G1 X119.984 Y12.976 E1.5776
G1 X122.517 Y13.586 E1.9090
G1 X122.613 Y13.657 E1.9242
G1 X128.197 Y22.787 E3.2857
G1 X133.317 Y19.655 E4.0493
G1 X133.435 Y19.636 E4.0645
G1 X135.968 Y20.247 E4.3959
G1 X136.064 Y20.317 E4.4111
G1 X155.580 Y52.227 E9.1697
G1 X155.598 Y52.345 E9.1849
G1 X154.988 Y54.877 E9.5162
G1 X154.918 Y54.973 E9.5314
G1 X138.240 Y65.173 E12.0185
G1 X138.240 Y65.312 E12.0362
G1 X138.194 Y65.422 E12.0513
G1 X135.353 Y68.264 E12.5626
G1 X135.242 Y68.310 E12.5778
G1 X134.307 Y68.310 E12.6968
G1 X133.353 Y69.264 E12.8685
G1 X133.242 Y69.310 E12.8837
G1 X128.198 Y69.310 E13.5255
G1 X128.087 Y69.264 E13.5406
G1 X126.246 Y67.422 E13.8720
G1 X126.200 Y67.312 E13.8872
G1 X126.200 Y66.377 E14.0062
G1 X126.087 Y66.264 E14.0265
G1 X124.246 Y64.422 E14.3578
G1 X124.200 Y64.312 E14.3730
G1 X124.200 Y60.267 E14.8876
G1 X124.246 Y60.157 E14.9027
G1 X127.087 Y57.315 E15.4140
G1 X127.198 Y57.270 E15.4292
G1 X128.133 Y57.270 E15.5482
G1 X129.087 Y56.315 E15.7199
G1 X129.198 Y56.270 E15.7351
G1 X130.565 Y56.270 E15.9091
G1 X133.849 Y54.261 E16.3988
G1 X117.680 Y27.824 E20.3413
G1 X115.210 Y27.214 E20.6649
G1 X115.115 Y27.144 E20.6800
G1 X113.296 Y24.170 E21.1234
G1 X111.883 Y21.860 E21.4679
G1 X111.153 Y20.666 F1800
G1 X99.871 Y41.991 F9000
G92 E0
G1 X104.060 Y44.316 E0.6095 F1800
G1 X104.067 Y44.320 E0.6105
G1 X104.202 Y44.404 E0.6308
G1 X104.208 Y44.408 E0.6318
G1 X108.141 Y47.145 E1.2413
G1 X108.147 Y47.150 E1.2422
G1 X108.273 Y47.248 E1.2625
G1 X108.279 Y47.252 E1.2635
G1 X111.914 Y50.373 E1.8730
G1 X111.920 Y50.378 E1.8740
G1 X112.036 Y50.488 E1.8943
G1 X112.041 Y50.494 E1.8953
G1 X115.342 Y53.966 E2.5048
G1 X115.347 Y53.972 E2.5057
G1 X115.451 Y54.093 E2.5261
G1 X115.456 Y54.099 E2.5270
G1 X118.389 Y57.888 E3.1367
G1 X118.393 Y57.894 E3.1376
G1 X118.485 Y58.027 E3.1582
G1 X118.490 Y58.033 E3.1591
G1 X121.066 Y62.177 E3.7800
G1 X121.070 Y62.184 E3.7809
G1 X121.147 Y62.323 E3.8012
G1 X121.151 Y62.330 E3.8021
G1 X123.218 Y66.553 E4.4003
G1 X123.221 Y66.560 E4.4013
G1 X123.284 Y66.705 E4.4214
G1 X123.286 Y66.712 E4.4224
G1 X124.950 Y71.204 E5.0318
G1 X124.953 Y71.212 E5.0328
G1 X125.000 Y71.364 E5.0531
G1 X125.002 Y71.371 E5.0540
G1 X126.203 Y76.009 E5.6636
G1 X126.205 Y76.017 E5.6645
G1 X126.237 Y76.173 E5.6848
G1 X126.239 Y76.181 E5.6858
G1 X126.964 Y80.916 E6.2953
G1 X126.965 Y80.924 E6.2963
G1 X126.981 Y81.083 E6.3166
G1 X126.982 Y81.090 E6.3175
G1 X127.222 Y85.835 E6.9220
G1 X127.222 Y85.839 E6.9225
G1 X127.224 Y85.919 E6.9326
G1 X127.225 Y85.923 E6.9331
G1 X127.225 Y132.985 E12.9204
G1 X127.179 Y133.095 E12.9355
G1 X125.337 Y134.937 E13.2669
G1 X125.227 Y134.982 E13.2821
G1 X31.182 Y134.982 E25.2464
G1 X31.072 Y134.937 E25.2616
G1 X29.230 Y133.095 E25.5930
G1 X29.185 Y132.985 E25.6082
G1 X29.185 Y85.923 E31.5954
G1 X29.185 Y85.919 E31.5959
G1 X29.187 Y85.839 E31.6061
G1 X29.187 Y85.835 E31.6065
G1 X29.427 Y81.090 E32.2110
G1 X29.428 Y81.083 E32.2119
G1 X29.444 Y80.924 E32.2323
G1 X29.445 Y80.916 E32.2332
G1 X30.171 Y76.181 E32.8427
G1 X30.172 Y76.173 E32.8437
G1 X30.204 Y76.017 E32.8640
G1 X30.206 Y76.009 E32.8650
G1 X31.407 Y71.371 E33.4745
G1 X31.409 Y71.364 E33.4754
G1 X31.457 Y71.212 E33.4958
G1 X31.459 Y71.204 E33.4967
G1 X33.123 Y66.712 E34.1062
G1 X33.126 Y66.705 E34.1072
G1 X33.188 Y66.559 E34.1274
G1 X33.192 Y66.552 E34.1284
G1 X35.286 Y62.278 E34.7339
G1 X35.290 Y62.271 E34.7349
G1 X35.367 Y62.132 E34.7551
G1 X35.371 Y62.125 E34.7561
G1 X37.901 Y58.060 E35.3653
G1 X37.905 Y58.053 E35.3663
G1 X37.997 Y57.922 E35.3866
G1 X38.001 Y57.916 E35.3876
G1 X40.953 Y54.099 E36.0014
G1 X40.958 Y54.094 E36.0023
G1 X41.062 Y53.972 E36.0227
G1 X41.067 Y53.966 E36.0237
G1 X44.368 Y50.494 E36.6333
G1 X44.374 Y50.488 E36.6342
G1 X44.489 Y50.378 E36.6545
G1 X44.495 Y50.373 E36.6555
G1 X48.130 Y47.252 E37.2650
G1 X48.136 Y47.248 E37.2660
G1 X48.262 Y47.150 E37.2863
G1 X48.268 Y47.145 E37.2873
G1 X52.201 Y44.408 E37.8968
G1 X52.207 Y44.404 E37.8977
G1 X52.342 Y44.320 E37.9180
G1 X52.349 Y44.316 E37.9190
G1 X56.538 Y41.991 E38.5285
G1 X56.545 Y41.987 E38.5295
G1 X56.688 Y41.917 E38.5498
G1 X56.695 Y41.914 E38.5508
G1 X61.098 Y40.025 E39.1603
G1 X61.105 Y40.022 E39.1613
G1 X61.254 Y39.966 E39.1816
G1 X61.262 Y39.964 E39.1825
G1 X65.833 Y38.530 E39.7920
G1 X65.840 Y38.527 E39.7930
G1 X65.995 Y38.487 E39.8133
G1 X66.002 Y38.486 E39.8143
G1 X70.695 Y37.521 E40.4238
G1 X70.703 Y37.520 E40.4248
G1 X70.860 Y37.496 E40.4451
G1 X70.868 Y37.495 E40.4460
G1 X75.634 Y37.010 E41.0556
G1 X75.642 Y37.010 E41.0565
