; G-Code generated by Simplify3D(R) Version 4.0.0
; Mar 31, 2018 at 7:43:43 PM
; Settings Summary
;   processName,Normal
;   applyToModels,Focuser
;   profileName,BortBot (modified)
;   profileVersion,2018-03-11 18:52:45
;   baseProfile,Default
;   printMaterial,PLA
;   printQuality,Medium
;   printExtruders,
;   extruderName,Extruder 1
;   extruderToolheadNumber,0
;   extruderDiameter,0.4
;   extruderAutoWidth,1
;   extruderWidth,0.48
;   extrusionMultiplier,1.06
;   extruderUseRetract,1
;   extruderRetractionDistance,2.8
;   extruderExtraRestartDistance,0
;   extruderRetractionZLift,0
;   extruderRetractionSpeed,6000
;   extruderUseCoasting,1
;   extruderCoastingDistance,0.4
;   extruderUseWipe,0
;   extruderWipeDistance,5
;   primaryExtruder,0
;   layerHeight,0.3
;   topSolidLayers,3
;   bottomSolidLayers,2
;   perimeterOutlines,2
;   printPerimetersInsideOut,0
;   startPointOption,2
;   startPointOriginX,0
;   startPointOriginY,0
;   sequentialIslands,0
;   spiralVaseMode,0
;   firstLayerHeightPercentage,100
;   firstLayerWidthPercentage,100
;   firstLayerUnderspeed,0.6
;   useRaft,0
;   raftExtruder,0
;   raftTopLayers,2
;   raftBaseLayers,2
;   raftOffset,3
;   raftSeparationDistance,0.3
;   raftTopInfill,90
;   aboveRaftSpeedMultiplier,0.3
;   useSkirt,1
;   skirtExtruder,0
;   skirtLayers,1
;   skirtOutlines,5
;   skirtOffset,3
;   usePrimePillar,0
;   primePillarExtruder,999
;   primePillarWidth,12
;   primePillarLocation,7
;   primePillarSpeedMultiplier,1
;   useOozeShield,0
;   oozeShieldExtruder,999
;   oozeShieldOffset,2
;   oozeShieldOutlines,1
;   oozeShieldSidewallShape,1
;   oozeShieldSidewallAngle,30
;   oozeShieldSpeedMultiplier,1
;   infillExtruder,0
;   internalInfillPattern,Triangular
;   externalInfillPattern,Rectilinear
;   infillPercentage,40
;   outlineOverlapPercentage,35
;   infillExtrusionWidthPercentage,100
;   minInfillLength,5
;   infillLayerInterval,1
;   internalInfillAngles,0,60,-60
;   overlapInternalInfillAngles,0
;   externalInfillAngles,45,-45
;   generateSupport,1
;   supportExtruder,0
;   supportInfillPercentage,30
;   supportExtraInflation,0
;   supportBaseLayers,1
;   denseSupportExtruder,0
;   denseSupportLayers,4
;   denseSupportInfillPercentage,90
;   supportLayerInterval,1
;   supportHorizontalPartOffset,0.3
;   supportUpperSeparationLayers,1
;   supportLowerSeparationLayers,1
;   supportType,0
;   supportGridSpacing,2
;   maxOverhangAngle,45
;   supportAngles,0
;   temperatureName,Extruder 1,Heated Bed
;   temperatureNumber,0,1
;   temperatureSetpointCount,1,1
;   temperatureSetpointLayers,1,1
;   temperatureSetpointTemperatures,205,60
;   temperatureStabilizeAtStartup,1,1
;   temperatureHeatedBed,0,1
;   temperatureRelayBetweenLayers,1,0
;   temperatureRelayBetweenLoops,1,0
;   fanLayers,1,3
;   fanSpeeds,0,70
;   blipFanToFullPower,1
;   adjustSpeedForCooling,1
;   minSpeedLayerTime,15
;   minCoolingSpeedSlowdown,20
;   increaseFanForCooling,1
;   minFanLayerTime,45
;   maxCoolingFanSpeed,100
;   increaseFanForBridging,1
;   bridgingFanSpeed,100
;   use5D,1
;   relativeEdistances,0
;   allowEaxisZeroing,1
;   independentExtruderAxes,0
;   includeM10123,0
;   stickySupport,1
;   applyToolheadOffsets,0
;   gcodeXoffset,0
;   gcodeYoffset,0
;   gcodeZoffset,0
;   overrideMachineDefinition,0
;   machineTypeOverride,0
;   strokeXoverride,100
;   strokeYoverride,100
;   strokeZoverride,100
;   originOffsetXoverride,0
;   originOffsetYoverride,0
;   originOffsetZoverride,0
;   homeXdirOverride,-1
;   homeYdirOverride,-1
;   homeZdirOverride,-1
;   flipXoverride,1
;   flipYoverride,-1
;   flipZoverride,1
;   toolheadOffsets,0,0|0,0|0,0|0,0|0,0|0,0
;   overrideFirmwareConfiguration,0
;   firmwareTypeOverride,RepRap (Marlin/Repetier/Sprinter)
;   GPXconfigOverride,r2
;   baudRateOverride,115200
;   overridePrinterModels,0
;   printerModelsOverride
;   startingGcode,;G28  ; Home all,;M208S7; DISABLE THE PROBE,;G1 Z5; probe z clearance,;G1 X0 Y0; ,;M280S3; Enable the probe,;G32; probe the grid,;M374; save the grid,;G1 Z20 ; Set Z20 for ooze
;   layerChangeGcode,
;   retractionGcode,
;   toolChangeGcode,
;   endingGcode,M104 S0 ; turn off extruder,M140 S0 ; turn off bed,G91 G1 Z10 ; Clearance from part,G90 G1 X0 Y0 Z187 ; Go to starting position (X0 Y0 Z 187),M84 ; disable motor,M107; Turn off fan
;   exportFileFormat,gcode
;   celebration,0
;   celebrationSong,Random Song
;   postProcessing,
;   defaultSpeed,7200
;   outlineUnderspeed,0.65
;   solidInfillUnderspeed,0.9
;   supportUnderspeed,0.95
;   rapidXYspeed,9000
;   rapidZspeed,1800
;   minBridgingArea,10
;   bridgingExtraInflation,5
;   bridgingExtrusionMultiplier,0.9
;   bridgingSpeedMultiplier,0.6
;   useFixedBridgingAngle,0
;   fixedBridgingAngle,0
;   applyBridgingToPerimeters,1
;   filamentDiameters,1.75|1.75|1.75|1.75|1.75|1.75
;   filamentPricesPerKg,46|46|46|46|46|46
;   filamentDensities,1.27|1.25|1.25|1.25|1.25|1.25
;   useMinPrintHeight,0
;   minPrintHeight,0
;   useMaxPrintHeight,0
;   maxPrintHeight,0
;   useDiaphragm,0
;   diaphragmLayerInterval,20
;   robustSlicing,1
;   mergeAllIntoSolid,0
;   onlyRetractWhenCrossingOutline,1
;   retractBetweenLayers,0
;   useRetractionMinTravel,0
;   retractionMinTravel,3
;   retractWhileWiping,1
;   onlyWipeOutlines,1
;   avoidCrossingOutline,0
;   maxMovementDetourFactor,3
;   toolChangeRetractionDistance,12
;   toolChangeExtraRestartDistance,-0.5
;   toolChangeRetractionSpeed,600
;   externalThinWallType,1
;   internalThinWallType,1
;   thinWallAllowedOverlapPercentage,10
;   singleExtrusionMinLength,1
;   singleExtrusionMinPrintingWidthPercentage,50
;   singleExtrusionMaxPrintingWidthPercentage,200
;   singleExtrusionEndpointExtension,0.2
;   horizontalSizeCompensation,0
G90
M82
M106 S255
G4 P500
M106 S0
M140 S60
M190 S60
M104 S205 T0
M109 S205 T0
;G28  ; Home all
;M208S7; DISABLE THE PROBE
;G1 Z5; probe z clearance
;G1 X0 Y0; 
;M280S3; Enable the probe
;G32; probe the grid
;M374; save the grid
;G1 Z20 ; Set Z20 for ooze
G92 E0
G1 E-2.8000 F6000
G1 Z0.300 F1800
; process Normal
; layer 1, Z = 0.300
M105
T0
; tool H0.300 W0.480
; skirt
G1 X40.744 Y52.301 F9000
G1 E0.0000 F1800
G92 E0
G1 X57.301 Y35.744 E1.4859 F4320
G1 X58.095 Y35.415 E1.5404
G1 X61.439 Y35.415 E1.7527
G1 X62.233 Y35.744 E1.8072
G1 X88.109 Y61.620 E4.1295
G1 X93.892 Y61.620 E4.4965
G1 X94.686 Y61.949 E4.5510
G1 X97.051 Y64.314 E4.7633
G1 X97.380 Y65.108 E4.8178
G1 X97.380 Y70.891 E5.1848
G1 X129.256 Y102.767 E8.0456
G1 X129.585 Y103.561 E8.1001
G1 X129.585 Y106.905 E8.3123
G1 X129.256 Y107.699 E8.3669
G1 X112.699 Y124.256 E9.8528
G1 X111.905 Y124.585 E9.9073
G1 X108.561 Y124.585 E10.1196
G1 X107.767 Y124.256 E10.1741
G1 X40.744 Y57.233 E16.1891
G1 X40.415 Y56.439 E16.2437
G1 X40.415 Y53.095 E16.4559
G1 X40.591 Y52.670 E16.4851
G1 X40.744 Y52.301 F4320
G1 X41.151 Y52.573 F9000
G92 E0
G1 X57.573 Y36.151 E1.4738 F4320
G1 X58.190 Y35.895 E1.5162
G1 X61.344 Y35.895 E1.7163
G1 X61.961 Y36.151 E1.7587
G1 X87.910 Y62.100 E4.0876
G1 X93.797 Y62.100 E4.4611
G1 X94.414 Y62.356 E4.5035
G1 X96.644 Y64.586 E4.7037
G1 X96.900 Y65.203 E4.7461
G1 X96.900 Y71.090 E5.1197
G1 X128.849 Y103.039 E7.9870
G1 X129.105 Y103.656 E8.0294
G1 X129.105 Y106.810 E8.2295
G1 X128.849 Y107.427 E8.2719
G1 X112.427 Y123.849 E9.7457
G1 X111.810 Y124.105 E9.7881
G1 X108.656 Y124.105 E9.9882
G1 X108.039 Y123.849 E10.0307
G1 X41.151 Y56.961 E16.0336
G1 X40.895 Y56.344 E16.0760
G1 X40.895 Y53.190 E16.2762
G1 X40.998 Y52.942 E16.2932
G1 X41.151 Y52.573 F4320
G1 X41.558 Y52.844 F9000
G92 E0
G1 X57.844 Y36.558 E1.4617 F4320
G1 X58.286 Y36.375 E1.4920
G1 X61.248 Y36.375 E1.6800
G1 X61.689 Y36.558 E1.7103
G1 X87.711 Y62.580 E4.0456
G1 X93.701 Y62.580 E4.4258
G1 X94.142 Y62.763 E4.4561
G1 X96.237 Y64.858 E4.6441
G1 X96.420 Y65.299 E4.6744
G1 X96.420 Y71.289 E5.0545
G1 X128.442 Y103.311 E7.9284
G1 X128.625 Y103.752 E7.9587
G1 X128.625 Y106.714 E8.1467
G1 X128.442 Y107.156 E8.1770
G1 X112.155 Y123.442 E9.6386
G1 X111.714 Y123.625 E9.6689
G1 X108.752 Y123.625 E9.8569
G1 X108.311 Y123.442 E9.8872
G1 X41.558 Y56.689 E15.8781
G1 X41.375 Y56.248 E15.9084
G1 X41.375 Y53.286 E16.0964
G1 X41.405 Y53.214 E16.1013
G1 X41.558 Y52.844 F4320
G1 X41.965 Y53.116 F9000
G92 E0
G1 X58.116 Y36.965 E1.4495 F4320
G1 X58.381 Y36.855 E1.4677
G1 X61.153 Y36.855 E1.6436
G1 X61.417 Y36.965 E1.6618
G1 X87.512 Y63.060 E4.0037
G1 X93.606 Y63.060 E4.3904
G1 X93.871 Y63.170 E4.4086
G1 X95.830 Y65.129 E4.5845
G1 X95.940 Y65.394 E4.6027
G1 X95.940 Y71.488 E4.9894
G1 X128.035 Y103.583 E7.8698
G1 X128.145 Y103.847 E7.8880
G1 X128.145 Y106.619 E8.0639
G1 X128.035 Y106.884 E8.0820
G1 X111.884 Y123.035 E9.5316
G1 X111.619 Y123.145 E9.5498
G1 X108.847 Y123.145 E9.7256
G1 X108.583 Y123.035 E9.7438
G1 X41.965 Y56.417 E15.7225
G1 X41.855 Y56.153 E15.7407
G1 X41.855 Y53.495 E15.9094
G1 X41.855 Y53.381 F4320
G1 X41.965 Y53.116 F4320
G1 X42.372 Y53.388 F9000
G92 E0
G1 X58.388 Y37.372 E1.4374 F4320
G1 X58.477 Y37.335 E1.4435
G1 X61.057 Y37.335 E1.6073
G1 X61.145 Y37.372 E1.6133
G1 X87.314 Y63.540 E3.9618
G1 X93.510 Y63.540 E4.3551
G1 X93.599 Y63.577 E4.3611
G1 X95.423 Y65.401 E4.5249
G1 X95.460 Y65.490 E4.5310
G1 X95.460 Y71.686 E4.9242
G1 X127.628 Y103.855 E7.8112
G1 X127.665 Y103.943 E7.8172
G1 X127.665 Y106.523 E7.9810
G1 X127.628 Y106.612 E7.9871
G1 X111.612 Y122.628 E9.4245
G1 X111.523 Y122.665 E9.4306
G1 X108.943 Y122.665 E9.5943
G1 X108.855 Y122.628 E9.6004
G1 X42.372 Y56.145 E15.5670
G1 X42.335 Y56.057 E15.5730
G1 X42.335 Y53.781 E15.7175
G1 X42.335 Y53.477 F4320
G1 X42.372 Y53.388 F4320
G92 E0
G1 E-2.8000 F6000
; outer perimeter
G1 X45.915 Y54.767 F9000
G1 E0.0000 F6000
G92 E0
G1 X59.767 Y40.915 E1.2432 F2808
G1 X124.085 Y105.233 E7.0155
G1 X110.233 Y119.085 E8.2587
G1 X46.198 Y55.050 E14.0057
G1 X45.915 Y54.767 F2808
; inner perimeter
G1 X46.593 Y54.767 F9000
G92 E0
G1 X59.767 Y41.593 E1.1823 F3564
G1 X123.406 Y105.233 E6.8937
G1 X110.233 Y118.406 E8.0760
G1 X46.876 Y55.050 E13.7620
G1 X46.593 Y54.767 F3564
; outer perimeter
G1 X55.808 Y53.261 F9000
G92 E0
G1 X55.878 Y53.649 E0.0250 F2808
G1 X56.013 Y54.018 E0.0500
G1 X56.211 Y54.359 E0.0750
G1 X56.465 Y54.660 E0.1000
G1 X56.767 Y54.913 E0.1250
G1 X57.108 Y55.109 E0.1500
G1 X57.479 Y55.243 E0.1750
G1 X57.867 Y55.311 E0.2000
G1 X58.261 Y55.310 E0.2250
G1 X58.649 Y55.241 E0.2500
G1 X59.018 Y55.105 E0.2750
G1 X59.359 Y54.908 E0.3000
G1 X59.660 Y54.654 E0.3250
G1 X59.913 Y54.352 E0.3500
G1 X60.109 Y54.010 E0.3750
G1 X60.243 Y53.640 E0.4000
G1 X60.311 Y53.252 E0.4250
G1 X60.310 Y52.858 E0.4500
G1 X60.241 Y52.470 E0.4750
G1 X60.105 Y52.100 E0.5000
G1 X59.908 Y51.759 E0.5250
G1 X59.654 Y51.458 E0.5500
G1 X59.352 Y51.205 E0.5750
G1 X59.010 Y51.009 E0.6000
G1 X58.640 Y50.875 E0.6250
G1 X58.252 Y50.808 E0.6500
G1 X57.858 Y50.808 E0.6750
G1 X57.470 Y50.878 E0.6999
G1 X57.100 Y51.013 E0.7249
G1 X56.759 Y51.211 E0.7499
G1 X56.461 Y51.461 E0.7747
G1 X56.205 Y51.767 E0.8000
G1 X56.009 Y52.108 E0.8249
G1 X55.875 Y52.479 E0.8499
G1 X55.809 Y52.861 E0.8746
G1 X55.808 Y52.867 F2808
G1 X55.808 Y53.261 F2808
; inner perimeter
G1 X55.328 Y53.304 F9000
G92 E0
G1 X55.412 Y53.774 E0.0303 F3564
G1 X55.577 Y54.223 E0.0607
G1 X55.817 Y54.636 E0.0910
G1 X56.125 Y55.002 E0.1213
G1 X56.491 Y55.308 E0.1516
G1 X56.906 Y55.546 E0.1820
G1 X57.355 Y55.709 E0.2123
G1 X57.826 Y55.791 E0.2426
G1 X58.304 Y55.790 E0.2730
G1 X58.774 Y55.706 E0.3033
G1 X59.223 Y55.542 E0.3336
G1 X59.636 Y55.302 E0.3639
G1 X60.002 Y54.994 E0.3943
G1 X60.308 Y54.627 E0.4246
G1 X60.546 Y54.213 E0.4549
G1 X60.709 Y53.763 E0.4853
G1 X60.791 Y53.293 E0.5156
G1 X60.790 Y52.815 E0.5459
G1 X60.706 Y52.344 E0.5762
G1 X60.542 Y51.895 E0.6066
G1 X60.302 Y51.482 E0.6369
G1 X59.994 Y51.117 E0.6672
G1 X59.627 Y50.810 E0.6976
G1 X59.213 Y50.572 E0.7279
G1 X58.764 Y50.409 E0.7582
G1 X58.293 Y50.327 E0.7885
G1 X57.815 Y50.328 E0.8189
G1 X57.344 Y50.412 E0.8492
G1 X56.895 Y50.577 E0.8795
G1 X56.483 Y50.816 E0.9098
G1 X56.120 Y51.121 E0.9399
G1 X55.810 Y51.491 E0.9705
G1 X55.572 Y51.906 E1.0008
G1 X55.409 Y52.355 E1.0312
G1 X55.327 Y52.826 E1.0615
G1 X55.328 Y52.904 E1.0664
G1 X55.328 Y53.304 F3564
G92 E0
G1 E-2.8000 F6000
; outer perimeter
G1 X83.399 Y78.405 F9000
G1 E0.0000 F6000
G92 E0
G1 X83.146 Y78.708 E0.0250 F2808
G1 X82.950 Y79.049 E0.0500
G1 X82.816 Y79.420 E0.0750
G1 X82.748 Y79.808 E0.1000
G1 X82.749 Y80.202 E0.1250
G1 X82.818 Y80.589 E0.1500
G1 X82.954 Y80.959 E0.1750
G1 X83.152 Y81.300 E0.2000
G1 X83.405 Y81.601 E0.2250
G1 X83.708 Y81.854 E0.2500
G1 X84.049 Y82.050 E0.2750
G1 X84.420 Y82.184 E0.3000
G1 X84.808 Y82.252 E0.3250
G1 X85.202 Y82.251 E0.3500
G1 X85.589 Y82.182 E0.3750
G1 X85.959 Y82.046 E0.4000
G1 X86.300 Y81.849 E0.4250
G1 X86.601 Y81.595 E0.4500
G1 X86.854 Y81.292 E0.4750
G1 X87.050 Y80.951 E0.5000
G1 X87.184 Y80.580 E0.5250
G1 X87.252 Y80.192 E0.5500
G1 X87.251 Y79.798 E0.5750
G1 X87.182 Y79.411 E0.6000
G1 X87.046 Y79.041 E0.6250
G1 X86.849 Y78.700 E0.6500
G1 X86.595 Y78.399 E0.6750
G1 X86.292 Y78.146 E0.7000
G1 X85.951 Y77.950 E0.7249
G1 X85.581 Y77.816 E0.7499
G1 X85.197 Y77.748 E0.7747
G1 X84.798 Y77.749 E0.8000
G1 X84.411 Y77.818 E0.8249
G1 X84.041 Y77.954 E0.8499
G1 X83.705 Y78.148 E0.8746
G1 X83.700 Y78.152 F2808
G1 X83.399 Y78.405 F2808
; inner perimeter
G1 X83.057 Y78.065 F9000
G92 E0
G1 X82.751 Y78.432 E0.0303 F3564
G1 X82.513 Y78.846 E0.0607
G1 X82.350 Y79.296 E0.0910
G1 X82.268 Y79.767 E0.1213
G1 X82.269 Y80.245 E0.1516
G1 X82.353 Y80.715 E0.1820
G1 X82.518 Y81.164 E0.2123
G1 X82.757 Y81.577 E0.2426
G1 X83.065 Y81.943 E0.2730
G1 X83.432 Y82.249 E0.3033
G1 X83.846 Y82.487 E0.3336
G1 X84.296 Y82.650 E0.3639
G1 X84.767 Y82.732 E0.3943
G1 X85.245 Y82.731 E0.4246
G1 X85.715 Y82.647 E0.4549
G1 X86.164 Y82.482 E0.4852
G1 X86.577 Y82.243 E0.5156
G1 X86.943 Y81.935 E0.5459
G1 X87.249 Y81.568 E0.5762
G1 X87.487 Y81.154 E0.6066
G1 X87.650 Y80.704 E0.6369
G1 X87.732 Y80.233 E0.6672
G1 X87.731 Y79.755 E0.6976
G1 X87.647 Y79.285 E0.7279
G1 X87.482 Y78.836 E0.7582
G1 X87.243 Y78.423 E0.7885
G1 X86.935 Y78.057 E0.8189
G1 X86.568 Y77.751 E0.8492
G1 X86.154 Y77.513 E0.8795
G1 X85.705 Y77.351 E0.9098
G1 X85.238 Y77.268 E0.9399
G1 X84.755 Y77.269 E0.9705
G1 X84.285 Y77.353 E1.0008
G1 X83.836 Y77.518 E1.0312
G1 X83.423 Y77.757 E1.0615
G1 X83.363 Y77.808 E1.0664
G1 X83.057 Y78.065 F3564
G92 E0
G1 E-2.8000 F6000
; outer perimeter
G1 X110.340 Y105.346 F9000
G1 E0.0000 F6000
G92 E0
G1 X110.089 Y105.645 E0.0247 F2808
G1 X109.891 Y105.990 E0.0500
G1 X109.757 Y106.360 E0.0750
G1 X109.689 Y106.748 E0.1000
G1 X109.690 Y107.142 E0.1250
G1 X109.759 Y107.530 E0.1500
G1 X109.895 Y107.900 E0.1750
G1 X110.092 Y108.241 E0.2000
G1 X110.346 Y108.542 E0.2250
G1 X110.648 Y108.795 E0.2500
G1 X110.990 Y108.991 E0.2750
G1 X111.360 Y109.125 E0.3000
G1 X111.748 Y109.192 E0.3250
G1 X112.142 Y109.192 E0.3500
G1 X112.530 Y109.122 E0.3750
G1 X112.900 Y108.987 E0.4000
G1 X113.241 Y108.789 E0.4250
G1 X113.542 Y108.535 E0.4500
G1 X113.795 Y108.233 E0.4750
G1 X113.991 Y107.892 E0.5000
G1 X114.125 Y107.521 E0.5250
G1 X114.192 Y107.133 E0.5500
G1 X114.192 Y106.739 E0.5750
G1 X114.122 Y106.351 E0.6000
G1 X113.987 Y105.981 E0.6250
G1 X113.789 Y105.641 E0.6500
G1 X113.535 Y105.340 E0.6750
G1 X113.233 Y105.087 E0.7000
G1 X112.892 Y104.891 E0.7250
G1 X112.521 Y104.757 E0.7500
G1 X112.133 Y104.689 E0.7750
G1 X111.739 Y104.690 E0.8000
G1 X111.351 Y104.759 E0.8250
G1 X110.982 Y104.895 E0.8500
G1 X110.646 Y105.089 E0.8746
G1 X110.641 Y105.092 F2808
G1 X110.340 Y105.346 F2808
; inner perimeter
G1 X109.999 Y105.006 F9000
G92 E0
G1 X109.694 Y105.369 E0.0301 F3564
G1 X109.454 Y105.787 E0.0607
G1 X109.291 Y106.237 E0.0910
G1 X109.209 Y106.707 E0.1214
G1 X109.210 Y107.185 E0.1517
G1 X109.294 Y107.656 E0.1820
G1 X109.458 Y108.105 E0.2124
G1 X109.698 Y108.518 E0.2427
G1 X110.006 Y108.883 E0.2730
G1 X110.373 Y109.190 E0.3033
G1 X110.787 Y109.428 E0.3337
G1 X111.236 Y109.591 E0.3640
G1 X111.707 Y109.673 E0.3943
G1 X112.185 Y109.672 E0.4246
G1 X112.656 Y109.588 E0.4550
G1 X113.104 Y109.423 E0.4853
G1 X113.518 Y109.183 E0.5156
G1 X113.883 Y108.875 E0.5460
G1 X114.190 Y108.509 E0.5763
G1 X114.428 Y108.094 E0.6066
