; G-Code generated by Simplify3D(R) Version 4.0.0
; Jul 21, 2018 at 3:17:55 PM
; Settings Summary
;   processName,Process1
;   applyToModels,Focuser
;   profileName,BortBot (modified)
;   profileVersion,2018-03-11 18:52:45
;   baseProfile,Default
;   printMaterial,PLA
;   printQuality,Medium
;   printExtruders,
;   extruderName,Extruder 1
;   extruderToolheadNumber,0
;   extruderDiameter,0.5
;   extruderAutoWidth,0
;   extruderWidth,0.6
;   extrusionMultiplier,1.03
;   extruderUseRetract,1
;   extruderRetractionDistance,1.4
;   extruderExtraRestartDistance,0
;   extruderRetractionZLift,0
;   extruderRetractionSpeed,6000
;   extruderUseCoasting,1
;   extruderCoastingDistance,1.2
;   extruderUseWipe,1
;   extruderWipeDistance,4.4
;   primaryExtruder,0
;   layerHeight,0.2
;   topSolidLayers,3
;   bottomSolidLayers,3
;   perimeterOutlines,4
;   printPerimetersInsideOut,0
;   startPointOption,2
;   startPointOriginX,0
;   startPointOriginY,0
;   sequentialIslands,0
;   spiralVaseMode,0
;   firstLayerHeightPercentage,100
;   firstLayerWidthPercentage,100
;   firstLayerUnderspeed,0.75
;   useRaft,0
;   raftExtruder,0
;   raftTopLayers,2
;   raftBaseLayers,2
;   raftOffset,3
;   raftSeparationDistance,0.3
;   raftTopInfill,90
;   aboveRaftSpeedMultiplier,0.3
;   useSkirt,1
;   skirtExtruder,0
;   skirtLayers,1
;   skirtOutlines,2
;   skirtOffset,3
;   usePrimePillar,0
;   primePillarExtruder,999
;   primePillarWidth,12
;   primePillarLocation,7
;   primePillarSpeedMultiplier,1
;   useOozeShield,0
;   oozeShieldExtruder,999
;   oozeShieldOffset,2
;   oozeShieldOutlines,1
;   oozeShieldSidewallShape,1
;   oozeShieldSidewallAngle,30
;   oozeShieldSpeedMultiplier,1
;   infillExtruder,0
;   internalInfillPattern,Rectilinear
;   externalInfillPattern,Rectilinear
;   infillPercentage,40
;   outlineOverlapPercentage,35
;   infillExtrusionWidthPercentage,90
;   minInfillLength,5
;   infillLayerInterval,2
;   internalInfillAngles,45,-45
;   overlapInternalInfillAngles,0
;   externalInfillAngles,45,-45
;   generateSupport,0
;   supportExtruder,0
;   supportInfillPercentage,30
;   supportExtraInflation,0
;   supportBaseLayers,1
;   denseSupportExtruder,0
;   denseSupportLayers,4
;   denseSupportInfillPercentage,90
;   supportLayerInterval,2
;   supportHorizontalPartOffset,0.4
;   supportUpperSeparationLayers,1
;   supportLowerSeparationLayers,2
;   supportType,0
;   supportGridSpacing,1
;   maxOverhangAngle,46
;   supportAngles,30
;   temperatureName,Extruder 1,Heated Bed
;   temperatureNumber,0,1
;   temperatureSetpointCount,1,1
;   temperatureSetpointLayers,1,1
;   temperatureSetpointTemperatures,245,60
;   temperatureStabilizeAtStartup,1,1
;   temperatureHeatedBed,0,1
;   temperatureRelayBetweenLayers,1,0
;   temperatureRelayBetweenLoops,1,0
;   fanLayers,1,3
;   fanSpeeds,0,40
;   blipFanToFullPower,0
;   adjustSpeedForCooling,1
;   minSpeedLayerTime,15
;   minCoolingSpeedSlowdown,20
;   increaseFanForCooling,1
;   minFanLayerTime,45
;   maxCoolingFanSpeed,100
;   increaseFanForBridging,1
;   bridgingFanSpeed,100
;   use5D,1
;   relativeEdistances,0
;   allowEaxisZeroing,1
;   independentExtruderAxes,0
;   includeM10123,0
;   stickySupport,1
;   applyToolheadOffsets,0
;   gcodeXoffset,0
;   gcodeYoffset,0
;   gcodeZoffset,0
;   overrideMachineDefinition,0
;   machineTypeOverride,0
;   strokeXoverride,100
;   strokeYoverride,100
;   strokeZoverride,100
;   originOffsetXoverride,0
;   originOffsetYoverride,0
;   originOffsetZoverride,0
;   homeXdirOverride,-1
;   homeYdirOverride,-1
;   homeZdirOverride,-1
;   flipXoverride,1
;   flipYoverride,-1
;   flipZoverride,1
;   toolheadOffsets,0,0|0,0|0,0|0,0|0,0|0,0
;   overrideFirmwareConfiguration,0
;   firmwareTypeOverride,RepRap (Marlin/Repetier/Sprinter)
;   GPXconfigOverride,r2
;   baudRateOverride,115200
;   overridePrinterModels,0
;   printerModelsOverride
;   startingGcode,;G28  ; Home all,;M208S7; DISABLE THE PROBE,;G1 Z5; probe z clearance,;G1 X0 Y0; ,;M280S3; Enable the probe,;G32; probe the grid,;M374; save the grid,;G1 Z20 ; Set Z20 for ooze
;   layerChangeGcode,
;   retractionGcode,
;   toolChangeGcode,
;   endingGcode,G10 S2.5; retract filament to relieve pressure,M104 S0 ; turn off extruder,M140 S0 ; turn off bed,G91 G1 Z10 ; Clearance from part,G90 G1 X0 Y0 Z170 ; Go to starting position (X0 Y0 Z 170),;M84 ; disable motor,M107; Turn off fan
;   exportFileFormat,gcode
;   celebration,0
;   celebrationSong,Random Song
;   postProcessing,
;   defaultSpeed,2400
;   outlineUnderspeed,0.8
;   solidInfillUnderspeed,1
;   supportUnderspeed,1
;   rapidXYspeed,9000
;   rapidZspeed,1800
;   minBridgingArea,10
;   bridgingExtraInflation,5
;   bridgingExtrusionMultiplier,0.9
;   bridgingSpeedMultiplier,0.6
;   useFixedBridgingAngle,0
;   fixedBridgingAngle,0
;   applyBridgingToPerimeters,1
;   filamentDiameters,1.75|1.75|1.75|1.75|1.75|1.75
;   filamentPricesPerKg,12|46|46|46|46|46
;   filamentDensities,1.33|1.25|1.25|1.25|1.25|1.25
;   useMinPrintHeight,0
;   minPrintHeight,0
;   useMaxPrintHeight,0
;   maxPrintHeight,2.75
;   useDiaphragm,0
;   diaphragmLayerInterval,20
;   robustSlicing,1
;   mergeAllIntoSolid,0
;   onlyRetractWhenCrossingOutline,1
;   retractBetweenLayers,0
;   useRetractionMinTravel,0
;   retractionMinTravel,3
;   retractWhileWiping,1
;   onlyWipeOutlines,1
;   avoidCrossingOutline,0
;   maxMovementDetourFactor,3
;   toolChangeRetractionDistance,12
;   toolChangeExtraRestartDistance,-0.5
;   toolChangeRetractionSpeed,600
;   externalThinWallType,1
;   internalThinWallType,1
;   thinWallAllowedOverlapPercentage,10
;   singleExtrusionMinLength,1
;   singleExtrusionMinPrintingWidthPercentage,50
;   singleExtrusionMaxPrintingWidthPercentage,200
;   singleExtrusionEndpointExtension,0.2
;   horizontalSizeCompensation,0
G90
M82
M106 S0
M140 S60
M190 S60
M104 S245 T0
M109 S245 T0
;G28  ; Home all
;M208S7; DISABLE THE PROBE
;G1 Z5; probe z clearance
;G1 X0 Y0; 
;M280S3; Enable the probe
;G32; probe the grid
;M374; save the grid
;G1 Z20 ; Set Z20 for ooze
G92 E0
G1 E-1.4000 F6000
G1 Z0.200 F1800
; process Process1
; layer 1, Z = 0.200
M105
T0
; tool H0.200 W0.600
; skirt
G1 X47.423 Y47.566 F9000
G1 E0.0000 F1800
G92 E0
G1 X50.734 Y44.083 E0.2470 F1800
G1 X50.750 Y44.067 E0.2481
G1 X50.877 Y43.946 E0.2571
G1 X50.894 Y43.931 E0.2583
G1 X54.540 Y40.800 E0.5053
G1 X54.558 Y40.786 E0.5064
G1 X54.696 Y40.679 E0.5154
G1 X54.715 Y40.665 E0.5166
G1 X58.660 Y37.920 E0.7636
G1 X58.679 Y37.907 E0.7648
G1 X58.827 Y37.815 E0.7737
G1 X58.847 Y37.803 E0.7749
G1 X63.049 Y35.471 E1.0219
G1 X63.069 Y35.460 E1.0231
G1 X63.226 Y35.383 E1.0320
G1 X63.247 Y35.374 E1.0332
G1 X67.664 Y33.478 E1.2802
G1 X67.685 Y33.470 E1.2814
G1 X67.849 Y33.409 E1.2903
G1 X67.870 Y33.402 E1.2915
G1 X72.456 Y31.963 E1.5385
G1 X72.478 Y31.957 E1.5397
G1 X72.647 Y31.913 E1.5487
G1 X72.669 Y31.908 E1.5498
G1 X77.377 Y30.940 E1.7968
G1 X77.400 Y30.936 E1.7980
G1 X77.573 Y30.910 E1.8070
G1 X77.595 Y30.907 E1.8081
G1 X82.377 Y30.421 E2.0551
G1 X82.399 Y30.419 E2.0563
G1 X82.574 Y30.410 E2.0653
G1 X82.597 Y30.409 E2.0664
G1 X87.403 Y30.409 E2.3134
G1 X87.426 Y30.410 E2.3146
G1 X87.601 Y30.419 E2.3236
G1 X87.623 Y30.421 E2.3247
G1 X92.405 Y30.907 E2.5717
G1 X92.427 Y30.910 E2.5729
G1 X92.600 Y30.936 E2.5819
G1 X92.623 Y30.940 E2.5830
G1 X97.331 Y31.908 E2.8300
G1 X97.353 Y31.913 E2.8312
G1 X97.522 Y31.957 E2.8402
G1 X97.544 Y31.963 E2.8413
G1 X102.130 Y33.402 E3.0883
G1 X102.151 Y33.409 E3.0895
G1 X102.315 Y33.470 E3.0985
G1 X102.336 Y33.478 E3.0997
G1 X106.753 Y35.374 E3.3466
G1 X106.774 Y35.383 E3.3478
G1 X106.931 Y35.460 E3.3568
G1 X106.951 Y35.471 E3.3580
G1 X111.153 Y37.803 E3.6049
G1 X111.173 Y37.815 E3.6061
G1 X111.321 Y37.907 E3.6151
G1 X111.340 Y37.920 E3.6163
G1 X115.285 Y40.665 E3.8632
G1 X115.304 Y40.679 E3.8644
G1 X115.442 Y40.786 E3.8734
G1 X115.460 Y40.800 E3.8746
G1 X119.106 Y43.931 E4.1215
G1 X119.123 Y43.946 E4.1227
G1 X119.250 Y44.067 E4.1317
G1 X119.266 Y44.083 E4.1329
G1 X122.578 Y47.566 E4.3799
G1 X122.593 Y47.583 E4.3810
G1 X122.707 Y47.717 E4.3900
G1 X122.722 Y47.734 E4.3912
G1 X125.676 Y51.554 E4.6394
G1 X125.690 Y51.572 E4.6405
G1 X125.790 Y51.716 E4.6495
G1 X125.802 Y51.735 E4.6507
G1 X128.331 Y55.794 E4.8965
G1 X128.343 Y55.814 E4.8977
G1 X128.428 Y55.967 E4.9066
G1 X128.438 Y55.987 E4.9078
G1 X130.555 Y60.302 E5.1548
G1 X130.564 Y60.322 E5.1559
G1 X130.633 Y60.483 E5.1649
G1 X130.642 Y60.504 E5.1661
G1 X132.311 Y65.011 E5.4131
G1 X132.318 Y65.033 E5.4142
G1 X132.371 Y65.200 E5.4232
G1 X132.377 Y65.222 E5.4244
G1 X133.582 Y69.874 E5.6714
G1 X133.587 Y69.897 E5.6725
G1 X133.622 Y70.068 E5.6815
G1 X133.626 Y70.090 E5.6827
G1 X134.354 Y74.842 E5.9297
G1 X134.357 Y74.864 E5.9309
G1 X134.374 Y75.038 E5.9399
G1 X134.376 Y75.061 E5.9410
G1 X134.617 Y79.817 E6.1857
G1 X134.618 Y79.828 E6.1863
G1 X134.620 Y79.915 E6.1908
G1 X134.620 Y79.927 E6.1914
G1 X134.620 Y127.112 E8.6161
G1 X134.483 Y127.443 E8.6345
G1 X132.472 Y129.454 E8.7806
G1 X132.142 Y129.591 E8.7990
G1 X37.858 Y129.591 E13.6439
G1 X37.528 Y129.454 E13.6623
G1 X35.517 Y127.443 E13.8084
G1 X35.380 Y127.112 E13.8268
G1 X35.380 Y79.927 E16.2516
G1 X35.380 Y79.915 E16.2521
G1 X35.382 Y79.828 E16.2566
G1 X35.383 Y79.817 E16.2572
G1 X35.624 Y75.061 E16.5019
G1 X35.626 Y75.038 E16.5031
G1 X35.643 Y74.864 E16.5121
G1 X35.646 Y74.842 E16.5133
G1 X36.374 Y70.090 E16.7602
G1 X36.378 Y70.068 E16.7614
G1 X36.413 Y69.897 E16.7704
G1 X36.418 Y69.875 E16.7716
G1 X37.623 Y65.222 E17.0186
G1 X37.629 Y65.200 E17.0197
G1 X37.682 Y65.033 E17.0287
G1 X37.689 Y65.011 E17.0299
G1 X39.358 Y60.504 E17.2769
G1 X39.367 Y60.483 E17.2780
G1 X39.436 Y60.322 E17.2871
G1 X39.446 Y60.301 E17.2882
G1 X41.574 Y55.964 E17.5365
G1 X41.585 Y55.944 E17.5376
G1 X41.670 Y55.791 E17.5466
G1 X41.681 Y55.772 E17.5478
G1 X44.212 Y51.715 E17.7935
G1 X44.224 Y51.696 E17.7947
G1 X44.324 Y51.552 E17.8036
G1 X44.337 Y51.534 E17.8048
G1 X46.679 Y48.508 E18.0014
G1 X47.279 Y47.734 F1800
G1 X47.293 Y47.716 F1800
G1 X47.407 Y47.583 F1800
G1 X47.423 Y47.566 F1800
G1 X47.863 Y47.974 F9000
G92 E0
G1 X51.164 Y44.502 E0.2462 F1800
G1 X51.169 Y44.496 E0.2466
G1 X51.285 Y44.386 E0.2548
G1 X51.290 Y44.381 E0.2552
G1 X54.926 Y41.260 E0.5014
G1 X54.931 Y41.256 E0.5018
G1 X55.058 Y41.158 E0.5100
G1 X55.064 Y41.153 E0.5104
G1 X58.996 Y38.417 E0.7566
G1 X59.002 Y38.412 E0.7569
G1 X59.138 Y38.328 E0.7651
G1 X59.144 Y38.324 E0.7655
G1 X63.333 Y35.999 E1.0117
G1 X63.340 Y35.995 E1.0121
G1 X63.484 Y35.925 E1.0203
G1 X63.490 Y35.922 E1.0207
G1 X67.893 Y34.033 E1.2669
G1 X67.900 Y34.030 E1.2673
G1 X68.050 Y33.974 E1.2755
G1 X68.057 Y33.972 E1.2759
G1 X72.628 Y32.538 E1.5221
G1 X72.636 Y32.535 E1.5225
G1 X72.790 Y32.495 E1.5307
G1 X72.798 Y32.494 E1.5311
G1 X77.491 Y31.529 E1.7773
G1 X77.498 Y31.528 E1.7777
G1 X77.656 Y31.504 E1.7859
G1 X77.663 Y31.503 E1.7863
G1 X82.430 Y31.018 E2.0325
G1 X82.437 Y31.018 E2.0328
G1 X82.597 Y31.010 E2.0410
G1 X82.605 Y31.009 E2.0414
G1 X87.395 Y31.009 E2.2876
G1 X87.403 Y31.010 E2.2880
G1 X87.563 Y31.018 E2.2962
G1 X87.570 Y31.018 E2.2966
G1 X92.337 Y31.503 E2.5428
G1 X92.344 Y31.504 E2.5432
G1 X92.502 Y31.528 E2.5514
G1 X92.509 Y31.529 E2.5518
G1 X97.202 Y32.494 E2.7980
G1 X97.210 Y32.495 E2.7984
G1 X97.364 Y32.535 E2.8066
G1 X97.372 Y32.538 E2.8070
G1 X101.943 Y33.972 E3.0532
G1 X101.950 Y33.974 E3.0536
G1 X102.100 Y34.030 E3.0618
G1 X102.107 Y34.033 E3.0622
G1 X106.510 Y35.922 E3.3084
G1 X106.516 Y35.925 E3.3087
G1 X106.660 Y35.995 E3.3169
G1 X106.666 Y35.999 E3.3173
G1 X110.856 Y38.324 E3.5635
G1 X110.862 Y38.328 E3.5639
G1 X110.998 Y38.412 E3.5721
G1 X111.004 Y38.417 E3.5725
G1 X114.936 Y41.153 E3.8187
G1 X114.942 Y41.158 E3.8191
G1 X115.069 Y41.256 E3.8273
G1 X115.074 Y41.260 E3.8277
G1 X118.710 Y44.381 E4.0739
G1 X118.715 Y44.386 E4.0743
G1 X118.831 Y44.496 E4.0825
G1 X118.836 Y44.502 E4.0829
G1 X122.137 Y47.974 E4.3291
G1 X122.142 Y47.980 E4.3295
G1 X122.247 Y48.101 E4.3377
G1 X122.252 Y48.107 E4.3381
G1 X125.197 Y51.915 E4.5855
G1 X125.202 Y51.921 E4.5859
G1 X125.293 Y52.052 E4.5940
G1 X125.297 Y52.058 E4.5944
G1 X127.818 Y56.105 E4.8395
G1 X127.822 Y56.112 E4.8398
G1 X127.899 Y56.251 E4.8480
G1 X127.903 Y56.258 E4.8484
G1 X130.013 Y60.559 E5.0946
G1 X130.016 Y60.566 E5.0950
G1 X130.079 Y60.713 E5.1032
G1 X130.082 Y60.720 E5.1036
G1 X131.746 Y65.212 E5.3498
G1 X131.748 Y65.220 E5.3502
G1 X131.796 Y65.372 E5.3584
G1 X131.798 Y65.379 E5.3588
G1 X132.999 Y70.018 E5.6050
G1 X133.000 Y70.025 E5.6054
G1 X133.033 Y70.181 E5.6136
G1 X133.034 Y70.189 E5.6140
G1 X133.759 Y74.925 E5.8602
G1 X133.760 Y74.932 E5.8606
G1 X133.777 Y75.091 E5.8688
G1 X133.777 Y75.099 E5.8692
G1 X134.018 Y79.843 E6.1133
G1 X134.018 Y79.847 E6.1135
G1 X134.020 Y79.927 E6.1176
G1 X134.020 Y79.931 E6.1178
G1 X134.020 Y126.993 E8.5361
G1 X133.974 Y127.103 E8.5423
G1 X132.133 Y128.945 E8.6761
G1 X132.022 Y128.991 E8.6823
G1 X37.978 Y128.991 E13.5149
G1 X37.867 Y128.945 E13.5211
G1 X36.026 Y127.103 E13.6549
G1 X35.980 Y126.993 E13.6610
G1 X35.980 Y79.931 E16.0794
G1 X35.980 Y79.927 E16.0796
G1 X35.982 Y79.847 E16.0837
G1 X35.982 Y79.843 E16.0839
G1 X36.223 Y75.099 E16.3280
G1 X36.223 Y75.091 E16.3284
G1 X36.240 Y74.932 E16.3366
G1 X36.241 Y74.925 E16.3370
G1 X36.966 Y70.189 E16.5832
G1 X36.967 Y70.181 E16.5836
G1 X36.999 Y70.025 E16.5918
G1 X37.001 Y70.018 E16.5922
G1 X38.202 Y65.379 E16.8384
G1 X38.204 Y65.372 E16.8388
G1 X38.252 Y65.220 E16.8470
G1 X38.254 Y65.212 E16.8474
G1 X39.918 Y60.720 E17.0936
G1 X39.921 Y60.713 E17.0940
G1 X39.984 Y60.565 E17.1022
G1 X39.988 Y60.559 E17.1026
G1 X42.110 Y56.236 E17.3501
G1 X42.113 Y56.229 E17.3505
G1 X42.191 Y56.089 E17.3587
G1 X42.195 Y56.083 E17.3590
G1 X44.717 Y52.038 E17.6040
G1 X44.721 Y52.032 E17.6044
G1 X44.812 Y51.901 E17.6125
G1 X44.816 Y51.895 E17.6129
G1 X47.121 Y48.917 E17.8064
G1 X47.749 Y48.107 F1800
G1 X47.754 Y48.101 F1800
G1 X47.858 Y47.980 F1800
G1 X47.863 Y47.974 F1800
G92 E0
G1 E-1.4000 F6000
; outer perimeter
G1 X50.537 Y50.386 F9000
G1 E0.0000 F6000
G92 E0
G1 X53.707 Y47.051 E0.2364 F1440
G1 X57.198 Y44.054 E0.4729
G1 X60.975 Y41.426 E0.7093
G1 X64.997 Y39.193 E0.9457
G1 X69.226 Y37.378 E1.1821
G1 X73.616 Y36.001 E1.4186
G1 X78.122 Y35.075 E1.6550
G1 X82.700 Y34.609 E1.8914
G1 X87.300 Y34.609 E2.1278
G1 X91.878 Y35.075 E2.3643
G1 X96.384 Y36.001 E2.6007
G1 X100.774 Y37.378 E2.8371
G1 X105.003 Y39.193 E3.0736
G1 X109.025 Y41.426 E3.3100
G1 X112.802 Y44.054 E3.5464
G1 X116.293 Y47.051 E3.7828
G1 X119.462 Y50.386 E4.0193
G1 X122.292 Y54.043 E4.2569
G1 X124.712 Y57.928 E4.4921
G1 X126.739 Y62.059 E4.7286
G1 X128.337 Y66.374 E4.9650
G1 X129.490 Y70.828 E5.2014
G1 X130.187 Y75.376 E5.4379
G1 X130.420 Y79.978 E5.6747
G1 X130.420 Y125.391 E8.0083
G1 X39.580 Y125.391 E12.6762
G1 X39.580 Y79.978 E15.0098
G1 X39.813 Y75.376 E15.2466
G1 X40.510 Y70.828 E15.4831
G1 X41.663 Y66.374 E15.7195
G1 X43.261 Y62.059 E15.9559
G1 X45.299 Y57.907 E16.1936
G1 X47.721 Y54.024 E16.4288
G1 X49.803 Y51.335 E16.6036
G1 X50.537 Y50.386 F1440
G1 X53.569 Y47.197 F2400
; inner perimeter
G1 X54.121 Y47.486 F9000
G92 E0
G1 X57.566 Y44.529 E0.2333 F1620
G1 X61.292 Y41.935 E0.4666
G1 X65.262 Y39.732 E0.6999
G1 X69.434 Y37.942 E0.9332
G1 X73.766 Y36.583 E1.1665
G1 X78.213 Y35.669 E1.3998
G1 X82.730 Y35.209 E1.6331
G1 X87.270 Y35.209 E1.8664
G1 X91.787 Y35.669 E2.0997
G1 X96.234 Y36.583 E2.3330
G1 X100.566 Y37.942 E2.5663
G1 X104.738 Y39.732 E2.7996
G1 X108.708 Y41.935 E3.0329
G1 X112.434 Y44.529 E3.2662
G1 X115.879 Y47.486 E3.4995
G1 X119.007 Y50.777 E3.7328
G1 X121.798 Y54.386 E3.9673
G1 X124.187 Y58.220 E4.1994
G1 X126.187 Y62.296 E4.4327
G1 X127.763 Y66.554 E4.6660
G1 X128.901 Y70.949 E4.8993
G1 X129.589 Y75.437 E5.1326
G1 X129.820 Y79.993 E5.3671
G1 X129.820 Y124.791 E7.6691
G1 X40.180 Y124.791 E12.2754
G1 X40.180 Y79.993 E14.5774
G1 X40.411 Y75.437 E14.8118
G1 X41.099 Y70.949 E15.0451
G1 X42.237 Y66.554 E15.2784
G1 X43.813 Y62.296 E15.5117
G1 X45.825 Y58.199 E15.7463
G1 X48.214 Y54.367 E15.9783
G1 X50.993 Y50.777 E16.2117
G1 X53.295 Y48.356 E16.3833
G1 X54.121 Y47.486 F1620
G1 X54.535 Y47.922 F9000
G92 E0
G1 X57.934 Y45.004 E0.2302 F1620
