; G-Code generated by Simplify3D(R) Version 4.0.0
; Mar 1, 2018 at 8:22:08 PM
; Settings Summary
;   processName,Basic 
;   applyToModels,gantry holder 3,hotend mount 2
;   profileName,BortBot (modified)
;   profileVersion,2017-10-07 14:50:40
;   baseProfile,Default
;   printMaterial,PLA
;   printQuality,Medium
;   printExtruders,
;   extruderName,Extruder 1
;   extruderToolheadNumber,0
;   extruderDiameter,0.4
;   extruderAutoWidth,1
;   extruderWidth,0.48
;   extrusionMultiplier,1.06
;   extruderUseRetract,1
;   extruderRetractionDistance,2.8
;   extruderExtraRestartDistance,0.4
;   extruderRetractionZLift,0
;   extruderRetractionSpeed,6000
;   extruderUseCoasting,1
;   extruderCoastingDistance,0.2
;   extruderUseWipe,1
;   extruderWipeDistance,5
;   primaryExtruder,0
;   layerHeight,0.25
;   topSolidLayers,2
;   bottomSolidLayers,2
;   perimeterOutlines,2
;   printPerimetersInsideOut,0
;   startPointOption,1
;   startPointOriginX,0
;   startPointOriginY,0
;   sequentialIslands,0
;   spiralVaseMode,0
;   firstLayerHeightPercentage,100
;   firstLayerWidthPercentage,100
;   firstLayerUnderspeed,0.4
;   useRaft,0
;   raftExtruder,0
;   raftTopLayers,2
;   raftBaseLayers,2
;   raftOffset,3
;   raftSeparationDistance,0.3
;   raftTopInfill,90
;   aboveRaftSpeedMultiplier,0.3
;   useSkirt,1
;   skirtExtruder,0
;   skirtLayers,1
;   skirtOutlines,2
;   skirtOffset,3.6
;   usePrimePillar,0
;   primePillarExtruder,999
;   primePillarWidth,12
;   primePillarLocation,7
;   primePillarSpeedMultiplier,1
;   useOozeShield,0
;   oozeShieldExtruder,999
;   oozeShieldOffset,2
;   oozeShieldOutlines,1
;   oozeShieldSidewallShape,1
;   oozeShieldSidewallAngle,30
;   oozeShieldSpeedMultiplier,1
;   infillExtruder,0
;   internalInfillPattern,Fast Honeycomb
;   externalInfillPattern,Concentric
;   infillPercentage,19
;   outlineOverlapPercentage,35
;   infillExtrusionWidthPercentage,100
;   minInfillLength,5
;   infillLayerInterval,1
;   internalInfillAngles,0
;   overlapInternalInfillAngles,0
;   externalInfillAngles,45,-45
;   generateSupport,1
;   supportExtruder,0
;   supportInfillPercentage,30
;   supportExtraInflation,0
;   supportBaseLayers,0
;   denseSupportExtruder,0
;   denseSupportLayers,0
;   denseSupportInfillPercentage,70
;   supportLayerInterval,1
;   supportHorizontalPartOffset,0.3
;   supportUpperSeparationLayers,1
;   supportLowerSeparationLayers,1
;   supportType,0
;   supportGridSpacing,4
;   maxOverhangAngle,45
;   supportAngles,0
;   temperatureName,Extruder 1
;   temperatureNumber,0
;   temperatureSetpointCount,1
;   temperatureSetpointLayers,1
;   temperatureSetpointTemperatures,200
;   temperatureStabilizeAtStartup,1
;   temperatureHeatedBed,0
;   temperatureRelayBetweenLayers,1
;   temperatureRelayBetweenLoops,1
;   fanLayers,1,3
;   fanSpeeds,0,60
;   blipFanToFullPower,1
;   adjustSpeedForCooling,1
;   minSpeedLayerTime,15
;   minCoolingSpeedSlowdown,20
;   increaseFanForCooling,0
;   minFanLayerTime,45
;   maxCoolingFanSpeed,100
;   increaseFanForBridging,0
;   bridgingFanSpeed,100
;   use5D,1
;   relativeEdistances,0
;   allowEaxisZeroing,1
;   independentExtruderAxes,0
;   includeM10123,0
;   stickySupport,1
;   applyToolheadOffsets,0
;   gcodeXoffset,0
;   gcodeYoffset,0
;   gcodeZoffset,0
;   overrideMachineDefinition,0
;   machineTypeOverride,0
;   strokeXoverride,100
;   strokeYoverride,100
;   strokeZoverride,100
;   originOffsetXoverride,0
;   originOffsetYoverride,0
;   originOffsetZoverride,0
;   homeXdirOverride,-1
;   homeYdirOverride,-1
;   homeZdirOverride,-1
;   flipXoverride,1
;   flipYoverride,-1
;   flipZoverride,1
;   toolheadOffsets,0,0|0,0|0,0|0,0|0,0|0,0
;   overrideFirmwareConfiguration,0
;   firmwareTypeOverride,RepRap (Marlin/Repetier/Sprinter)
;   GPXconfigOverride,r2
;   baudRateOverride,115200
;   overridePrinterModels,0
;   printerModelsOverride
;   startingGcode,;G28  ; Home all,;M208S7; DISABLE THE PROBE,;G1 Z5; probe z clearance,;G1 X0 Y0; ,;M280S3; Enable the probe,;G32; probe the grid,;M374; save the grid,;G1 Z20 ; Set Z20 for ooze
;   layerChangeGcode,
;   retractionGcode,
;   toolChangeGcode,
;   endingGcode,M104 S0 ; turn off extruder,M140 S0 ; turn off bed,G91 G1 Z10 ; Clearance from part,G90 G1 X0 Y0 Z118 ; Go to starting position (X0 Y0 Z 122),M84 ; disable motor
;   exportFileFormat,gcode
;   celebration,0
;   celebrationSong,Random Song
;   postProcessing,
;   defaultSpeed,3000
;   outlineUnderspeed,0.65
;   solidInfillUnderspeed,0.8
;   supportUnderspeed,0.8
;   rapidXYspeed,3600
;   rapidZspeed,1002
;   minBridgingArea,50
;   bridgingExtraInflation,0
;   bridgingExtrusionMultiplier,1
;   bridgingSpeedMultiplier,1
;   useFixedBridgingAngle,0
;   fixedBridgingAngle,0
;   applyBridgingToPerimeters,0
;   filamentDiameters,1.75|1.75|1.75|1.75|1.75|1.75
;   filamentPricesPerKg,46|46|46|46|46|46
;   filamentDensities,1.27|1.25|1.25|1.25|1.25|1.25
;   useMinPrintHeight,0
;   minPrintHeight,0
;   useMaxPrintHeight,0
;   maxPrintHeight,0
;   useDiaphragm,0
;   diaphragmLayerInterval,20
;   robustSlicing,1
;   mergeAllIntoSolid,0
;   onlyRetractWhenCrossingOutline,1
;   retractBetweenLayers,1
;   useRetractionMinTravel,0
;   retractionMinTravel,3
;   retractWhileWiping,0
;   onlyWipeOutlines,1
;   avoidCrossingOutline,0
;   maxMovementDetourFactor,3
;   toolChangeRetractionDistance,12
;   toolChangeExtraRestartDistance,-0.5
;   toolChangeRetractionSpeed,600
;   externalThinWallType,1
;   internalThinWallType,1
;   thinWallAllowedOverlapPercentage,10
;   singleExtrusionMinLength,1
;   singleExtrusionMinPrintingWidthPercentage,50
;   singleExtrusionMaxPrintingWidthPercentage,200
;   singleExtrusionEndpointExtension,0.2
;   horizontalSizeCompensation,0
G90
M82
M106 S255
G4 P500
M106 S0
M104 S200 T0
M109 S200 T0
;G28  ; Home all
;M208S7; DISABLE THE PROBE
;G1 Z5; probe z clearance
;G1 X0 Y0; 
;M280S3; Enable the probe
;G32; probe the grid
;M374; save the grid
;G1 Z20 ; Set Z20 for ooze
G92 E0
G1 E-2.8000 F6000
G1 Z0.250 F1002
; process Basic 
; layer 1, Z = 0.250
M105
T0
; tool H0.250 W0.480
; skirt
G1 X50.680 Y15.690 F3600
G1 E0.4000 F1800
G92 E0
G1 X50.790 Y15.426 E0.0151 F1200
G1 X53.101 Y13.114 E0.1880
G1 X53.366 Y13.005 E0.2032
G1 X70.756 Y13.005 E1.1228
G1 X71.020 Y13.114 E1.1380
G1 X71.128 Y13.222 E1.1460
G1 X83.872 Y13.222 E1.8200
G1 X83.980 Y13.114 E1.8280
G1 X84.244 Y13.005 E1.8431
G1 X101.634 Y13.005 E2.7628
G1 X101.899 Y13.114 E2.7780
G1 X104.210 Y15.426 E2.9508
G1 X104.320 Y15.690 E2.9660
G1 X104.320 Y43.005 E4.4104
G1 X116.634 Y43.005 E5.0617
G1 X116.899 Y43.114 E5.0768
G1 X119.210 Y45.426 E5.2497
G1 X119.320 Y45.690 E5.2648
G1 X119.320 Y50.959 E5.5435
G1 X119.210 Y51.224 E5.5586
G1 X116.899 Y53.535 E5.7315
G1 X116.634 Y53.645 E5.7466
G1 X104.320 Y53.645 E6.3979
G1 X104.320 Y68.363 E7.1762
G1 X104.210 Y68.628 E7.1914
G1 X103.540 Y69.298 E7.2415
G1 X103.540 Y75.616 E7.5756
G1 X103.430 Y75.881 E7.5908
G1 X101.119 Y78.192 E7.7636
G1 X100.854 Y78.302 E7.7788
G1 X53.146 Y78.302 E10.3018
G1 X52.881 Y78.192 E10.3170
G1 X50.570 Y75.881 E10.4898
G1 X50.460 Y75.616 E10.5050
G1 X50.460 Y67.907 E10.9126
G1 X50.570 Y67.643 E10.9278
G1 X50.680 Y67.532 E10.9360
G1 X50.680 Y15.890 E13.6671
G1 X50.680 Y15.690 F1200
G92 E0
G1 E-2.8000 F6000
G1 X73.160 Y79.763 F3600
G1 E0.4000 F6000
G92 E0
G1 X73.189 Y79.751 E0.0016 F1200
G1 X74.554 Y79.264 E0.0783
G1 X74.583 Y79.255 E0.0799
G1 X74.911 Y79.169 E0.0978
G1 X74.941 Y79.162 E0.0995
G1 X76.369 Y78.914 E0.1761
G1 X76.400 Y78.910 E0.1777
G1 X76.738 Y78.881 E0.1957
G1 X76.768 Y78.880 E0.1973
G1 X78.218 Y78.879 E0.2740
G1 X78.249 Y78.880 E0.2756
G1 X78.586 Y78.909 E0.2935
G1 X78.617 Y78.913 E0.2951
G1 X80.045 Y79.159 E0.3718
G1 X80.075 Y79.165 E0.3734
G1 X80.403 Y79.251 E0.3913
G1 X80.433 Y79.260 E0.3930
G1 X81.798 Y79.746 E0.4696
G1 X81.827 Y79.757 E0.4713
G1 X82.135 Y79.897 E0.4892
G1 X82.163 Y79.911 E0.4908
G1 X83.426 Y80.622 E0.5675
G1 X83.452 Y80.639 E0.5691
G1 X83.732 Y80.829 E0.5870
G1 X83.757 Y80.848 E0.5886
G1 X84.881 Y81.763 E0.6653
G1 X84.904 Y81.784 E0.6669
G1 X85.147 Y82.019 E0.6848
G1 X85.168 Y82.042 E0.6865
G1 X86.120 Y83.135 E0.7631
G1 X86.139 Y83.159 E0.7648
G1 X86.339 Y83.433 E0.7827
G1 X86.356 Y83.459 E0.7843
G1 X87.108 Y84.698 E0.8610
G1 X87.122 Y84.725 E0.8626
G1 X87.273 Y85.029 E0.8805
G1 X87.285 Y85.057 E0.8821
G1 X87.815 Y86.406 E0.9588
G1 X87.825 Y86.436 E0.9604
G1 X87.921 Y86.761 E0.9783
G1 X87.928 Y86.790 E0.9800
G1 X88.221 Y88.210 E1.0566
G1 X88.225 Y88.241 E1.0583
G1 X88.265 Y88.577 E1.0762
G1 X88.267 Y88.608 E1.0778
G1 X88.313 Y90.057 E1.1545
G1 X88.313 Y90.087 E1.1561
G1 X88.295 Y90.426 E1.1740
G1 X88.292 Y90.457 E1.1756
G1 X88.091 Y91.892 E1.2523
G1 X88.085 Y91.922 E1.2539
G1 X88.010 Y92.253 E1.2718
G1 X88.001 Y92.282 E1.2735
G1 X87.559 Y93.662 E1.3501
G1 X87.548 Y93.691 E1.3518
G1 X87.417 Y94.004 E1.3697
G1 X87.404 Y94.032 E1.3713
G1 X86.733 Y95.317 E1.4480
G1 X86.718 Y95.343 E1.4496
G1 X86.536 Y95.629 E1.4675
G1 X86.518 Y95.655 E1.4691
G1 X85.638 Y96.806 E1.5458
G1 X85.618 Y96.830 E1.5474
G1 X85.390 Y97.081 E1.5653
G1 X85.368 Y97.102 E1.5670
G1 X84.304 Y98.089 E1.6437
G1 X84.280 Y98.109 E1.6454
G1 X84.009 Y98.319 E1.6635
G1 X83.984 Y98.337 E1.6652
G1 X83.820 Y98.443 E1.6755
G1 X83.820 Y110.783 E2.3281
G1 X101.635 Y110.788 E3.2702
G1 X101.900 Y110.898 E3.2853
G1 X104.210 Y113.209 E3.4582
G1 X104.320 Y113.474 E3.4733
G1 X104.320 Y118.531 E3.7407
G1 X104.210 Y118.795 E3.7559
G1 X104.006 Y119.000 E3.7712
G1 X104.040 Y119.083 E3.7759
G1 X104.040 Y130.385 E4.3736
G1 X104.210 Y130.555 E4.3864
G1 X104.320 Y130.820 E4.4015
G1 X104.320 Y135.877 E4.6690
G1 X104.210 Y136.142 E4.6841
G1 X101.899 Y138.453 E4.8570
G1 X101.634 Y138.563 E4.8721
G1 X88.040 Y138.563 E5.5910
G1 X88.040 Y142.792 E5.8147
G1 X87.930 Y143.056 E5.8298
G1 X85.619 Y145.368 E6.0027
G1 X85.354 Y145.477 E6.0178
G1 X77.646 Y145.477 E6.4255
G1 X77.500 Y145.417 E6.4338
G1 X77.354 Y145.477 E6.4422
G1 X69.646 Y145.477 E6.8498
G1 X69.381 Y145.368 E6.8650
G1 X67.070 Y143.056 E7.0379
G1 X66.960 Y142.792 E7.0530
G1 X66.960 Y138.563 E7.2767
G1 X53.366 Y138.563 E7.9956
G1 X53.101 Y138.453 E8.0107
G1 X50.790 Y136.142 E8.1836
G1 X50.680 Y135.877 E8.1987
G1 X50.680 Y130.820 E8.4662
G1 X50.790 Y130.555 E8.4813
G1 X50.960 Y130.385 E8.4941
G1 X50.960 Y119.083 E9.0918
G1 X50.994 Y119.000 E9.0965
G1 X50.790 Y118.795 E9.1118
G1 X50.680 Y118.531 E9.1269
G1 X50.680 Y113.474 E9.3944
G1 X50.790 Y113.209 E9.4095
G1 X53.101 Y110.898 E9.5824
G1 X53.366 Y110.788 E9.5975
G1 X59.680 Y110.788 E9.9315
G1 X59.680 Y105.468 E10.2128
G1 X59.675 Y105.463 E10.2132
G1 X59.465 Y105.198 E10.2311
G1 X59.447 Y105.173 E10.2327
G1 X58.953 Y104.427 E10.2800
G1 X58.937 Y104.401 E10.2817
G1 X58.774 Y104.103 E10.2996
G1 X58.761 Y104.075 E10.3012
G1 X58.401 Y103.256 E10.3485
G1 X58.389 Y103.227 E10.3502
G1 X58.280 Y102.906 E10.3681
G1 X58.271 Y102.876 E10.3697
G1 X58.056 Y102.008 E10.4171
G1 X58.050 Y101.978 E10.4187
G1 X57.997 Y101.643 E10.4366
G1 X57.993 Y101.612 E10.4383
G1 X57.929 Y100.719 E10.4856
G1 X57.929 Y100.689 E10.4872
G1 X57.933 Y100.349 E10.5052
G1 X57.935 Y100.319 E10.5068
G1 X58.024 Y99.428 E10.5541
G1 X58.029 Y99.398 E10.5557
G1 X58.091 Y99.064 E10.5737
G1 X58.098 Y99.034 E10.5753
G1 X58.337 Y98.172 E10.6226
G1 X58.347 Y98.143 E10.6243
G1 X58.465 Y97.825 E10.6422
G1 X58.477 Y97.796 E10.6438
G1 X58.860 Y96.988 E10.6912
G1 X58.874 Y96.960 E10.6928
G1 X59.045 Y96.667 E10.7107
G1 X59.062 Y96.641 E10.7124
G1 X59.577 Y95.910 E10.7597
G1 X59.596 Y95.885 E10.7613
G1 X59.814 Y95.625 E10.7792
G1 X59.835 Y95.603 E10.7809
G1 X60.467 Y94.969 E10.8282
G1 X60.490 Y94.948 E10.8298
G1 X60.749 Y94.730 E10.8478
G1 X60.773 Y94.711 E10.8494
G1 X61.504 Y94.195 E10.8967
G1 X61.530 Y94.178 E10.8984
G1 X61.823 Y94.007 E10.9163
G1 X61.850 Y93.992 E10.9179
G1 X62.658 Y93.608 E10.9652
G1 X62.687 Y93.596 E10.9669
G1 X63.004 Y93.477 E10.9848
G1 X63.034 Y93.467 E10.9864
G1 X63.895 Y93.226 E11.0338
G1 X63.925 Y93.219 E11.0354
G1 X64.259 Y93.156 E11.0533
G1 X64.289 Y93.152 E11.0550
G1 X65.179 Y93.061 E11.1023
G1 X65.210 Y93.059 E11.1039
G1 X65.549 Y93.054 E11.1219
G1 X65.580 Y93.055 E11.1235
G1 X66.473 Y93.117 E11.1708
G1 X66.503 Y93.120 E11.1724
G1 X66.839 Y93.173 E11.1904
G1 X66.869 Y93.179 E11.1920
G1 X67.322 Y93.290 E11.2167
G1 X67.002 Y92.296 E11.2720
G1 X66.994 Y92.266 E11.2736
G1 X66.918 Y91.936 E11.2915
G1 X66.912 Y91.906 E11.2931
G1 X66.709 Y90.470 E11.3698
G1 X66.706 Y90.440 E11.3714
G1 X66.687 Y90.101 E11.3894
G1 X66.687 Y90.071 E11.3910
G1 X66.731 Y88.622 E11.4676
G1 X66.733 Y88.591 E11.4693
G1 X66.773 Y88.254 E11.4872
G1 X66.778 Y88.224 E11.4888
G1 X67.068 Y86.804 E11.5655
G1 X67.075 Y86.774 E11.5671
G1 X67.171 Y86.449 E11.5850
G1 X67.181 Y86.420 E11.5867
G1 X67.709 Y85.070 E11.6633
G1 X67.721 Y85.042 E11.6649
G1 X67.871 Y84.738 E11.6829
G1 X67.886 Y84.711 E11.6845
G1 X68.636 Y83.470 E11.7611
G1 X68.653 Y83.445 E11.7628
G1 X68.852 Y83.171 E11.7807
G1 X68.872 Y83.146 E11.7823
G1 X69.822 Y82.052 E11.8590
G1 X69.843 Y82.029 E11.8606
G1 X70.086 Y81.793 E11.8785
G1 X70.109 Y81.773 E11.8802
G1 X71.232 Y80.856 E11.9568
G1 X71.256 Y80.837 E11.9584
G1 X71.536 Y80.646 E11.9764
G1 X71.562 Y80.630 E11.9780
G1 X72.824 Y79.917 E12.0546
G1 X72.852 Y79.903 E12.0563
G1 X72.978 Y79.846 E12.0636
G1 X73.160 Y79.763 F1200
G1 X73.360 Y80.200 F3600
G92 E0
G1 X74.706 Y79.719 E0.0756 F1200
G1 X74.715 Y79.716 E0.0761
G1 X75.023 Y79.635 E0.0930
G1 X75.033 Y79.633 E0.0935
G1 X76.441 Y79.389 E0.1691
G1 X76.451 Y79.388 E0.1696
G1 X76.769 Y79.360 E0.1864
G1 X76.779 Y79.360 E0.1870
G1 X78.208 Y79.359 E0.2625
G1 X78.218 Y79.359 E0.2631
G1 X78.535 Y79.386 E0.2799
G1 X78.545 Y79.388 E0.2805
G1 X79.954 Y79.630 E0.3560
G1 X79.964 Y79.632 E0.3566
G1 X80.272 Y79.713 E0.3734
G1 X80.282 Y79.716 E0.3740
G1 X81.628 Y80.194 E0.4495
G1 X81.638 Y80.198 E0.4501
G1 X81.927 Y80.330 E0.4669
G1 X81.936 Y80.335 E0.4675
G1 X83.182 Y81.036 E0.5430
G1 X83.191 Y81.041 E0.5436
G1 X83.454 Y81.220 E0.5604
G1 X83.462 Y81.226 E0.5609
G1 X84.570 Y82.129 E0.6365
G1 X84.577 Y82.136 E0.6371
G1 X84.806 Y82.357 E0.6539
G1 X84.813 Y82.365 E0.6544
G1 X85.751 Y83.443 E0.7300
G1 X85.758 Y83.451 E0.7305
G1 X85.945 Y83.708 E0.7474
G1 X85.951 Y83.716 E0.7479
G1 X86.692 Y84.938 E0.8235
G1 X86.697 Y84.947 E0.8240
G1 X86.838 Y85.233 E0.8409
G1 X86.842 Y85.242 E0.8414
G1 X87.364 Y86.572 E0.9170
G1 X87.367 Y86.582 E0.9175
G1 X87.458 Y86.887 E0.9344
G1 X87.460 Y86.897 E0.9349
G1 X87.748 Y88.297 E1.0105
G1 X87.750 Y88.307 E1.0110
G1 X87.787 Y88.623 E1.0279
G1 X87.788 Y88.633 E1.0284
G1 X87.833 Y90.062 E1.1040
G1 X87.833 Y90.072 E1.1045
G1 X87.816 Y90.390 E1.1214
G1 X87.815 Y90.400 E1.1219
G1 X87.617 Y91.815 E1.1975
G1 X87.615 Y91.825 E1.1980
G1 X87.544 Y92.136 E1.2148
G1 X87.541 Y92.145 E1.2154
G1 X87.105 Y93.506 E1.2910
G1 X87.101 Y93.516 E1.2915
G1 X86.978 Y93.810 E1.3083
G1 X86.974 Y93.819 E1.3089
G1 X86.312 Y95.085 E1.3844
G1 X86.307 Y95.094 E1.3850
G1 X86.136 Y95.363 E1.4018
G1 X86.130 Y95.371 E1.4024
G1 X85.263 Y96.507 E1.4779
G1 X85.256 Y96.515 E1.4785
G1 X85.042 Y96.750 E1.4953
G1 X85.035 Y96.757 E1.4959
G1 X83.985 Y97.730 E1.5715
G1 X83.977 Y97.736 E1.5721
G1 X83.723 Y97.934 E1.5891
G1 X83.715 Y97.940 E1.5896
G1 X83.340 Y98.182 E1.6132
G1 X83.340 Y111.263 E2.3050
G1 X101.540 Y111.268 E3.2675
G1 X101.628 Y111.305 E3.2725
G1 X103.803 Y113.481 E3.4353
G1 X103.840 Y113.569 E3.4403
G1 X103.840 Y118.435 E3.6976
G1 X103.803 Y118.523 E3.7027
G1 X103.380 Y118.947 E3.7343
G1 X103.523 Y119.090 E3.7451
G1 X103.560 Y119.178 E3.7501
G1 X103.560 Y130.584 E4.3533
G1 X103.803 Y130.827 E4.3715
G1 X103.840 Y130.915 E4.3765
G1 X103.840 Y135.781 E4.6339
G1 X103.803 Y135.870 E4.6389
G1 X101.627 Y138.046 E4.8017
G1 X101.539 Y138.083 E4.8067
G1 X87.560 Y138.083 E5.5460
G1 X87.560 Y142.696 E5.7900
G1 X87.523 Y142.784 E5.7950
G1 X85.347 Y144.961 E5.9578
G1 X85.259 Y144.997 E5.9628
G1 X77.741 Y144.997 E6.3604
G1 X77.653 Y144.961 E6.3654
G1 X77.500 Y144.808 E6.3769
G1 X77.347 Y144.961 E6.3883
G1 X77.259 Y144.997 E6.3934
G1 X69.741 Y144.997 E6.7909
G1 X69.653 Y144.961 E6.7960
G1 X67.477 Y142.784 E6.9587
G1 X67.440 Y142.696 E6.9638
G1 X67.440 Y138.083 E7.2078
