; G-Code generated by Simplify3D(R) Version 4.0.0
; Feb 26, 2018 at 7:05:27 PM
; Settings Summary
;   processName,Basic 
;   applyToModels,57655K340_PLASTIC GEAR--14-.5 DEG PRESSURE ANGLE,57655K430_PLASTIC GEAR--14-.5 DEG PRESSURE ANGLE
;   profileName,BortBot (modified)
;   profileVersion,2017-10-07 14:50:40
;   baseProfile,Default
;   printMaterial,PLA
;   printQuality,Medium
;   printExtruders,
;   extruderName,Extruder 1
;   extruderToolheadNumber,0
;   extruderDiameter,0.4
;   extruderAutoWidth,1
;   extruderWidth,0.48
;   extrusionMultiplier,1.06
;   extruderUseRetract,1
;   extruderRetractionDistance,2.8
;   extruderExtraRestartDistance,0.4
;   extruderRetractionZLift,0
;   extruderRetractionSpeed,6000
;   extruderUseCoasting,0
;   extruderCoastingDistance,0.2
;   extruderUseWipe,0
;   extruderWipeDistance,5
;   primaryExtruder,0
;   layerHeight,0.2
;   topSolidLayers,3
;   bottomSolidLayers,3
;   perimeterOutlines,2
;   printPerimetersInsideOut,1
;   startPointOption,1
;   startPointOriginX,0
;   startPointOriginY,0
;   sequentialIslands,0
;   spiralVaseMode,0
;   firstLayerHeightPercentage,100
;   firstLayerWidthPercentage,100
;   firstLayerUnderspeed,0.4
;   useRaft,0
;   raftExtruder,0
;   raftTopLayers,2
;   raftBaseLayers,2
;   raftOffset,3
;   raftSeparationDistance,0.3
;   raftTopInfill,90
;   aboveRaftSpeedMultiplier,0.3
;   useSkirt,1
;   skirtExtruder,0
;   skirtLayers,1
;   skirtOutlines,2
;   skirtOffset,3.6
;   usePrimePillar,0
;   primePillarExtruder,999
;   primePillarWidth,12
;   primePillarLocation,7
;   primePillarSpeedMultiplier,1
;   useOozeShield,0
;   oozeShieldExtruder,999
;   oozeShieldOffset,2
;   oozeShieldOutlines,1
;   oozeShieldSidewallShape,1
;   oozeShieldSidewallAngle,30
;   oozeShieldSpeedMultiplier,1
;   infillExtruder,0
;   internalInfillPattern,Triangular
;   externalInfillPattern,Rectilinear
;   infillPercentage,57
;   outlineOverlapPercentage,35
;   infillExtrusionWidthPercentage,100
;   minInfillLength,5
;   infillLayerInterval,1
;   internalInfillAngles,0,60,-60
;   overlapInternalInfillAngles,1
;   externalInfillAngles,45,-45
;   generateSupport,1
;   supportExtruder,0
;   supportInfillPercentage,30
;   supportExtraInflation,0
;   supportBaseLayers,0
;   denseSupportExtruder,0
;   denseSupportLayers,0
;   denseSupportInfillPercentage,70
;   supportLayerInterval,1
;   supportHorizontalPartOffset,0.3
;   supportUpperSeparationLayers,1
;   supportLowerSeparationLayers,1
;   supportType,0
;   supportGridSpacing,4
;   maxOverhangAngle,45
;   supportAngles,0
;   temperatureName,Extruder 1
;   temperatureNumber,0
;   temperatureSetpointCount,1
;   temperatureSetpointLayers,1
;   temperatureSetpointTemperatures,200
;   temperatureStabilizeAtStartup,1
;   temperatureHeatedBed,0
;   temperatureRelayBetweenLayers,1
;   temperatureRelayBetweenLoops,1
;   fanLayers,1,3
;   fanSpeeds,0,60
;   blipFanToFullPower,1
;   adjustSpeedForCooling,1
;   minSpeedLayerTime,15
;   minCoolingSpeedSlowdown,20
;   increaseFanForCooling,0
;   minFanLayerTime,45
;   maxCoolingFanSpeed,100
;   increaseFanForBridging,0
;   bridgingFanSpeed,100
;   use5D,1
;   relativeEdistances,0
;   allowEaxisZeroing,1
;   independentExtruderAxes,0
;   includeM10123,0
;   stickySupport,1
;   applyToolheadOffsets,0
;   gcodeXoffset,0
;   gcodeYoffset,0
;   gcodeZoffset,0
;   overrideMachineDefinition,0
;   machineTypeOverride,0
;   strokeXoverride,100
;   strokeYoverride,100
;   strokeZoverride,100
;   originOffsetXoverride,0
;   originOffsetYoverride,0
;   originOffsetZoverride,0
;   homeXdirOverride,-1
;   homeYdirOverride,-1
;   homeZdirOverride,-1
;   flipXoverride,1
;   flipYoverride,-1
;   flipZoverride,1
;   toolheadOffsets,0,0|0,0|0,0|0,0|0,0|0,0
;   overrideFirmwareConfiguration,0
;   firmwareTypeOverride,RepRap (Marlin/Repetier/Sprinter)
;   GPXconfigOverride,r2
;   baudRateOverride,115200
;   overridePrinterModels,0
;   printerModelsOverride
;   startingGcode,;G28  ; Home all,;M208S7; DISABLE THE PROBE,;G1 Z5; probe z clearance,;G1 X0 Y0; ,;M280S3; Enable the probe,;G32; probe the grid,;M374; save the grid,;G1 Z20 ; Set Z20 for ooze
;   layerChangeGcode,
;   retractionGcode,
;   toolChangeGcode,
;   endingGcode,M104 S0 ; turn off extruder,M140 S0 ; turn off bed,G91 G1 Z10 ; Clearance from part,G90 G1 X0 Y0 Z118 ; Go to starting position (X0 Y0 Z 122),M84 ; disable motor
;   exportFileFormat,gcode
;   celebration,0
;   celebrationSong,Random Song
;   postProcessing,
;   defaultSpeed,3000
;   outlineUnderspeed,0.65
;   solidInfillUnderspeed,0.8
;   supportUnderspeed,0.8
;   rapidXYspeed,3600
;   rapidZspeed,1002
;   minBridgingArea,50
;   bridgingExtraInflation,0
;   bridgingExtrusionMultiplier,1
;   bridgingSpeedMultiplier,1
;   useFixedBridgingAngle,0
;   fixedBridgingAngle,0
;   applyBridgingToPerimeters,0
;   filamentDiameters,1.75|1.75|1.75|1.75|1.75|1.75
;   filamentPricesPerKg,46|46|46|46|46|46
;   filamentDensities,1.27|1.25|1.25|1.25|1.25|1.25
;   useMinPrintHeight,0
;   minPrintHeight,0
;   useMaxPrintHeight,0
;   maxPrintHeight,0
;   useDiaphragm,0
;   diaphragmLayerInterval,20
;   robustSlicing,1
;   mergeAllIntoSolid,0
;   onlyRetractWhenCrossingOutline,1
;   retractBetweenLayers,1
;   useRetractionMinTravel,0
;   retractionMinTravel,3
;   retractWhileWiping,0
;   onlyWipeOutlines,1
;   avoidCrossingOutline,0
;   maxMovementDetourFactor,3
;   toolChangeRetractionDistance,12
;   toolChangeExtraRestartDistance,-0.5
;   toolChangeRetractionSpeed,600
;   externalThinWallType,0
;   internalThinWallType,2
;   thinWallAllowedOverlapPercentage,10
;   singleExtrusionMinLength,1
;   singleExtrusionMinPrintingWidthPercentage,50
;   singleExtrusionMaxPrintingWidthPercentage,200
;   singleExtrusionEndpointExtension,0.2
;   horizontalSizeCompensation,0
G90
M82
M106 S255
G4 P500
M106 S0
M104 S200 T0
M109 S200 T0
;G28  ; Home all
;M208S7; DISABLE THE PROBE
;G1 Z5; probe z clearance
;G1 X0 Y0; 
;M280S3; Enable the probe
;G32; probe the grid
;M374; save the grid
;G1 Z20 ; Set Z20 for ooze
G92 E0
G1 E-2.8000 F6000
G1 Z0.200 F1002
; process Basic 
; layer 1, Z = 0.200
M105
T0
; tool H0.200 W0.480
; skirt
G1 X70.679 Y57.275 F3600
G1 E0.4000 F1800
G92 E0
G1 X70.696 Y57.253 E0.0012 F1200
G1 X70.723 Y57.234 E0.0026
G1 X73.133 Y55.027 E0.1408
G1 X73.153 Y55.002 E0.1422
G1 X73.176 Y54.987 E0.1433
G1 X73.196 Y54.969 E0.1445
G1 X73.225 Y54.956 E0.1458
G1 X75.981 Y53.200 E0.2841
G1 X76.007 Y53.178 E0.2855
G1 X76.033 Y53.167 E0.2867
G1 X76.054 Y53.153 E0.2878
G1 X76.084 Y53.146 E0.2891
G1 X79.104 Y51.896 E0.4273
G1 X79.133 Y51.878 E0.4288
G1 X79.161 Y51.872 E0.4300
G1 X79.185 Y51.862 E0.4311
G1 X79.215 Y51.860 E0.4324
G1 X82.407 Y51.152 E0.5707
G1 X82.438 Y51.141 E0.5721
G1 X82.465 Y51.139 E0.5732
G1 X82.491 Y51.134 E0.5744
G1 X82.523 Y51.137 E0.5757
G1 X85.788 Y50.994 E0.7140
G1 X85.820 Y50.988 E0.7154
G1 X85.847 Y50.992 E0.7165
G1 X85.874 Y50.990 E0.7177
G1 X85.905 Y50.999 E0.7190
G1 X89.146 Y51.426 E0.8573
G1 X89.178 Y51.425 E0.8587
G1 X89.204 Y51.434 E0.8598
G1 X89.230 Y51.437 E0.8610
G1 X89.259 Y51.451 E0.8623
G1 X92.377 Y52.434 E1.0006
G1 X92.409 Y52.439 E1.0020
G1 X92.433 Y52.452 E1.0031
G1 X92.458 Y52.460 E1.0043
G1 X92.485 Y52.479 E1.0056
G1 X95.384 Y53.988 E1.1439
G1 X95.415 Y53.999 E1.1453
G1 X95.436 Y54.015 E1.1464
G1 X95.460 Y54.027 E1.1476
G1 X95.482 Y54.051 E1.1489
G1 X98.076 Y56.041 E1.2873
G1 X98.104 Y56.056 E1.2886
G1 X98.122 Y56.076 E1.2897
G1 X98.143 Y56.092 E1.2909
G1 X98.161 Y56.119 E1.2922
G1 X100.370 Y58.529 E1.4305
G1 X100.395 Y58.550 E1.4319
G1 X100.409 Y58.572 E1.4330
G1 X100.428 Y58.592 E1.4342
G1 X100.441 Y58.621 E1.4355
G1 X102.197 Y61.378 E1.5738
G1 X102.218 Y61.403 E1.5752
G1 X102.229 Y61.428 E1.5764
G1 X102.243 Y61.450 E1.5775
G1 X102.251 Y61.481 E1.5788
G1 X103.502 Y64.502 E1.7171
G1 X103.518 Y64.530 E1.7185
G1 X103.524 Y64.556 E1.7197
G1 X103.534 Y64.580 E1.7208
G1 X103.537 Y64.612 E1.7221
G1 X104.244 Y67.804 E1.8604
G1 X104.256 Y67.834 E1.8618
G1 X104.257 Y67.861 E1.8629
G1 X104.263 Y67.887 E1.8641
G1 X104.260 Y67.919 E1.8654
G1 X104.402 Y71.185 E2.0037
G1 X104.408 Y71.217 E2.0051
G1 X104.405 Y71.244 E2.0063
G1 X104.406 Y71.270 E2.0074
G1 X104.397 Y71.301 E2.0087
G1 X103.970 Y74.543 E2.1471
G1 X103.971 Y74.574 E2.1484
G1 X103.963 Y74.599 E2.1495
G1 X103.959 Y74.627 E2.1507
G1 X103.944 Y74.658 E2.1521
G1 X102.962 Y77.776 E2.2904
G1 X102.957 Y77.805 E2.2917
G1 X102.946 Y77.827 E2.2927
G1 X102.937 Y77.854 E2.2940
G1 X102.917 Y77.883 E2.2954
G1 X101.408 Y80.782 E2.4337
G1 X101.398 Y80.811 E2.4350
G1 X101.382 Y80.832 E2.4361
G1 X101.369 Y80.856 E2.4373
G1 X101.346 Y80.879 E2.4386
G1 X99.356 Y83.473 E2.5770
G1 X99.340 Y83.500 E2.5783
G1 X99.321 Y83.518 E2.5794
G1 X99.304 Y83.540 E2.5806
G1 X99.276 Y83.558 E2.5820
G1 X96.867 Y85.766 E2.7202
G1 X96.847 Y85.791 E2.7216
G1 X96.824 Y85.806 E2.7227
G1 X96.804 Y85.824 E2.7239
G1 X96.775 Y85.837 E2.7252
G1 X94.018 Y87.593 E2.8635
G1 X93.994 Y87.614 E2.8649
G1 X93.968 Y87.625 E2.8661
G1 X93.946 Y87.639 E2.8672
G1 X93.915 Y87.647 E2.8685
G1 X90.896 Y88.898 E3.0068
G1 X90.867 Y88.915 E3.0082
G1 X90.840 Y88.921 E3.0094
G1 X90.816 Y88.931 E3.0105
G1 X90.785 Y88.933 E3.0118
G1 X87.593 Y89.641 E3.1501
G1 X87.562 Y89.652 E3.1515
G1 X87.535 Y89.653 E3.1527
G1 X87.509 Y89.659 E3.1538
G1 X87.477 Y89.656 E3.1551
G1 X85.405 Y89.746 E3.2429
G1 X85.520 Y89.914 E3.2515
G1 X85.701 Y90.468 E3.2761
G1 X86.211 Y90.757 E3.3009
G1 X86.353 Y90.904 E3.3096
G1 X87.774 Y93.561 E3.4371
G1 X87.816 Y93.763 E3.4458
G1 X87.771 Y94.344 E3.4704
G1 X88.132 Y94.807 E3.4953
G1 X88.207 Y94.996 E3.5039
G1 X88.503 Y97.995 E3.6314
G1 X88.465 Y98.197 E3.6401
G1 X88.201 Y98.717 E3.6648
G1 X88.357 Y99.282 E3.6896
G1 X88.354 Y99.487 E3.6982
G1 X87.479 Y102.370 E3.8257
G1 X87.367 Y102.543 E3.8344
G1 X86.924 Y102.922 E3.8591
G1 X86.852 Y103.504 E3.8839
G1 X86.771 Y103.692 E3.8925
G1 X84.860 Y106.021 E4.0200
G1 X84.690 Y106.137 E4.0287
G1 X84.135 Y106.318 E4.0534
G1 X83.846 Y106.828 E4.0782
G1 X83.700 Y106.971 E4.0868
G1 X81.043 Y108.391 E4.2143
G1 X80.841 Y108.433 E4.2230
G1 X80.259 Y108.388 E4.2477
G1 X79.797 Y108.749 E4.2725
G1 X79.607 Y108.825 E4.2812
G1 X76.609 Y109.120 E4.4086
G1 X76.406 Y109.082 E4.4174
G1 X75.886 Y108.818 E4.4420
G1 X75.321 Y108.974 E4.4668
G1 X75.117 Y108.971 E4.4755
G1 X72.233 Y108.097 E4.6030
G1 X72.061 Y107.984 E4.6117
G1 X71.682 Y107.541 E4.6363
G1 X71.100 Y107.469 E4.6611
G1 X70.912 Y107.389 E4.6698
G1 X68.583 Y105.477 E4.7973
G1 X68.467 Y105.307 E4.8060
G1 X68.286 Y104.753 E4.8307
G1 X67.776 Y104.463 E4.8555
G1 X67.633 Y104.317 E4.8641
G1 X66.213 Y101.660 E4.9916
G1 X66.170 Y101.458 E5.0003
G1 X66.215 Y100.877 E5.0250
G1 X65.855 Y100.414 E5.0498
G1 X65.779 Y100.225 E5.0584
G1 X65.484 Y97.226 E5.1859
G1 X65.522 Y97.024 E5.1946
G1 X65.786 Y96.504 E5.2193
G1 X65.630 Y95.938 E5.2441
G1 X65.632 Y95.734 E5.2527
G1 X66.507 Y92.851 E5.3802
G1 X66.619 Y92.678 E5.3889
G1 X67.062 Y92.299 E5.4136
G1 X67.134 Y91.717 E5.4384
G1 X67.215 Y91.529 E5.4471
G1 X69.126 Y89.200 E5.5745
G1 X69.296 Y89.084 E5.5832
G1 X69.851 Y88.903 E5.6079
G1 X70.140 Y88.393 E5.6327
G1 X70.287 Y88.250 E5.6414
G1 X72.944 Y86.830 E5.7688
G1 X73.145 Y86.788 E5.7776
G1 X73.727 Y86.833 E5.8022
G1 X74.178 Y86.481 E5.8264
G1 X71.924 Y84.752 E5.9466
G1 X71.896 Y84.737 E5.9479
G1 X71.878 Y84.717 E5.9491
G1 X71.857 Y84.700 E5.9502
G1 X71.838 Y84.673 E5.9516
G1 X69.630 Y82.263 E6.0899
G1 X69.605 Y82.243 E6.0912
G1 X69.591 Y82.221 E6.0924
G1 X69.573 Y82.201 E6.0935
G1 X69.559 Y82.171 E6.0949
G1 X67.803 Y79.415 E6.2331
G1 X67.782 Y79.390 E6.2345
G1 X67.771 Y79.364 E6.2357
G1 X67.757 Y79.342 E6.2368
G1 X67.749 Y79.312 E6.2381
G1 X66.498 Y76.291 E6.3765
G1 X66.482 Y76.263 E6.3778
G1 X66.476 Y76.238 E6.3789
G1 X66.466 Y76.212 E6.3801
G1 X66.463 Y76.179 E6.3815
G1 X65.756 Y72.989 E6.5198
G1 X65.744 Y72.959 E6.5211
G1 X65.743 Y72.932 E6.5223
G1 X65.737 Y72.905 E6.5234
G1 X65.741 Y72.873 E6.5248
G1 X65.598 Y69.608 E6.6631
G1 X65.592 Y69.576 E6.6644
G1 X65.595 Y69.549 E6.6656
G1 X65.594 Y69.522 E6.6667
G1 X65.603 Y69.491 E6.6681
G1 X66.030 Y66.251 E6.8064
G1 X66.029 Y66.218 E6.8077
G1 X66.037 Y66.193 E6.8089
G1 X66.041 Y66.166 E6.8100
G1 X66.055 Y66.137 E6.8114
G1 X67.038 Y63.019 E6.9497
G1 X67.043 Y62.987 E6.9510
G1 X67.055 Y62.964 E6.9522
G1 X67.063 Y62.938 E6.9533
G1 X67.082 Y62.912 E6.9547
G1 X68.591 Y60.013 E7.0929
G1 X68.602 Y59.982 E7.0943
G1 X68.619 Y59.960 E7.0955
G1 X68.631 Y59.937 E7.0966
G1 X68.654 Y59.915 E7.0979
G1 X70.644 Y57.320 E7.2363
G1 X70.660 Y57.293 E7.2376
G1 X70.679 Y57.275 E7.2387
G1 X71.030 Y57.607 F3600
G92 E0
G1 X71.037 Y57.602 E0.0004 F1200
G1 X71.041 Y57.594 E0.0007
G1 X73.463 Y55.375 E0.1397
G1 X73.471 Y55.372 E0.1401
G1 X73.476 Y55.365 E0.1404
G1 X76.247 Y53.600 E0.2794
G1 X76.255 Y53.598 E0.2798
G1 X76.262 Y53.592 E0.2802
G1 X79.297 Y52.335 E0.4191
G1 X79.305 Y52.334 E0.4195
G1 X79.312 Y52.330 E0.4198
G1 X82.519 Y51.619 E0.5588
G1 X82.528 Y51.620 E0.5592
G1 X82.536 Y51.617 E0.5595
G1 X85.818 Y51.473 E0.6985
G1 X85.826 Y51.476 E0.6989
G1 X85.835 Y51.474 E0.6992
G1 X89.091 Y51.903 E0.8382
G1 X89.099 Y51.907 E0.8386
G1 X89.108 Y51.907 E0.8389
G1 X92.240 Y52.894 E0.9779
G1 X92.247 Y52.899 E0.9783
G1 X92.256 Y52.901 E0.9786
G1 X95.170 Y54.417 E1.1176
G1 X95.176 Y54.424 E1.1180
G1 X95.184 Y54.426 E1.1183
G1 X97.790 Y56.426 E1.2573
G1 X97.795 Y56.433 E1.2577
G1 X97.803 Y56.438 E1.2581
G1 X100.021 Y58.859 E1.3970
G1 X100.025 Y58.867 E1.3974
G1 X100.032 Y58.873 E1.3978
G1 X101.797 Y61.643 E1.5367
G1 X101.799 Y61.651 E1.5371
G1 X101.804 Y61.658 E1.5375
G1 X103.061 Y64.693 E1.6764
G1 X103.062 Y64.701 E1.6768
G1 X103.067 Y64.709 E1.6772
G1 X103.777 Y67.916 E1.8161
G1 X103.777 Y67.924 E1.8165
G1 X103.780 Y67.932 E1.8169
G1 X103.923 Y71.214 E1.9558
G1 X103.921 Y71.222 E1.9562
G1 X103.922 Y71.231 E1.9566
G1 X103.493 Y74.488 E2.0955
G1 X103.490 Y74.496 E2.0959
G1 X103.490 Y74.503 E2.0962
G1 X102.502 Y77.636 E2.2352
G1 X102.497 Y77.644 E2.2356
G1 X102.496 Y77.652 E2.2359
G1 X100.979 Y80.566 E2.3749
G1 X100.973 Y80.572 E2.3753
G1 X100.970 Y80.580 E2.3757
G1 X98.970 Y83.186 E2.5146
G1 X98.963 Y83.191 E2.5150
G1 X98.959 Y83.198 E2.5154
G1 X96.537 Y85.418 E2.6543
G1 X96.529 Y85.421 E2.6547
G1 X96.524 Y85.428 E2.6551
G1 X93.753 Y87.193 E2.7940
G1 X93.745 Y87.195 E2.7944
G1 X93.738 Y87.201 E2.7948
G1 X90.704 Y88.458 E2.9337
G1 X90.695 Y88.458 E2.9341
G1 X90.688 Y88.463 E2.9345
G1 X87.481 Y89.174 E3.0734
G1 X87.472 Y89.173 E3.0738
G1 X87.464 Y89.176 E3.0742
G1 X84.182 Y89.319 E3.2131
G1 X84.174 Y89.317 E3.2135
G1 X84.166 Y89.318 E3.2139
G1 X84.122 Y89.313 E3.2157
G1 X85.046 Y90.071 E3.2663
G1 X85.085 Y90.128 E3.2692
G1 X85.302 Y90.794 E3.2989
G1 X85.915 Y91.141 E3.3287
G1 X85.962 Y91.190 E3.3316
G1 X87.318 Y93.727 E3.4532
G1 X87.332 Y93.794 E3.4561
G1 X87.278 Y94.493 E3.4858
G1 X87.711 Y95.048 E3.5156
G1 X87.736 Y95.111 E3.5185
G1 X88.018 Y97.974 E3.6402
G1 X88.006 Y98.041 E3.6431
G1 X87.688 Y98.666 E3.6727
G1 X87.876 Y99.345 E3.7025
G1 X87.875 Y99.413 E3.7054
G1 X87.040 Y102.165 E3.8271
G1 X87.003 Y102.223 E3.8300
G1 X86.470 Y102.678 E3.8596
G1 X86.384 Y103.377 E3.8894
G1 X86.357 Y103.440 E3.8923
G1 X84.532 Y105.663 E4.0140
G1 X84.476 Y105.702 E4.0169
G1 X83.809 Y105.919 E4.0465
G1 X83.462 Y106.532 E4.0763
G1 X83.413 Y106.580 E4.0792
G1 X80.877 Y107.935 E4.2009
G1 X80.810 Y107.949 E4.2038
G1 X80.111 Y107.895 E4.2334
G1 X79.556 Y108.328 E4.2632
G1 X79.492 Y108.354 E4.2661
G1 X76.630 Y108.636 E4.3878
G1 X76.562 Y108.623 E4.3907
G1 X75.938 Y108.306 E4.4203
G1 X75.259 Y108.493 E4.4501
G1 X75.191 Y108.492 E4.4530
G1 X72.438 Y107.657 E4.5747
G1 X72.381 Y107.620 E4.5776
G1 X71.925 Y107.088 E4.6072
G1 X71.226 Y107.001 E4.6370
G1 X71.164 Y106.974 E4.6399
G1 X68.940 Y105.150 E4.7616
G1 X68.902 Y105.093 E4.7645
G1 X68.684 Y104.427 E4.7942
G1 X68.072 Y104.080 E4.8239
G1 X68.024 Y104.031 E4.8268
G1 X66.668 Y101.494 E4.9485
G1 X66.654 Y101.427 E4.9514
G1 X66.708 Y100.728 E4.9811
G1 X66.275 Y100.173 E5.0109
G1 X66.250 Y100.110 E5.0137
G1 X65.968 Y97.248 E5.1354
G1 X65.981 Y97.180 E5.1383
G1 X66.298 Y96.555 E5.1680
G1 X66.110 Y95.876 E5.1978
G1 X66.111 Y95.808 E5.2007
G1 X66.946 Y93.056 E5.3223
