; G-Code generated by Simplify3D(R) Version 4.0.0
; Jul 21, 2018 at 4:03:17 PM
; Settings Summary
;   processName,Process1
;   applyToModels,mirror cell mount,mirror cell mount(2),mirror cell mount(3)
;   profileName,BortBot (modified)
;   profileVersion,2018-03-11 18:52:45
;   baseProfile,Default
;   printMaterial,PLA
;   printQuality,Medium
;   printExtruders,
;   extruderName,Extruder 1
;   extruderToolheadNumber,0
;   extruderDiameter,0.5
;   extruderAutoWidth,0
;   extruderWidth,0.6
;   extrusionMultiplier,1.03
;   extruderUseRetract,1
;   extruderRetractionDistance,1.4
;   extruderExtraRestartDistance,0
;   extruderRetractionZLift,0
;   extruderRetractionSpeed,6000
;   extruderUseCoasting,1
;   extruderCoastingDistance,1.2
;   extruderUseWipe,1
;   extruderWipeDistance,4.4
;   primaryExtruder,0
;   layerHeight,0.2
;   topSolidLayers,3
;   bottomSolidLayers,3
;   perimeterOutlines,4
;   printPerimetersInsideOut,0
;   startPointOption,2
;   startPointOriginX,0
;   startPointOriginY,0
;   sequentialIslands,0
;   spiralVaseMode,0
;   firstLayerHeightPercentage,100
;   firstLayerWidthPercentage,100
;   firstLayerUnderspeed,0.75
;   useRaft,0
;   raftExtruder,0
;   raftTopLayers,2
;   raftBaseLayers,2
;   raftOffset,3
;   raftSeparationDistance,0.3
;   raftTopInfill,90
;   aboveRaftSpeedMultiplier,0.3
;   useSkirt,1
;   skirtExtruder,0
;   skirtLayers,1
;   skirtOutlines,2
;   skirtOffset,3
;   usePrimePillar,0
;   primePillarExtruder,999
;   primePillarWidth,12
;   primePillarLocation,7
;   primePillarSpeedMultiplier,1
;   useOozeShield,0
;   oozeShieldExtruder,999
;   oozeShieldOffset,2
;   oozeShieldOutlines,1
;   oozeShieldSidewallShape,1
;   oozeShieldSidewallAngle,30
;   oozeShieldSpeedMultiplier,1
;   infillExtruder,0
;   internalInfillPattern,Rectilinear
;   externalInfillPattern,Rectilinear
;   infillPercentage,40
;   outlineOverlapPercentage,35
;   infillExtrusionWidthPercentage,90
;   minInfillLength,5
;   infillLayerInterval,2
;   internalInfillAngles,45,-45
;   overlapInternalInfillAngles,0
;   externalInfillAngles,45,-45
;   generateSupport,0
;   supportExtruder,0
;   supportInfillPercentage,30
;   supportExtraInflation,0
;   supportBaseLayers,1
;   denseSupportExtruder,0
;   denseSupportLayers,4
;   denseSupportInfillPercentage,90
;   supportLayerInterval,2
;   supportHorizontalPartOffset,0.4
;   supportUpperSeparationLayers,1
;   supportLowerSeparationLayers,2
;   supportType,0
;   supportGridSpacing,1
;   maxOverhangAngle,46
;   supportAngles,30
;   temperatureName,Extruder 1,Heated Bed
;   temperatureNumber,0,1
;   temperatureSetpointCount,1,1
;   temperatureSetpointLayers,1,1
;   temperatureSetpointTemperatures,245,60
;   temperatureStabilizeAtStartup,1,1
;   temperatureHeatedBed,0,1
;   temperatureRelayBetweenLayers,1,0
;   temperatureRelayBetweenLoops,1,0
;   fanLayers,1,3
;   fanSpeeds,0,40
;   blipFanToFullPower,0
;   adjustSpeedForCooling,1
;   minSpeedLayerTime,15
;   minCoolingSpeedSlowdown,20
;   increaseFanForCooling,1
;   minFanLayerTime,45
;   maxCoolingFanSpeed,100
;   increaseFanForBridging,1
;   bridgingFanSpeed,100
;   use5D,1
;   relativeEdistances,0
;   allowEaxisZeroing,1
;   independentExtruderAxes,0
;   includeM10123,0
;   stickySupport,1
;   applyToolheadOffsets,0
;   gcodeXoffset,0
;   gcodeYoffset,0
;   gcodeZoffset,0
;   overrideMachineDefinition,0
;   machineTypeOverride,0
;   strokeXoverride,100
;   strokeYoverride,100
;   strokeZoverride,100
;   originOffsetXoverride,0
;   originOffsetYoverride,0
;   originOffsetZoverride,0
;   homeXdirOverride,-1
;   homeYdirOverride,-1
;   homeZdirOverride,-1
;   flipXoverride,1
;   flipYoverride,-1
;   flipZoverride,1
;   toolheadOffsets,0,0|0,0|0,0|0,0|0,0|0,0
;   overrideFirmwareConfiguration,0
;   firmwareTypeOverride,RepRap (Marlin/Repetier/Sprinter)
;   GPXconfigOverride,r2
;   baudRateOverride,115200
;   overridePrinterModels,0
;   printerModelsOverride
;   startingGcode,;G28  ; Home all,;M208S7; DISABLE THE PROBE,;G1 Z5; probe z clearance,;G1 X0 Y0; ,;M280S3; Enable the probe,;G32; probe the grid,;M374; save the grid,;G1 Z20 ; Set Z20 for ooze
;   layerChangeGcode,
;   retractionGcode,
;   toolChangeGcode,
;   endingGcode,G10 S2.5; retract filament to relieve pressure,M104 S0 ; turn off extruder,M140 S0 ; turn off bed,G91 G1 Z10 ; Clearance from part,G90 G1 X0 Y0 Z170 ; Go to starting position (X0 Y0 Z 170),;M84 ; disable motor,M107; Turn off fan
;   exportFileFormat,gcode
;   celebration,0
;   celebrationSong,Random Song
;   postProcessing,
;   defaultSpeed,2400
;   outlineUnderspeed,0.8
;   solidInfillUnderspeed,1
;   supportUnderspeed,1
;   rapidXYspeed,9000
;   rapidZspeed,1800
;   minBridgingArea,10
;   bridgingExtraInflation,5
;   bridgingExtrusionMultiplier,0.9
;   bridgingSpeedMultiplier,0.6
;   useFixedBridgingAngle,0
;   fixedBridgingAngle,0
;   applyBridgingToPerimeters,1
;   filamentDiameters,1.75|1.75|1.75|1.75|1.75|1.75
;   filamentPricesPerKg,12|46|46|46|46|46
;   filamentDensities,1.33|1.25|1.25|1.25|1.25|1.25
;   useMinPrintHeight,0
;   minPrintHeight,0
;   useMaxPrintHeight,0
;   maxPrintHeight,2.75
;   useDiaphragm,0
;   diaphragmLayerInterval,20
;   robustSlicing,1
;   mergeAllIntoSolid,0
;   onlyRetractWhenCrossingOutline,1
;   retractBetweenLayers,0
;   useRetractionMinTravel,0
;   retractionMinTravel,3
;   retractWhileWiping,1
;   onlyWipeOutlines,1
;   avoidCrossingOutline,0
;   maxMovementDetourFactor,3
;   toolChangeRetractionDistance,12
;   toolChangeExtraRestartDistance,-0.5
;   toolChangeRetractionSpeed,600
;   externalThinWallType,1
;   internalThinWallType,1
;   thinWallAllowedOverlapPercentage,10
;   singleExtrusionMinLength,1
;   singleExtrusionMinPrintingWidthPercentage,50
;   singleExtrusionMaxPrintingWidthPercentage,200
;   singleExtrusionEndpointExtension,0.2
;   horizontalSizeCompensation,0
G90
M82
M106 S0
M140 S60
M190 S60
M104 S245 T0
M109 S245 T0
;G28  ; Home all
;M208S7; DISABLE THE PROBE
;G1 Z5; probe z clearance
;G1 X0 Y0; 
;M280S3; Enable the probe
;G32; probe the grid
;M374; save the grid
;G1 Z20 ; Set Z20 for ooze
G92 E0
G1 E-1.4000 F6000
G1 Z0.200 F1800
; process Process1
; layer 1, Z = 0.200
M105
T0
; tool H0.200 W0.600
; skirt
G1 X53.590 Y25.748 F9000
G1 E0.0000 F1800
G92 E0
G1 X55.600 Y23.737 E0.1461 F1800
G1 X55.931 Y23.600 E0.1645
G1 X81.559 Y23.600 E1.4814
G1 X81.860 Y23.711 E1.4979
G1 X83.785 Y25.348 E1.6278
G1 X83.942 Y25.627 E1.6442
G1 X84.520 Y29.185 E1.8295
G1 X84.521 Y29.190 E1.8297
G1 X84.527 Y29.228 E1.8317
G1 X84.528 Y29.233 E1.8319
G1 X85.108 Y33.380 E2.0471
G1 X85.109 Y33.386 E2.0475
G1 X85.115 Y33.434 E2.0499
G1 X85.116 Y33.440 E2.0502
G1 X85.581 Y37.607 E2.2657
G1 X85.582 Y37.613 E2.2660
G1 X85.587 Y37.661 E2.2685
G1 X85.587 Y37.667 E2.2688
G1 X85.937 Y41.845 E2.4843
G1 X85.937 Y41.851 E2.4846
G1 X85.941 Y41.899 E2.4870
G1 X85.941 Y41.905 E2.4874
G1 X86.174 Y46.092 E2.7028
G1 X86.174 Y46.098 E2.7031
G1 X86.176 Y46.146 E2.7056
G1 X86.177 Y46.152 E2.7059
G1 X86.293 Y50.343 E2.9214
G1 X86.293 Y50.349 E2.9217
G1 X86.294 Y50.397 E2.9242
G1 X86.294 Y50.404 E2.9245
G1 X86.294 Y54.596 E3.1399
G1 X86.294 Y54.603 E3.1403
G1 X86.293 Y54.651 E3.1427
G1 X86.293 Y54.657 E3.1430
G1 X86.177 Y58.848 E3.3585
G1 X86.176 Y58.854 E3.3588
G1 X86.174 Y58.902 E3.3613
G1 X86.174 Y58.908 E3.3616
G1 X85.941 Y63.095 E3.5771
G1 X85.941 Y63.101 E3.5774
G1 X85.937 Y63.149 E3.5798
G1 X85.937 Y63.155 E3.5802
G1 X85.587 Y67.333 E3.7956
G1 X85.587 Y67.339 E3.7959
G1 X85.582 Y67.387 E3.7984
G1 X85.581 Y67.393 E3.7987
G1 X85.116 Y71.560 E4.0142
G1 X85.115 Y71.566 E4.0145
G1 X85.109 Y71.614 E4.0170
G1 X85.108 Y71.620 E4.0173
G1 X84.528 Y75.768 E4.2325
G1 X84.527 Y75.773 E4.2327
G1 X84.521 Y75.810 E4.2347
G1 X84.520 Y75.815 E4.2349
G1 X83.942 Y79.373 E4.4202
G1 X83.785 Y79.652 E4.4366
G1 X83.376 Y80.000 E4.4642
G1 X83.785 Y80.348 E4.4918
G1 X83.942 Y80.627 E4.5083
G1 X84.521 Y84.185 E4.6936
G1 X84.521 Y84.190 E4.6938
G1 X84.527 Y84.228 E4.6958
G1 X84.528 Y84.233 E4.6960
G1 X85.108 Y88.380 E4.9112
G1 X85.109 Y88.386 E4.9115
G1 X85.115 Y88.434 E4.9140
G1 X85.116 Y88.440 E4.9143
G1 X85.581 Y92.607 E5.1298
G1 X85.582 Y92.613 E5.1301
G1 X85.587 Y92.661 E5.1326
G1 X85.587 Y92.667 E5.1329
G1 X85.937 Y96.845 E5.3483
G1 X85.937 Y96.851 E5.3486
G1 X85.941 Y96.899 E5.3511
G1 X85.941 Y96.905 E5.3514
G1 X86.174 Y101.092 E5.5669
G1 X86.174 Y101.098 E5.5672
G1 X86.176 Y101.146 E5.5697
G1 X86.177 Y101.152 E5.5700
G1 X86.293 Y105.343 E5.7854
G1 X86.293 Y105.349 E5.7858
G1 X86.294 Y105.397 E5.7882
G1 X86.294 Y105.404 E5.7886
G1 X86.294 Y109.596 E6.0040
G1 X86.294 Y109.603 E6.0043
G1 X86.293 Y109.651 E6.0068
G1 X86.293 Y109.657 E6.0071
G1 X86.177 Y113.848 E6.2226
G1 X86.176 Y113.854 E6.2229
G1 X86.174 Y113.902 E6.2254
G1 X86.174 Y113.908 E6.2257
G1 X85.941 Y118.095 E6.4411
G1 X85.941 Y118.101 E6.4415
G1 X85.937 Y118.149 E6.4439
G1 X85.937 Y118.155 E6.4442
G1 X85.587 Y122.333 E6.6597
G1 X85.587 Y122.339 E6.6600
G1 X85.582 Y122.387 E6.6625
G1 X85.581 Y122.393 E6.6628
G1 X85.116 Y126.560 E6.8782
G1 X85.115 Y126.566 E6.8786
G1 X85.109 Y126.614 E6.8810
G1 X85.108 Y126.620 E6.8814
G1 X84.528 Y130.767 E7.0965
G1 X84.527 Y130.772 E7.0968
G1 X84.521 Y130.810 E7.0988
G1 X84.521 Y130.815 E7.0990
G1 X83.942 Y134.373 E7.2843
G1 X83.785 Y134.652 E7.3007
G1 X81.860 Y136.289 E7.4306
G1 X81.559 Y136.400 E7.4471
G1 X55.931 Y136.400 E8.7640
G1 X55.600 Y136.263 E8.7824
G1 X53.590 Y134.252 E8.9285
G1 X53.453 Y133.922 E8.9469
G1 X53.453 Y81.078 E11.6623
G1 X53.590 Y80.748 E11.6807
G1 X54.337 Y80.000 E11.7351
G1 X53.590 Y79.252 E11.7894
G1 X53.453 Y78.922 E11.8078
G1 X53.453 Y26.920 E14.4800
G1 X53.453 Y26.078 F1800
G1 X53.590 Y25.748 F1800
G1 X88.400 Y26.078 F9000
G92 E0
G1 X88.537 Y25.748 E0.0184 F1800
G1 X90.547 Y23.737 E0.1645
G1 X90.878 Y23.600 E0.1829
G1 X116.506 Y23.600 E1.4998
G1 X116.807 Y23.711 E1.5163
G1 X118.732 Y25.348 E1.6462
G1 X118.889 Y25.627 E1.6626
G1 X119.467 Y29.185 E1.8479
G1 X119.468 Y29.190 E1.8481
G1 X119.474 Y29.228 E1.8501
G1 X119.475 Y29.233 E1.8503
G1 X120.055 Y33.380 E2.0655
G1 X120.056 Y33.386 E2.0659
G1 X120.062 Y33.434 E2.0683
G1 X120.063 Y33.440 E2.0686
G1 X120.528 Y37.607 E2.2841
G1 X120.529 Y37.613 E2.2844
G1 X120.534 Y37.661 E2.2869
G1 X120.534 Y37.667 E2.2872
G1 X120.884 Y41.845 E2.5027
G1 X120.884 Y41.851 E2.5030
G1 X120.888 Y41.899 E2.5054
G1 X120.888 Y41.905 E2.5058
G1 X121.121 Y46.092 E2.7212
G1 X121.121 Y46.098 E2.7215
G1 X121.123 Y46.146 E2.7240
G1 X121.124 Y46.152 E2.7243
G1 X121.240 Y50.343 E2.9398
G1 X121.240 Y50.349 E2.9401
G1 X121.241 Y50.397 E2.9426
G1 X121.241 Y50.404 E2.9429
G1 X121.241 Y54.596 E3.1583
G1 X121.241 Y54.603 E3.1587
G1 X121.240 Y54.651 E3.1611
G1 X121.240 Y54.657 E3.1614
G1 X121.124 Y58.848 E3.3769
G1 X121.123 Y58.854 E3.3772
G1 X121.121 Y58.902 E3.3797
G1 X121.121 Y58.908 E3.3800
G1 X120.888 Y63.095 E3.5955
G1 X120.888 Y63.101 E3.5958
G1 X120.884 Y63.149 E3.5982
G1 X120.884 Y63.155 E3.5986
G1 X120.534 Y67.333 E3.8140
G1 X120.534 Y67.339 E3.8143
G1 X120.529 Y67.387 E3.8168
G1 X120.528 Y67.393 E3.8171
G1 X120.063 Y71.560 E4.0326
G1 X120.062 Y71.566 E4.0329
G1 X120.056 Y71.614 E4.0354
G1 X120.055 Y71.620 E4.0357
G1 X119.475 Y75.767 E4.2509
G1 X119.474 Y75.772 E4.2511
G1 X119.468 Y75.810 E4.2531
G1 X119.467 Y75.815 E4.2533
G1 X118.889 Y79.373 E4.4386
G1 X118.732 Y79.652 E4.4551
G1 X116.807 Y81.289 E4.5849
G1 X116.506 Y81.400 E4.6014
G1 X90.878 Y81.400 E5.9183
G1 X90.547 Y81.263 E5.9367
G1 X88.537 Y79.252 E6.0828
G1 X88.400 Y78.922 E6.1012
G1 X88.400 Y27.278 E8.7550
G1 X88.400 Y26.078 F1800
G1 X89.000 Y26.198 F9000
G92 E0
G1 X89.045 Y26.087 E0.0061 F1800
G1 X90.887 Y24.246 E0.1400
G1 X90.997 Y24.200 E0.1461
G1 X116.399 Y24.200 E1.4514
G1 X116.499 Y24.237 E1.4569
G1 X118.262 Y25.736 E1.5758
G1 X118.314 Y25.829 E1.5813
G1 X118.875 Y29.280 E1.7609
G1 X118.875 Y29.281 E1.7610
G1 X118.880 Y29.316 E1.7628
G1 X118.881 Y29.317 E1.7629
G1 X119.461 Y33.461 E1.9779
G1 X119.461 Y33.463 E1.9780
G1 X119.467 Y33.507 E1.9803
G1 X119.467 Y33.509 E1.9804
G1 X119.932 Y37.671 E2.1956
G1 X119.932 Y37.673 E2.1957
G1 X119.936 Y37.717 E2.1980
G1 X119.937 Y37.719 E2.1981
G1 X120.286 Y41.893 E2.4133
G1 X120.286 Y41.895 E2.4134
G1 X120.289 Y41.939 E2.4157
G1 X120.289 Y41.941 E2.4158
G1 X120.522 Y46.123 E2.6310
G1 X120.522 Y46.125 E2.6311
G1 X120.524 Y46.169 E2.6334
G1 X120.524 Y46.171 E2.6335
G1 X120.640 Y50.358 E2.8487
G1 X120.640 Y50.360 E2.8488
G1 X120.641 Y50.404 E2.8511
G1 X120.641 Y50.406 E2.8512
G1 X120.641 Y54.594 E3.0664
G1 X120.641 Y54.596 E3.0665
G1 X120.640 Y54.640 E3.0688
G1 X120.640 Y54.642 E3.0689
G1 X120.524 Y58.829 E3.2841
G1 X120.524 Y58.831 E3.2842
G1 X120.522 Y58.875 E3.2865
G1 X120.522 Y58.877 E3.2866
G1 X120.289 Y63.059 E3.5018
G1 X120.289 Y63.061 E3.5019
G1 X120.286 Y63.105 E3.5042
G1 X120.286 Y63.107 E3.5043
G1 X119.937 Y67.281 E3.7195
G1 X119.936 Y67.283 E3.7196
G1 X119.932 Y67.327 E3.7219
G1 X119.932 Y67.329 E3.7220
G1 X119.467 Y71.491 E3.9372
G1 X119.467 Y71.493 E3.9373
G1 X119.461 Y71.537 E3.9396
G1 X119.461 Y71.539 E3.9397
G1 X118.881 Y75.683 E4.1547
G1 X118.880 Y75.684 E4.1548
G1 X118.875 Y75.719 E4.1566
G1 X118.875 Y75.720 E4.1566
G1 X118.314 Y79.171 E4.3363
G1 X118.262 Y79.264 E4.3418
G1 X116.499 Y80.763 E4.4607
G1 X116.399 Y80.800 E4.4662
G1 X90.997 Y80.800 E5.7715
G1 X90.887 Y80.754 E5.7776
G1 X89.045 Y78.913 E5.9115
G1 X89.000 Y78.802 E5.9176
G1 X89.000 Y27.398 E8.5591
G1 X89.000 Y26.198 F1800
G1 X83.367 Y25.829 F9000
G92 E0
G1 X83.928 Y29.280 E0.1797 F1800
G1 X83.928 Y29.281 E0.1797
G1 X83.933 Y29.316 E0.1815
G1 X83.934 Y29.317 E0.1816
G1 X84.514 Y33.461 E0.3966
G1 X84.514 Y33.463 E0.3967
G1 X84.520 Y33.507 E0.3990
G1 X84.520 Y33.509 E0.3991
G1 X84.985 Y37.671 E0.6143
G1 X84.985 Y37.673 E0.6144
G1 X84.989 Y37.717 E0.6167
G1 X84.990 Y37.719 E0.6168
G1 X85.339 Y41.893 E0.8320
G1 X85.339 Y41.895 E0.8321
G1 X85.342 Y41.939 E0.8344
G1 X85.342 Y41.941 E0.8345
G1 X85.575 Y46.123 E1.0497
G1 X85.575 Y46.125 E1.0498
G1 X85.577 Y46.169 E1.0521
G1 X85.577 Y46.171 E1.0522
G1 X85.693 Y50.358 E1.2674
G1 X85.693 Y50.360 E1.2675
G1 X85.694 Y50.404 E1.2698
G1 X85.694 Y50.406 E1.2699
G1 X85.694 Y54.594 E1.4851
G1 X85.694 Y54.596 E1.4852
G1 X85.693 Y54.640 E1.4875
G1 X85.693 Y54.642 E1.4876
G1 X85.577 Y58.829 E1.7028
G1 X85.577 Y58.831 E1.7029
G1 X85.575 Y58.875 E1.7052
G1 X85.575 Y58.877 E1.7053
G1 X85.342 Y63.059 E1.9205
G1 X85.342 Y63.061 E1.9206
G1 X85.339 Y63.105 E1.9229
G1 X85.339 Y63.107 E1.9230
G1 X84.990 Y67.281 E2.1382
G1 X84.989 Y67.283 E2.1383
G1 X84.985 Y67.327 E2.1406
G1 X84.985 Y67.329 E2.1407
G1 X84.520 Y71.491 E2.3559
G1 X84.520 Y71.493 E2.3560
G1 X84.514 Y71.537 E2.3583
G1 X84.514 Y71.539 E2.3584
G1 X83.934 Y75.683 E2.5734
G1 X83.933 Y75.684 E2.5735
G1 X83.928 Y75.719 E2.5753
G1 X83.928 Y75.720 E2.5754
G1 X83.367 Y79.171 E2.7550
G1 X83.315 Y79.264 E2.7605
G1 X82.450 Y80.000 E2.8189
G1 X83.315 Y80.736 E2.8772
G1 X83.367 Y80.829 E2.8827
G1 X83.928 Y84.280 E3.0624
G1 X83.928 Y84.281 E3.0625
G1 X83.933 Y84.316 E3.0642
G1 X83.934 Y84.317 E3.0643
G1 X84.514 Y88.461 E3.2793
G1 X84.514 Y88.463 E3.2794
G1 X84.520 Y88.507 E3.2817
G1 X84.520 Y88.509 E3.2818
G1 X84.985 Y92.671 E3.4970
G1 X84.985 Y92.673 E3.4971
G1 X84.989 Y92.717 E3.4994
G1 X84.990 Y92.719 E3.4995
G1 X85.339 Y96.893 E3.7147
G1 X85.339 Y96.895 E3.7148
G1 X85.342 Y96.939 E3.7171
G1 X85.342 Y96.941 E3.7172
G1 X85.575 Y101.123 E3.9324
G1 X85.575 Y101.125 E3.9325
G1 X85.577 Y101.169 E3.9348
G1 X85.577 Y101.171 E3.9349
G1 X85.693 Y105.358 E4.1501
G1 X85.693 Y105.360 E4.1502
G1 X85.694 Y105.404 E4.1525
G1 X85.694 Y105.406 E4.1526
G1 X85.694 Y109.594 E4.3678
G1 X85.694 Y109.596 E4.3679
G1 X85.693 Y109.640 E4.3702
G1 X85.693 Y109.642 E4.3703
G1 X85.577 Y113.829 E4.5855
G1 X85.577 Y113.831 E4.5856
G1 X85.575 Y113.875 E4.5879
G1 X85.575 Y113.877 E4.5880
G1 X85.342 Y118.059 E4.8032
G1 X85.342 Y118.061 E4.8034
G1 X85.339 Y118.105 E4.8056
G1 X85.339 Y118.107 E4.8057
G1 X84.990 Y122.281 E5.0209
G1 X84.989 Y122.283 E5.0211
G1 X84.985 Y122.327 E5.0233
G1 X84.985 Y122.329 E5.0234
G1 X84.520 Y126.491 E5.2386
G1 X84.520 Y126.493 E5.2388
G1 X84.514 Y126.537 E5.2410
G1 X84.514 Y126.539 E5.2411
