; G-Code generated by Simplify3D(R) Version 4.0.0
; Sep 23, 2018 at 2:32:07 PM
; Settings Summary
;   processName,Run1
;   applyToModels,Retraction
;   profileName,BortBot (modified)
;   profileVersion,2018-03-11 18:52:45
;   baseProfile,Default
;   printMaterial,PLA
;   printQuality,Medium
;   printExtruders,
;   extruderName,Extruder 1
;   extruderToolheadNumber,0
;   extruderDiameter,0.5
;   extruderAutoWidth,1
;   extruderWidth,0.6
;   extrusionMultiplier,1.06
;   extruderUseRetract,1
;   extruderRetractionDistance,1.2
;   extruderExtraRestartDistance,0
;   extruderRetractionZLift,0
;   extruderRetractionSpeed,6000
;   extruderUseCoasting,1
;   extruderCoastingDistance,4
;   extruderUseWipe,1
;   extruderWipeDistance,4
;   primaryExtruder,0
;   layerHeight,0.15
;   topSolidLayers,3
;   bottomSolidLayers,3
;   perimeterOutlines,4
;   printPerimetersInsideOut,0
;   startPointOption,2
;   startPointOriginX,0
;   startPointOriginY,0
;   sequentialIslands,0
;   spiralVaseMode,0
;   firstLayerHeightPercentage,125
;   firstLayerWidthPercentage,100
;   firstLayerUnderspeed,0.75
;   useRaft,0
;   raftExtruder,0
;   raftTopLayers,2
;   raftBaseLayers,2
;   raftOffset,3
;   raftSeparationDistance,0.3
;   raftTopInfill,90
;   aboveRaftSpeedMultiplier,0.3
;   useSkirt,1
;   skirtExtruder,0
;   skirtLayers,1
;   skirtOutlines,2
;   skirtOffset,3
;   usePrimePillar,0
;   primePillarExtruder,999
;   primePillarWidth,12
;   primePillarLocation,7
;   primePillarSpeedMultiplier,1
;   useOozeShield,0
;   oozeShieldExtruder,999
;   oozeShieldOffset,2
;   oozeShieldOutlines,1
;   oozeShieldSidewallShape,1
;   oozeShieldSidewallAngle,30
;   oozeShieldSpeedMultiplier,1
;   infillExtruder,0
;   internalInfillPattern,Rectilinear
;   externalInfillPattern,Rectilinear
;   infillPercentage,40
;   outlineOverlapPercentage,35
;   infillExtrusionWidthPercentage,90
;   minInfillLength,5
;   infillLayerInterval,1
;   internalInfillAngles,45,-45
;   overlapInternalInfillAngles,0
;   externalInfillAngles,45,-45
;   generateSupport,0
;   supportExtruder,0
;   supportInfillPercentage,30
;   supportExtraInflation,0
;   supportBaseLayers,1
;   denseSupportExtruder,0
;   denseSupportLayers,4
;   denseSupportInfillPercentage,90
;   supportLayerInterval,2
;   supportHorizontalPartOffset,0.4
;   supportUpperSeparationLayers,1
;   supportLowerSeparationLayers,2
;   supportType,0
;   supportGridSpacing,1
;   maxOverhangAngle,46
;   supportAngles,30
;   temperatureName,Extruder 1,Heated Bed
;   temperatureNumber,0,1
;   temperatureSetpointCount,1,1
;   temperatureSetpointLayers,1,1
;   temperatureSetpointTemperatures,245,60
;   temperatureStabilizeAtStartup,1,1
;   temperatureHeatedBed,0,1
;   temperatureRelayBetweenLayers,1,0
;   temperatureRelayBetweenLoops,1,0
;   fanLayers,1,3
;   fanSpeeds,0,40
;   blipFanToFullPower,0
;   adjustSpeedForCooling,1
;   minSpeedLayerTime,15
;   minCoolingSpeedSlowdown,20
;   increaseFanForCooling,1
;   minFanLayerTime,45
;   maxCoolingFanSpeed,100
;   increaseFanForBridging,1
;   bridgingFanSpeed,100
;   use5D,1
;   relativeEdistances,0
;   allowEaxisZeroing,1
;   independentExtruderAxes,0
;   includeM10123,0
;   stickySupport,1
;   applyToolheadOffsets,0
;   gcodeXoffset,0
;   gcodeYoffset,0
;   gcodeZoffset,0
;   overrideMachineDefinition,0
;   machineTypeOverride,0
;   strokeXoverride,100
;   strokeYoverride,100
;   strokeZoverride,100
;   originOffsetXoverride,0
;   originOffsetYoverride,0
;   originOffsetZoverride,0
;   homeXdirOverride,-1
;   homeYdirOverride,-1
;   homeZdirOverride,-1
;   flipXoverride,1
;   flipYoverride,-1
;   flipZoverride,1
;   toolheadOffsets,0,0|0,0|0,0|0,0|0,0|0,0
;   overrideFirmwareConfiguration,0
;   firmwareTypeOverride,RepRap (Marlin/Repetier/Sprinter)
;   GPXconfigOverride,r2
;   baudRateOverride,115200
;   overridePrinterModels,0
;   printerModelsOverride
;   startingGcode,G28  ; Home all,;M208S7; DISABLE THE PROBE,;G1 Z5; probe z clearance,;G1 X0 Y0; ,;M280S3; Enable the probe,;G32; probe the grid,;M374; save the grid,;G1 Z20 ; Set Z20 for ooze
;   layerChangeGcode,
;   retractionGcode,
;   toolChangeGcode,
;   endingGcode,G10 S2.5; retract filament to relieve pressure,M104 S0 ; turn off extruder,M140 S0 ; turn off bed,G91 G1 Z10 ; Clearance from part,G90 G1 X0 Y0 Z170 ; Go to starting position (X0 Y0 Z 170),;M84 ; disable motor,M107; Turn off fan
;   exportFileFormat,gcode
;   celebration,0
;   celebrationSong,Random Song
;   postProcessing,
;   defaultSpeed,2400
;   outlineUnderspeed,0.8
;   solidInfillUnderspeed,1
;   supportUnderspeed,1
;   rapidXYspeed,9000
;   rapidZspeed,1800
;   minBridgingArea,10
;   bridgingExtraInflation,5
;   bridgingExtrusionMultiplier,0.9
;   bridgingSpeedMultiplier,0.6
;   useFixedBridgingAngle,0
;   fixedBridgingAngle,0
;   applyBridgingToPerimeters,1
;   filamentDiameters,1.75|1.75|1.75|1.75|1.75|1.75
;   filamentPricesPerKg,12|46|46|46|46|46
;   filamentDensities,1.33|1.25|1.25|1.25|1.25|1.25
;   useMinPrintHeight,0
;   minPrintHeight,0
;   useMaxPrintHeight,0
;   maxPrintHeight,2.75
;   useDiaphragm,0
;   diaphragmLayerInterval,20
;   robustSlicing,1
;   mergeAllIntoSolid,0
;   onlyRetractWhenCrossingOutline,1
;   retractBetweenLayers,0
;   useRetractionMinTravel,0
;   retractionMinTravel,3
;   retractWhileWiping,1
;   onlyWipeOutlines,1
;   avoidCrossingOutline,0
;   maxMovementDetourFactor,3
;   toolChangeRetractionDistance,12
;   toolChangeExtraRestartDistance,-0.5
;   toolChangeRetractionSpeed,600
;   externalThinWallType,1
;   internalThinWallType,1
;   thinWallAllowedOverlapPercentage,10
;   singleExtrusionMinLength,1
;   singleExtrusionMinPrintingWidthPercentage,50
;   singleExtrusionMaxPrintingWidthPercentage,200
;   singleExtrusionEndpointExtension,0.2
;   horizontalSizeCompensation,0
G90
M82
M106 S0
M140 S60
M190 S60
M104 S245 T0
M109 S245 T0
G28  ; Home all
;M208S7; DISABLE THE PROBE
;G1 Z5; probe z clearance
;G1 X0 Y0; 
;M280S3; Enable the probe
;G32; probe the grid
;M374; save the grid
;G1 Z20 ; Set Z20 for ooze
G92 E0
G1 E-1.2000 F6000
G1 Z0.188 F1800
; process Run1
; layer 1, Z = 0.188
M105
T0
; tool H0.188 W0.600
; skirt
G1 X13.560 Y58.906 F9000
G1 E0.0000 F1800
G92 E0
G1 X31.085 Y58.906 E0.8689 F1800
G1 X31.346 Y58.645 E0.8872
G1 X31.677 Y58.508 E0.9049
G1 X49.520 Y58.508 E1.7896
G1 X49.851 Y58.645 E1.8073
G1 X50.094 Y58.888 E1.8244
G1 X50.735 Y58.247 E1.8693
G1 X51.066 Y58.110 E1.8871
G1 X68.909 Y58.110 E2.7717
G1 X69.240 Y58.247 E2.7895
G1 X69.828 Y58.834 E2.8307
G1 X70.415 Y58.247 E2.8719
G1 X70.746 Y58.110 E2.8896
G1 X88.536 Y58.110 E3.7716
G1 X88.639 Y58.007 E3.7788
G1 X88.970 Y57.870 E3.7966
G1 X106.666 Y57.870 E4.6739
G1 X106.728 Y57.808 E4.6783
G1 X107.059 Y57.671 E4.6960
G1 X123.668 Y57.671 E5.5195
G1 X124.327 Y57.012 E5.5657
G1 X124.657 Y56.875 E5.5834
G1 X142.501 Y56.875 E6.4681
G1 X142.831 Y57.012 E6.4858
G1 X143.234 Y57.415 E6.5141
G1 X143.240 Y57.410 E6.5144
G1 X143.570 Y57.273 E6.5322
G1 X161.414 Y57.273 E7.4168
G1 X161.744 Y57.410 E7.4346
G1 X163.755 Y59.421 E7.5755
G1 X163.892 Y59.751 E7.5933
G1 X163.892 Y102.595 E9.7174
G1 X163.755 Y102.926 E9.7351
G1 X161.744 Y104.936 E9.8761
G1 X161.414 Y105.073 E9.8939
G1 X143.570 Y105.073 E10.7785
G1 X143.240 Y104.936 E10.7962
G1 X142.837 Y104.533 E10.8245
G1 X142.831 Y104.538 E10.8249
G1 X142.501 Y104.675 E10.8426
G1 X125.892 Y104.675 E11.6661
G1 X125.233 Y105.334 E11.7122
G1 X124.902 Y105.471 E11.7300
G1 X107.206 Y105.471 E12.6073
G1 X107.144 Y105.533 E12.6117
G1 X106.813 Y105.670 E12.6294
G1 X89.023 Y105.670 E13.5114
G1 X88.920 Y105.773 E13.5187
G1 X88.589 Y105.910 E13.5364
G1 X70.746 Y105.910 E14.4210
G1 X70.415 Y105.773 E14.4388
G1 X69.828 Y105.185 E14.4800
G1 X69.240 Y105.773 E14.5212
G1 X68.909 Y105.910 E14.5390
G1 X51.066 Y105.910 E15.4236
G1 X50.735 Y105.773 E15.4414
G1 X50.492 Y105.530 E15.4584
G1 X49.851 Y106.171 E15.5033
G1 X49.520 Y106.308 E15.5211
G1 X31.995 Y106.308 E16.3900
G1 X31.734 Y106.569 E16.4083
G1 X31.403 Y106.706 E16.4260
G1 X13.560 Y106.706 E17.3107
G1 X13.229 Y106.569 E17.3284
G1 X11.218 Y104.558 E17.4694
G1 X11.081 Y104.227 E17.4871
G1 X11.081 Y61.824 E19.5894
G1 X11.081 Y61.384 F1800
G1 X11.218 Y61.053 F1800
G1 X13.229 Y59.043 F1800
G1 X13.560 Y58.906 F1800
G1 X13.679 Y59.506 F9000
G92 E0
G1 X31.284 Y59.506 E0.8728 F1800
G1 X31.319 Y59.520 E0.8747
G1 X31.686 Y59.153 E0.9004
G1 X31.796 Y59.108 E0.9064
G1 X49.401 Y59.108 E1.7792
G1 X49.511 Y59.153 E1.7851
G1 X50.094 Y59.736 E1.8260
G1 X51.075 Y58.755 E1.8947
G1 X51.185 Y58.710 E1.9006
G1 X68.790 Y58.710 E2.7735
G1 X68.900 Y58.755 E2.7794
G1 X69.828 Y59.683 E2.8444
G1 X70.755 Y58.755 E2.9094
G1 X70.866 Y58.710 E2.9154
G1 X88.470 Y58.710 E3.7882
G1 X88.580 Y58.755 E3.7941
G1 X88.660 Y58.835 E3.7997
G1 X88.979 Y58.516 E3.8220
G1 X89.089 Y58.470 E3.8280
G1 X106.694 Y58.470 E4.7008
G1 X106.804 Y58.516 E4.7067
G1 X106.837 Y58.548 E4.7089
G1 X107.068 Y58.317 E4.7252
G1 X107.178 Y58.271 E4.7311
G1 X123.916 Y58.271 E5.5609
G1 X124.666 Y57.521 E5.6135
G1 X124.777 Y57.475 E5.6194
G1 X142.381 Y57.475 E6.4923
G1 X142.492 Y57.521 E6.4982
G1 X143.234 Y58.264 E6.5503
G1 X143.579 Y57.919 E6.5744
G1 X143.690 Y57.873 E6.5804
G1 X161.294 Y57.873 E7.4532
G1 X161.405 Y57.919 E7.4591
G1 X163.246 Y59.761 E7.5882
G1 X163.292 Y59.871 E7.5941
G1 X163.292 Y102.475 E9.7064
G1 X163.246 Y102.586 E9.7123
G1 X161.405 Y104.427 E9.8415
G1 X161.294 Y104.473 E9.8474
G1 X143.690 Y104.473 E10.7202
G1 X143.579 Y104.427 E10.7261
G1 X142.837 Y103.685 E10.7782
G1 X142.492 Y104.030 E10.8024
G1 X142.381 Y104.075 E10.8083
G1 X125.643 Y104.075 E11.6381
G1 X124.893 Y104.825 E11.6907
G1 X124.783 Y104.871 E11.6966
G1 X107.178 Y104.871 E12.5695
G1 X107.068 Y104.825 E12.5754
G1 X107.036 Y104.793 E12.5776
G1 X106.804 Y105.024 E12.5939
G1 X106.694 Y105.070 E12.5998
G1 X89.089 Y105.070 E13.4726
G1 X88.979 Y105.024 E13.4785
G1 X88.900 Y104.945 E13.4841
G1 X88.580 Y105.264 E13.5065
G1 X88.470 Y105.310 E13.5124
G1 X70.866 Y105.310 E14.3852
G1 X70.755 Y105.264 E14.3911
G1 X69.828 Y104.337 E14.4561
G1 X68.900 Y105.264 E14.5212
G1 X68.790 Y105.310 E14.5271
G1 X51.185 Y105.310 E15.3999
G1 X51.075 Y105.264 E15.4058
G1 X50.492 Y104.681 E15.4467
G1 X49.511 Y105.662 E15.5155
G1 X49.401 Y105.708 E15.5214
G1 X31.796 Y105.708 E16.3942
G1 X31.761 Y105.693 E16.3961
G1 X31.394 Y106.060 E16.4218
G1 X31.284 Y106.106 E16.4277
G1 X13.679 Y106.106 E17.3005
G1 X13.569 Y106.060 E17.3065
G1 X11.727 Y104.218 E17.4356
G1 X11.681 Y104.108 E17.4415
G1 X11.681 Y62.660 E19.4964
G1 X11.681 Y61.503 F1800
G1 X11.727 Y61.393 F1800
G1 X13.569 Y59.551 F1800
G1 X13.679 Y59.506 F1800
G92 E0
G1 E-1.2000 F6000
; outer perimeter
G1 X15.281 Y63.106 F9000
G1 E0.0000 F6000
G92 E0
G1 X29.681 Y63.106 E0.7139 F1440
G1 X29.681 Y102.506 E2.6673
G1 X15.281 Y102.506 E3.3812
G1 X15.281 Y67.106 E5.1363
G1 X15.281 Y63.106 F1440
G1 X19.281 Y63.106 F2400
; inner perimeter
G1 X15.881 Y63.706 F9000
G92 E0
G1 X29.081 Y63.706 E0.6544 F1620
G1 X29.081 Y101.906 E2.5483
G1 X15.881 Y101.906 E3.2028
G1 X15.881 Y67.706 E4.8983
G1 X15.881 Y63.706 F1620
G1 X16.481 Y64.306 F9000
G92 E0
G1 X28.481 Y64.306 E0.5949 F1620
G1 X28.481 Y101.306 E2.4293
G1 X16.481 Y101.306 E3.0243
G1 X16.481 Y68.306 E4.6604
G1 X16.481 Y64.306 F1620
G1 X17.081 Y64.906 F9000
G92 E0
G1 X27.881 Y64.906 E0.5354 F1620
G1 X27.881 Y100.706 E2.3104
G1 X17.081 Y100.706 E2.8458
G1 X17.081 Y68.906 E4.4224
G1 X17.081 Y64.906 F1620
; solid layer
G1 X26.868 Y65.296 F9000
G92 E0
G1 X27.491 Y65.919 E0.0437 F1800
G1 X27.491 Y66.767 E0.0858
G1 X26.020 Y65.296 E0.1889
G1 X25.171 Y65.296 E0.2310
G1 X27.491 Y67.616 E0.3937
G1 X27.491 Y68.464 E0.4357
G1 X24.323 Y65.296 E0.6579
G1 X23.474 Y65.296 E0.7000
G1 X27.491 Y69.313 E0.9816
G1 X27.491 Y70.161 E1.0237
G1 X22.626 Y65.296 E1.3648
G1 X21.777 Y65.296 E1.4069
G1 X27.491 Y71.010 E1.8076
G1 X27.491 Y71.858 E1.8496
G1 X20.929 Y65.296 E2.3098
G1 X20.080 Y65.296 E2.3518
G1 X27.491 Y72.707 E2.8715
G1 X27.491 Y73.555 E2.9135
G1 X19.232 Y65.296 E3.4927
G1 X18.383 Y65.296 E3.5347
G1 X27.491 Y74.404 E4.1734
G1 X27.491 Y75.252 E4.2154
G1 X17.535 Y65.296 E4.9136
G1 X17.471 Y65.296 E4.9167
G1 X17.471 Y66.081 E4.9556
G1 X27.491 Y76.101 E5.6582
G1 X27.491 Y76.949 E5.7002
G1 X17.471 Y66.929 E6.4028
G1 X17.471 Y67.778 E6.4449
G1 X27.491 Y77.798 E7.1474
G1 X27.491 Y78.646 E7.1895
G1 X17.471 Y68.626 E7.8920
G1 X17.471 Y69.475 E7.9341
G1 X27.491 Y79.495 E8.6366
G1 X27.491 Y80.344 E8.6787
G1 X17.471 Y70.324 E9.3812
G1 X17.471 Y71.172 E9.4233
G1 X27.491 Y81.192 E10.1259
G1 X27.491 Y82.041 E10.1679
G1 X17.471 Y72.021 E10.8705
G1 X17.471 Y72.869 E10.9125
G1 X27.491 Y82.889 E11.6151
G1 X27.491 Y83.738 E11.6572
G1 X17.471 Y73.718 E12.3597
G1 X17.471 Y74.566 E12.4018
G1 X27.491 Y84.586 E13.1043
G1 X27.491 Y85.435 E13.1464
G1 X17.471 Y75.415 E13.8489
G1 X17.471 Y76.263 E13.8910
G1 X27.491 Y86.283 E14.5936
G1 X27.491 Y87.132 E14.6356
G1 X17.471 Y77.112 E15.3382
G1 X17.471 Y77.960 E15.3802
G1 X27.491 Y87.980 E16.0828
G1 X27.491 Y88.829 E16.1249
G1 X17.471 Y78.809 E16.8274
G1 X17.471 Y79.657 E16.8695
G1 X27.491 Y89.677 E17.5720
G1 X27.491 Y90.526 E17.6141
G1 X17.471 Y80.506 E18.3166
G1 X17.471 Y81.354 E18.3587
G1 X27.491 Y91.374 E19.0612
G1 X27.491 Y92.223 E19.1033
G1 X17.471 Y82.203 E19.8059
G1 X17.471 Y83.051 E19.8479
G1 X27.491 Y93.071 E20.5505
G1 X27.491 Y93.920 E20.5925
G1 X17.471 Y83.900 E21.2951
G1 X17.471 Y84.748 E21.3372
G1 X27.491 Y94.768 E22.0397
G1 X27.491 Y95.617 E22.0818
G1 X17.471 Y85.597 E22.7843
G1 X17.471 Y86.446 E22.8264
G1 X27.491 Y96.466 E23.5289
G1 X27.491 Y97.314 E23.5710
G1 X17.471 Y87.294 E24.2736
G1 X17.471 Y88.143 E24.3156
G1 X27.491 Y98.163 E25.0182
G1 X27.491 Y99.011 E25.0602
G1 X17.471 Y88.991 E25.7628
G1 X17.471 Y89.840 E25.8048
G1 X27.491 Y99.860 E26.5074
G1 X27.491 Y100.316 E26.5300
G1 X27.099 Y100.316 E26.5495
G1 X17.471 Y90.688 E27.2245
G1 X17.471 Y91.537 E27.2665
G1 X26.250 Y100.316 E27.8821
G1 X25.402 Y100.316 E27.9241
G1 X17.471 Y92.385 E28.4802
G1 X17.471 Y93.234 E28.5222
G1 X24.553 Y100.316 E29.0188
G1 X23.705 Y100.316 E29.0608
G1 X17.471 Y94.082 E29.4979
G1 X17.471 Y94.931 E29.5399
G1 X22.856 Y100.316 E29.9175
G1 X22.008 Y100.316 E29.9596
G1 X17.471 Y95.779 E30.2776
G1 X17.471 Y96.628 E30.3197
G1 X21.159 Y100.316 E30.5782
G1 X20.310 Y100.316 E30.6203
G1 X17.471 Y97.476 E30.8194
G1 X17.471 Y98.325 E30.8614
G1 X19.269 Y100.123 E30.9875
G1 X19.462 Y100.316 F1800
G1 X18.613 Y100.316 F1800
G1 X17.471 Y99.173 F1800
G1 X17.471 Y100.022 F1800
G1 X17.765 Y100.316 F1800
G92 E0
G1 E-1.2000 F6000
; process Run2
; layer 2, Z = 0.188
M105
; outer perimeter
G1 X33.399 Y102.108 F9000
G1 E-1.0000 F6000
G92 E0
G1 X33.399 Y62.708 E1.9534 F1440
G1 X47.799 Y62.708 E2.6673
G1 X47.799 Y102.108 E4.6207
G1 X34.799 Y102.108 E5.2652
G1 X33.399 Y102.108 F1440
G1 X33.399 Y101.108 F2400
; inner perimeter
G1 X33.999 Y101.508 F9000
G92 E0
G1 X33.999 Y63.308 E1.8939 F1620
G1 X47.199 Y63.308 E2.5483
G1 X47.199 Y101.508 E4.4422
G1 X35.399 Y101.508 E5.0272
G1 X33.999 Y101.508 F1620
G1 X34.599 Y100.908 F9000
G92 E0
G1 X34.599 Y63.908 E1.8344 F1620
G1 X46.599 Y63.908 E2.4293
G1 X46.599 Y100.908 E4.2637
G1 X35.999 Y100.908 E4.7893
G1 X34.599 Y100.908 F1620
G1 X35.199 Y100.308 F9000
G92 E0
G1 X35.199 Y64.508 E1.7749 F1620
G1 X45.999 Y64.508 E2.3104
G1 X45.999 Y100.308 E4.0853
G1 X36.599 Y100.308 E4.5513
G1 X35.199 Y100.308 F1620
; solid layer
G1 X36.035 Y99.918 F9000
G92 E0
G1 X35.589 Y99.472 E0.0313 F1800
G1 X35.589 Y98.623 E0.0733
G1 X36.883 Y99.918 E0.1641
G1 X37.732 Y99.918 E0.2062
G1 X35.589 Y97.775 E0.3564
G1 X35.589 Y96.926 E0.3985
G1 X38.580 Y99.918 E0.6083
G1 X39.429 Y99.918 E0.6503
G1 X35.589 Y96.078 E0.9196
G1 X35.589 Y95.229 E0.9616
G1 X40.277 Y99.918 E1.2904
G1 X41.126 Y99.918 E1.3325
G1 X35.589 Y94.380 E1.7207
G1 X35.589 Y93.532 E1.7628
G1 X41.974 Y99.918 E2.2105
G1 X42.823 Y99.918 E2.2526
G1 X35.589 Y92.683 E2.7598
G1 X35.589 Y91.835 E2.8019
G1 X43.671 Y99.918 E3.3686
G1 X44.520 Y99.918 E3.4106
G1 X35.589 Y90.986 E4.0369
G1 X35.589 Y90.138 E4.0789
G1 X45.368 Y99.918 E4.7646
G1 X45.609 Y99.918 E4.7765
G1 X45.609 Y99.309 E4.8067
G1 X35.589 Y89.289 E5.5092
G1 X35.589 Y88.441 E5.5513
G1 X45.609 Y98.461 E6.2539
