; G-Code generated by Simplify3D(R) Version 4.0.0
; Feb 26, 2018 at 6:52:09 PM
; Settings Summary
;   processName,Basic 
;   applyToModels,Secondary Cage,57655K340_PLASTIC GEAR--14-.5 DEG PRESSURE ANGLE,57655K430_PLASTIC GEAR--14-.5 DEG PRESSURE ANGLE
;   profileName,BortBot (modified)
;   profileVersion,2017-10-07 14:50:40
;   baseProfile,Default
;   printMaterial,PLA
;   printQuality,Medium
;   printExtruders,
;   extruderName,Extruder 1
;   extruderToolheadNumber,0
;   extruderDiameter,0.4
;   extruderAutoWidth,1
;   extruderWidth,0.48
;   extrusionMultiplier,1.06
;   extruderUseRetract,1
;   extruderRetractionDistance,2.8
;   extruderExtraRestartDistance,0.4
;   extruderRetractionZLift,0
;   extruderRetractionSpeed,6000
;   extruderUseCoasting,0
;   extruderCoastingDistance,0.2
;   extruderUseWipe,0
;   extruderWipeDistance,5
;   primaryExtruder,0
;   layerHeight,0.3
;   topSolidLayers,3
;   bottomSolidLayers,3
;   perimeterOutlines,2
;   printPerimetersInsideOut,0
;   startPointOption,2
;   startPointOriginX,0
;   startPointOriginY,0
;   sequentialIslands,0
;   spiralVaseMode,0
;   firstLayerHeightPercentage,100
;   firstLayerWidthPercentage,100
;   firstLayerUnderspeed,0.4
;   useRaft,0
;   raftExtruder,0
;   raftTopLayers,2
;   raftBaseLayers,2
;   raftOffset,3
;   raftSeparationDistance,0.3
;   raftTopInfill,90
;   aboveRaftSpeedMultiplier,0.3
;   useSkirt,1
;   skirtExtruder,0
;   skirtLayers,1
;   skirtOutlines,2
;   skirtOffset,2.4
;   usePrimePillar,0
;   primePillarExtruder,999
;   primePillarWidth,12
;   primePillarLocation,7
;   primePillarSpeedMultiplier,1
;   useOozeShield,0
;   oozeShieldExtruder,999
;   oozeShieldOffset,2
;   oozeShieldOutlines,1
;   oozeShieldSidewallShape,1
;   oozeShieldSidewallAngle,30
;   oozeShieldSpeedMultiplier,1
;   infillExtruder,0
;   internalInfillPattern,Triangular
;   externalInfillPattern,Rectilinear
;   infillPercentage,57
;   outlineOverlapPercentage,35
;   infillExtrusionWidthPercentage,100
;   minInfillLength,5
;   infillLayerInterval,1
;   internalInfillAngles,0,60,-60
;   overlapInternalInfillAngles,1
;   externalInfillAngles,45,-45
;   generateSupport,1
;   supportExtruder,0
;   supportInfillPercentage,30
;   supportExtraInflation,0
;   supportBaseLayers,0
;   denseSupportExtruder,0
;   denseSupportLayers,0
;   denseSupportInfillPercentage,70
;   supportLayerInterval,1
;   supportHorizontalPartOffset,0.3
;   supportUpperSeparationLayers,1
;   supportLowerSeparationLayers,1
;   supportType,0
;   supportGridSpacing,4
;   maxOverhangAngle,45
;   supportAngles,0
;   temperatureName,Extruder 1
;   temperatureNumber,0
;   temperatureSetpointCount,1
;   temperatureSetpointLayers,1
;   temperatureSetpointTemperatures,200
;   temperatureStabilizeAtStartup,1
;   temperatureHeatedBed,0
;   temperatureRelayBetweenLayers,1
;   temperatureRelayBetweenLoops,1
;   fanLayers,1,3
;   fanSpeeds,0,60
;   blipFanToFullPower,1
;   adjustSpeedForCooling,1
;   minSpeedLayerTime,15
;   minCoolingSpeedSlowdown,20
;   increaseFanForCooling,0
;   minFanLayerTime,45
;   maxCoolingFanSpeed,100
;   increaseFanForBridging,0
;   bridgingFanSpeed,100
;   use5D,1
;   relativeEdistances,0
;   allowEaxisZeroing,1
;   independentExtruderAxes,0
;   includeM10123,0
;   stickySupport,1
;   applyToolheadOffsets,0
;   gcodeXoffset,0
;   gcodeYoffset,0
;   gcodeZoffset,0
;   overrideMachineDefinition,0
;   machineTypeOverride,0
;   strokeXoverride,100
;   strokeYoverride,100
;   strokeZoverride,100
;   originOffsetXoverride,0
;   originOffsetYoverride,0
;   originOffsetZoverride,0
;   homeXdirOverride,-1
;   homeYdirOverride,-1
;   homeZdirOverride,-1
;   flipXoverride,1
;   flipYoverride,-1
;   flipZoverride,1
;   toolheadOffsets,0,0|0,0|0,0|0,0|0,0|0,0
;   overrideFirmwareConfiguration,0
;   firmwareTypeOverride,RepRap (Marlin/Repetier/Sprinter)
;   GPXconfigOverride,r2
;   baudRateOverride,115200
;   overridePrinterModels,0
;   printerModelsOverride
;   startingGcode,;G28  ; Home all,;M208S7; DISABLE THE PROBE,;G1 Z5; probe z clearance,;G1 X0 Y0; ,;M280S3; Enable the probe,;G32; probe the grid,;M374; save the grid,;G1 Z20 ; Set Z20 for ooze
;   layerChangeGcode,
;   retractionGcode,
;   toolChangeGcode,
;   endingGcode,M104 S0 ; turn off extruder,M140 S0 ; turn off bed,G91 G1 Z10 ; Clearance from part,G90 G1 X0 Y0 Z118 ; Go to starting position (X0 Y0 Z 122),M84 ; disable motor
;   exportFileFormat,gcode
;   celebration,0
;   celebrationSong,Random Song
;   postProcessing,
;   defaultSpeed,3000
;   outlineUnderspeed,0.65
;   solidInfillUnderspeed,0.8
;   supportUnderspeed,0.8
;   rapidXYspeed,3600
;   rapidZspeed,1002
;   minBridgingArea,50
;   bridgingExtraInflation,0
;   bridgingExtrusionMultiplier,1
;   bridgingSpeedMultiplier,1
;   useFixedBridgingAngle,0
;   fixedBridgingAngle,0
;   applyBridgingToPerimeters,0
;   filamentDiameters,1.75|1.75|1.75|1.75|1.75|1.75
;   filamentPricesPerKg,46|46|46|46|46|46
;   filamentDensities,1.27|1.25|1.25|1.25|1.25|1.25
;   useMinPrintHeight,0
;   minPrintHeight,0
;   useMaxPrintHeight,0
;   maxPrintHeight,0
;   useDiaphragm,0
;   diaphragmLayerInterval,20
;   robustSlicing,1
;   mergeAllIntoSolid,0
;   onlyRetractWhenCrossingOutline,1
;   retractBetweenLayers,1
;   useRetractionMinTravel,0
;   retractionMinTravel,3
;   retractWhileWiping,0
;   onlyWipeOutlines,1
;   avoidCrossingOutline,0
;   maxMovementDetourFactor,3
;   toolChangeRetractionDistance,12
;   toolChangeExtraRestartDistance,-0.5
;   toolChangeRetractionSpeed,600
;   externalThinWallType,0
;   internalThinWallType,2
;   thinWallAllowedOverlapPercentage,10
;   singleExtrusionMinLength,1
;   singleExtrusionMinPrintingWidthPercentage,50
;   singleExtrusionMaxPrintingWidthPercentage,200
;   singleExtrusionEndpointExtension,0.2
;   horizontalSizeCompensation,0
G90
M82
M106 S255
G4 P500
M106 S0
M104 S200 T0
M109 S200 T0
;G28  ; Home all
;M208S7; DISABLE THE PROBE
;G1 Z5; probe z clearance
;G1 X0 Y0; 
;M280S3; Enable the probe
;G32; probe the grid
;M374; save the grid
;G1 Z20 ; Set Z20 for ooze
G92 E0
G1 E-2.8000 F6000
G1 Z0.300 F1002
; process Basic 
; layer 1, Z = 0.300
M105
T0
; tool H0.300 W0.480
; skirt
G1 X59.721 Y68.701 F3600
G1 E0.4000 F1800
G92 E0
G1 X59.789 Y68.694 E0.0044 F1200
G1 X59.814 Y68.629 E0.0088
G1 X59.960 Y68.450 E0.0234
G1 X62.163 Y67.047 E0.1892
G1 X62.387 Y66.990 E0.2039
G1 X62.456 Y66.995 E0.2083
G1 X62.492 Y66.935 E0.2126
G1 X62.667 Y66.784 E0.2273
G1 X65.080 Y65.785 E0.3931
G1 X65.311 Y65.768 E0.4078
G1 X65.378 Y65.784 E0.4121
G1 X65.423 Y65.732 E0.4165
G1 X65.622 Y65.614 E0.4312
G1 X68.172 Y65.049 E0.5970
G1 X68.402 Y65.072 E0.6116
G1 X68.465 Y65.100 E0.6160
G1 X68.519 Y65.057 E0.6204
G1 X68.735 Y64.975 E0.6351
G1 X71.345 Y64.861 E0.8008
G1 X71.567 Y64.923 E0.8155
G1 X71.624 Y64.962 E0.8199
G1 X71.685 Y64.929 E0.8243
G1 X71.912 Y64.885 E0.8390
G1 X74.502 Y65.226 E1.0047
G1 X74.710 Y65.327 E1.0194
G1 X74.760 Y65.375 E1.0238
G1 X74.825 Y65.352 E1.0282
G1 X75.056 Y65.349 E1.0428
G1 X77.547 Y66.135 E1.2086
G1 X77.735 Y66.270 E1.2233
G1 X77.776 Y66.326 E1.2277
G1 X77.844 Y66.315 E1.2320
G1 X78.072 Y66.352 E1.2467
G1 X80.389 Y67.558 E1.4125
G1 X80.550 Y67.724 E1.4272
G1 X80.581 Y67.786 E1.4315
G1 X80.650 Y67.787 E1.4359
G1 X80.868 Y67.863 E1.4506
G1 X82.940 Y69.453 E1.6164
G1 X83.070 Y69.645 E1.6310
G1 X83.089 Y69.711 E1.6354
G1 X83.157 Y69.724 E1.6398
G1 X83.191 Y69.743 E1.6423
G1 X83.051 Y69.233 E1.6758
G1 X83.054 Y69.030 E1.6888
G1 X83.723 Y66.826 E1.8349
G1 X83.835 Y66.653 E1.8480
G1 X84.370 Y66.194 E1.8927
G1 X84.459 Y65.488 E1.9379
G1 X84.539 Y65.301 E1.9508
G1 X86.001 Y63.520 E2.0970
G1 X86.170 Y63.404 E2.1100
G1 X86.841 Y63.185 E2.1548
G1 X87.193 Y62.566 E2.2000
G1 X87.339 Y62.424 E2.2129
G1 X89.370 Y61.338 E2.3591
G1 X89.571 Y61.296 E2.3721
G1 X90.275 Y61.350 E2.4169
G1 X90.837 Y60.913 E2.4621
G1 X91.026 Y60.837 E2.4750
G1 X93.318 Y60.612 E2.6212
G1 X93.520 Y60.650 E2.6342
G1 X94.149 Y60.969 E2.6790
G1 X94.836 Y60.780 E2.7241
G1 X95.040 Y60.783 E2.7371
G1 X97.244 Y61.451 E2.8832
G1 X97.416 Y61.564 E2.8963
G1 X97.875 Y62.099 E2.9410
G1 X98.581 Y62.188 E2.9862
G1 X98.769 Y62.268 E2.9992
G1 X100.549 Y63.729 E3.1453
G1 X100.665 Y63.899 E3.1584
G1 X100.884 Y64.570 E3.2031
G1 X101.503 Y64.922 E3.2483
G1 X101.645 Y65.068 E3.2612
G1 X102.731 Y67.099 E3.4074
G1 X102.773 Y67.300 E3.4204
G1 X102.719 Y68.003 E3.4652
G1 X103.156 Y68.566 E3.5104
G1 X103.232 Y68.755 E3.5233
G1 X103.457 Y71.047 E3.6695
G1 X103.419 Y71.249 E3.6825
G1 X103.101 Y71.878 E3.7273
G1 X103.289 Y72.565 E3.7725
G1 X103.286 Y72.769 E3.7854
G1 X102.618 Y74.972 E3.9316
G1 X102.505 Y75.145 E3.9446
G1 X101.970 Y75.604 E3.9894
G1 X101.881 Y76.310 E4.0345
G1 X101.801 Y76.497 E4.0475
G1 X100.340 Y78.278 E4.1936
G1 X100.170 Y78.394 E4.2067
G1 X99.500 Y78.613 E4.2514
G1 X99.148 Y79.232 E4.2966
G1 X99.001 Y79.374 E4.3096
G1 X96.970 Y80.460 E4.4557
G1 X96.769 Y80.502 E4.4688
G1 X96.066 Y80.448 E4.5135
G1 X95.504 Y80.885 E4.5587
G1 X95.314 Y80.961 E4.5716
G1 X93.022 Y81.186 E4.7178
G1 X92.820 Y81.148 E4.7309
G1 X92.191 Y80.829 E4.7756
G1 X91.504 Y81.018 E4.8208
G1 X91.301 Y81.015 E4.8337
G1 X89.097 Y80.347 E4.9799
G1 X88.925 Y80.234 E4.9929
G1 X88.795 Y80.083 E5.0056
G1 X88.871 Y80.425 E5.0278
G1 X88.848 Y80.656 E5.0425
G1 X88.820 Y80.719 E5.0469
G1 X88.863 Y80.772 E5.0512
G1 X88.945 Y80.989 E5.0659
G1 X89.059 Y83.598 E5.2317
G1 X88.996 Y83.821 E5.2464
G1 X88.958 Y83.878 E5.2507
G1 X88.991 Y83.938 E5.2551
G1 X89.034 Y84.166 E5.2698
G1 X88.693 Y86.755 E5.4356
G1 X88.593 Y86.963 E5.4502
G1 X88.545 Y87.013 E5.4546
G1 X88.567 Y87.078 E5.4590
G1 X88.570 Y87.310 E5.4737
G1 X87.785 Y89.801 E5.6394
G1 X87.650 Y89.989 E5.6541
G1 X87.594 Y90.029 E5.6585
G1 X87.605 Y90.097 E5.6629
G1 X87.568 Y90.326 E5.6776
G1 X86.361 Y92.642 E5.8433
G1 X86.196 Y92.804 E5.8580
G1 X86.134 Y92.834 E5.8624
G1 X86.132 Y92.903 E5.8668
G1 X86.056 Y93.122 E5.8814
G1 X84.466 Y95.194 E6.0472
G1 X84.275 Y95.324 E6.0619
G1 X84.209 Y95.343 E6.0663
G1 X84.195 Y95.411 E6.0706
G1 X84.082 Y95.613 E6.0853
G1 X82.157 Y97.377 E6.2511
G1 X81.946 Y97.472 E6.2658
G1 X81.877 Y97.479 E6.2701
G1 X81.852 Y97.544 E6.2745
G1 X81.706 Y97.723 E6.2892
G1 X79.503 Y99.126 E6.4550
G1 X79.279 Y99.183 E6.4696
G1 X79.210 Y99.178 E6.4740
G1 X79.174 Y99.238 E6.4784
G1 X78.999 Y99.389 E6.4931
G1 X76.586 Y100.388 E6.6588
G1 X76.355 Y100.405 E6.6735
G1 X76.288 Y100.389 E6.6779
G1 X76.243 Y100.441 E6.6823
G1 X76.044 Y100.559 E6.6970
G1 X73.494 Y101.124 E6.8627
G1 X73.264 Y101.101 E6.8774
G1 X73.201 Y101.073 E6.8818
G1 X73.147 Y101.117 E6.8862
G1 X72.931 Y101.199 E6.9008
G1 X70.322 Y101.312 E7.0666
G1 X70.099 Y101.250 E7.0813
G1 X70.042 Y101.211 E7.0857
G1 X69.981 Y101.245 E7.0900
G1 X69.754 Y101.288 E7.1047
G1 X67.165 Y100.947 E7.2705
G1 X66.956 Y100.846 E7.2852
G1 X66.907 Y100.798 E7.2895
G1 X66.841 Y100.821 E7.2939
G1 X66.610 Y100.824 E7.3086
G1 X64.119 Y100.038 E7.4744
G1 X63.931 Y99.903 E7.4890
G1 X63.891 Y99.847 E7.4934
G1 X63.822 Y99.858 E7.4978
G1 X63.594 Y99.821 E7.5125
G1 X61.277 Y98.615 E7.6782
G1 X61.116 Y98.449 E7.6929
G1 X61.086 Y98.387 E7.6973
G1 X61.017 Y98.386 E7.7017
G1 X60.798 Y98.310 E7.7164
G1 X58.726 Y96.720 E7.8821
G1 X58.596 Y96.528 E7.8968
G1 X58.577 Y96.462 E7.9012
G1 X58.509 Y96.449 E7.9056
G1 X58.307 Y96.336 E7.9202
G1 X56.543 Y94.410 E8.0860
G1 X56.448 Y94.199 E8.1007
G1 X56.440 Y94.131 E8.1051
G1 X56.376 Y94.106 E8.1094
G1 X56.197 Y93.959 E8.1241
G1 X54.793 Y91.757 E8.2899
G1 X54.736 Y91.532 E8.3046
G1 X54.741 Y91.463 E8.3089
G1 X54.682 Y91.428 E8.3133
G1 X54.531 Y91.253 E8.3280
G1 X53.531 Y88.840 E8.4937
G1 X53.514 Y88.609 E8.5084
G1 X53.531 Y88.542 E8.5128
G1 X53.479 Y88.497 E8.5172
G1 X53.361 Y88.298 E8.5319
G1 X52.795 Y85.748 E8.6976
G1 X52.819 Y85.518 E8.7123
G1 X52.847 Y85.454 E8.7167
G1 X52.803 Y85.401 E8.7211
G1 X52.721 Y85.184 E8.7358
G1 X52.607 Y82.575 E8.9015
G1 X52.670 Y82.352 E8.9162
G1 X52.709 Y82.295 E8.9206
G1 X52.675 Y82.235 E8.9250
G1 X52.632 Y82.007 E8.9396
G1 X52.973 Y79.418 E9.1054
G1 X53.073 Y79.210 E9.1201
G1 X53.121 Y79.160 E9.1245
G1 X53.099 Y79.095 E9.1288
G1 X53.096 Y78.863 E9.1435
G1 X53.881 Y76.372 E9.3093
G1 X54.016 Y76.185 E9.3240
G1 X54.072 Y76.144 E9.3283
G1 X54.062 Y76.076 E9.3327
G1 X54.099 Y75.847 E9.3474
G1 X55.305 Y73.531 E9.5131
G1 X55.470 Y73.369 E9.5278
G1 X55.533 Y73.339 E9.5322
G1 X55.534 Y73.270 E9.5366
G1 X55.610 Y73.051 E9.5513
G1 X57.200 Y70.979 E9.7170
G1 X57.391 Y70.849 E9.7317
G1 X57.458 Y70.830 E9.7361
G1 X57.471 Y70.762 E9.7405
G1 X57.584 Y70.560 E9.7552
G1 X59.510 Y68.796 E9.9209
G1 X59.721 Y68.701 E9.9356
G92 E0
G1 E-2.8000 F6000
G1 X83.176 Y106.888 F3600
G1 E0.4000 F6000
G92 E0
G1 X89.982 Y102.070 E0.5292 F1200
G1 X96.355 Y96.694 E1.0583
G1 X102.252 Y90.798 E1.5874
G1 X107.628 Y84.424 E2.1166
G1 X112.445 Y77.619 E2.6457
G1 X116.670 Y70.430 E3.1749
G1 X120.271 Y62.910 E3.7040
G1 X123.223 Y55.113 E4.2331
G1 X125.528 Y46.985 E4.7692
G1 X127.101 Y38.908 E5.2914
G1 X127.998 Y30.618 E5.8206
G1 X128.191 Y22.282 E6.3497
G1 X127.678 Y13.959 E6.8789
G1 X126.260 Y4.337 E7.4961
G1 X126.348 Y4.036 E7.5160
G1 X127.989 Y2.135 E7.6754
G1 X128.275 Y2.004 E7.6953
G1 X159.557 Y2.004 E9.6805
G1 X159.805 Y2.099 E9.6973
G1 X161.370 Y3.502 E9.8307
G1 X161.492 Y3.739 E9.8476
G1 X162.674 Y14.483 E10.5335
G1 X162.675 Y14.496 E10.5344
G1 X162.683 Y14.599 E10.5409
G1 X162.683 Y14.612 E10.5418
G1 X163.027 Y24.415 E11.1643
G1 X163.027 Y24.429 E11.1651
G1 X163.027 Y24.532 E11.1717
G1 X163.026 Y24.545 E11.1725
G1 X162.638 Y34.347 E11.7950
G1 X162.637 Y34.360 E11.7959
G1 X162.629 Y34.463 E11.8024
G1 X162.628 Y34.476 E11.8032
G1 X161.513 Y44.208 E12.4248
G1 X161.511 Y44.221 E12.4257
G1 X161.495 Y44.323 E12.4322
G1 X161.493 Y44.336 E12.4331
G1 X159.651 Y53.985 E13.0565
G1 X159.648 Y53.998 E13.0573
G1 X159.625 Y54.098 E13.0639
G1 X159.621 Y54.111 E13.0647
G1 X157.068 Y63.583 E13.6872
G1 X157.064 Y63.596 E13.6881
G1 X157.034 Y63.694 E13.6946
G1 X157.030 Y63.707 E13.6955
G1 X153.778 Y72.961 E14.3180
G1 X153.773 Y72.974 E14.3188
G1 X153.735 Y73.070 E14.3253
G1 X153.730 Y73.082 E14.3262
G1 X149.798 Y82.069 E14.9487
G1 X149.792 Y82.081 E14.9496
G1 X149.747 Y82.173 E14.9561
G1 X149.741 Y82.185 E14.9569
G1 X145.150 Y90.854 E15.5794
G1 X145.144 Y90.866 E15.5803
G1 X145.092 Y90.955 E15.5868
G1 X145.085 Y90.966 E15.5877
G1 X139.861 Y99.269 E16.2102
G1 X139.853 Y99.280 E16.2110
G1 X139.795 Y99.365 E16.2176
G1 X139.788 Y99.376 E16.2184
G1 X133.959 Y107.266 E16.8409
G1 X133.951 Y107.276 E16.8418
G1 X133.887 Y107.357 E16.8483
G1 X133.878 Y107.367 E16.8491
G1 X127.478 Y114.801 E17.4716
G1 X127.469 Y114.811 E17.4725
G1 X127.399 Y114.887 E17.4790
G1 X127.390 Y114.896 E17.4799
G1 X120.461 Y121.825 E18.1017
G1 X120.452 Y121.834 E18.1026
G1 X120.376 Y121.904 E18.1091
G1 X120.366 Y121.913 E18.1099
G1 X112.925 Y128.321 E18.7331
G1 X112.915 Y128.329 E18.7340
G1 X112.834 Y128.394 E18.7405
G1 X112.823 Y128.402 E18.7414
G1 X104.933 Y134.230 E19.3639
G1 X104.922 Y134.238 E19.3647
G1 X104.837 Y134.296 E19.3712
G1 X104.826 Y134.303 E19.3721
G1 X96.524 Y139.528 E19.9946
G1 X96.512 Y139.535 E19.9955
G1 X96.423 Y139.586 E20.0020
G1 X96.411 Y139.593 E20.0028
G1 X87.743 Y144.184 E20.6253
G1 X87.731 Y144.190 E20.6262
G1 X87.638 Y144.235 E20.6327
G1 X87.626 Y144.240 E20.6336
G1 X78.639 Y148.173 E21.2561
G1 X78.627 Y148.178 E21.2569
G1 X78.531 Y148.216 E21.2635
G1 X78.519 Y148.220 E21.2643
G1 X69.264 Y151.472 E21.8868
G1 X69.251 Y151.476 E21.8877
G1 X69.153 Y151.507 E21.8942
G1 X69.140 Y151.511 E21.8951
G1 X59.669 Y154.064 E22.5176
G1 X59.656 Y154.067 E22.5184
G1 X59.556 Y154.090 E22.5249
G1 X59.543 Y154.093 E22.5258
G1 X49.960 Y155.924 E23.1449
G1 X48.916 Y156.967 E23.2386
G1 X48.652 Y157.077 E23.2567
G1 X9.937 Y157.077 E25.7136
G1 X9.672 Y156.967 E25.7318
G1 X8.064 Y155.359 E25.8761
G1 X7.954 Y155.094 E25.8943
G1 X7.954 Y124.379 E27.8434
G1 X8.064 Y124.115 E27.8616
G1 X9.672 Y122.506 E28.0060
G1 X9.937 Y122.397 E28.0242
G1 X20.652 Y122.397 E28.7041
G1 X20.916 Y122.506 E28.7223
G1 X21.294 Y122.884 E28.7562
G1 X21.672 Y122.506 E28.7901
G1 X21.937 Y122.397 E28.8083
G1 X36.652 Y122.397 E29.7421
G1 X36.916 Y122.506 E29.7603
G1 X37.294 Y122.884 E29.7942
