; G-Code generated by Simplify3D(R) Version 4.0.1
; Sep 16, 2018 at 1:17:02 PM
; Settings Summary
;   processName,Process1
;   applyToModels,Secondary Cage - printed groove,Secondary Cage - printed,Aluminum Rod End Cap,Aluminum Rod End Cap(2),Aluminum Rod End Cap(3)
;   profileName,BortBot (modified)
;   profileVersion,2018-03-11 18:52:45
;   baseProfile,Default
;   printMaterial,PLA
;   printQuality,Medium
;   printExtruders,
;   extruderName,Extruder 1
;   extruderToolheadNumber,0
;   extruderDiameter,0.5
;   extruderAutoWidth,1
;   extruderWidth,0.6
;   extrusionMultiplier,1.02
;   extruderUseRetract,1
;   extruderRetractionDistance,1.2
;   extruderExtraRestartDistance,0
;   extruderRetractionZLift,0
;   extruderRetractionSpeed,6000
;   extruderUseCoasting,1
;   extruderCoastingDistance,1.4
;   extruderUseWipe,0
;   extruderWipeDistance,4.4
;   primaryExtruder,0
;   layerHeight,0.4
;   topSolidLayers,3
;   bottomSolidLayers,2
;   perimeterOutlines,4
;   printPerimetersInsideOut,0
;   startPointOption,1
;   startPointOriginX,0
;   startPointOriginY,0
;   sequentialIslands,0
;   spiralVaseMode,0
;   firstLayerHeightPercentage,125
;   firstLayerWidthPercentage,100
;   firstLayerUnderspeed,0.75
;   useRaft,0
;   raftExtruder,0
;   raftTopLayers,2
;   raftBaseLayers,2
;   raftOffset,3
;   raftSeparationDistance,0.3
;   raftTopInfill,90
;   aboveRaftSpeedMultiplier,0.3
;   useSkirt,1
;   skirtExtruder,0
;   skirtLayers,1
;   skirtOutlines,2
;   skirtOffset,3
;   usePrimePillar,0
;   primePillarExtruder,999
;   primePillarWidth,12
;   primePillarLocation,7
;   primePillarSpeedMultiplier,1
;   useOozeShield,0
;   oozeShieldExtruder,999
;   oozeShieldOffset,2
;   oozeShieldOutlines,1
;   oozeShieldSidewallShape,1
;   oozeShieldSidewallAngle,30
;   oozeShieldSpeedMultiplier,1
;   infillExtruder,0
;   internalInfillPattern,Full Honeycomb
;   externalInfillPattern,Rectilinear
;   infillPercentage,30
;   outlineOverlapPercentage,35
;   infillExtrusionWidthPercentage,100
;   minInfillLength,5
;   infillLayerInterval,1
;   internalInfillAngles,0,120,-120
;   overlapInternalInfillAngles,0
;   externalInfillAngles,45,-45
;   generateSupport,0
;   supportExtruder,0
;   supportInfillPercentage,30
;   supportExtraInflation,0
;   supportBaseLayers,1
;   denseSupportExtruder,0
;   denseSupportLayers,4
;   denseSupportInfillPercentage,90
;   supportLayerInterval,1
;   supportHorizontalPartOffset,0.4
;   supportUpperSeparationLayers,1
;   supportLowerSeparationLayers,2
;   supportType,0
;   supportGridSpacing,1
;   maxOverhangAngle,46
;   supportAngles,30
;   temperatureName,Extruder 1,Heated Bed
;   temperatureNumber,0,1
;   temperatureSetpointCount,1,1
;   temperatureSetpointLayers,1,1
;   temperatureSetpointTemperatures,240,60
;   temperatureStabilizeAtStartup,1,1
;   temperatureHeatedBed,0,1
;   temperatureRelayBetweenLayers,1,0
;   temperatureRelayBetweenLoops,1,0
;   fanLayers,1,3
;   fanSpeeds,0,40
;   blipFanToFullPower,0
;   adjustSpeedForCooling,1
;   minSpeedLayerTime,15
;   minCoolingSpeedSlowdown,20
;   increaseFanForCooling,1
;   minFanLayerTime,45
;   maxCoolingFanSpeed,100
;   increaseFanForBridging,1
;   bridgingFanSpeed,100
;   use5D,1
;   relativeEdistances,0
;   allowEaxisZeroing,1
;   independentExtruderAxes,0
;   includeM10123,0
;   stickySupport,1
;   applyToolheadOffsets,0
;   gcodeXoffset,0
;   gcodeYoffset,0
;   gcodeZoffset,0
;   overrideMachineDefinition,0
;   machineTypeOverride,0
;   strokeXoverride,100
;   strokeYoverride,100
;   strokeZoverride,100
;   originOffsetXoverride,0
;   originOffsetYoverride,0
;   originOffsetZoverride,0
;   homeXdirOverride,-1
;   homeYdirOverride,-1
;   homeZdirOverride,-1
;   flipXoverride,1
;   flipYoverride,-1
;   flipZoverride,1
;   toolheadOffsets,0,0|0,0|0,0|0,0|0,0|0,0
;   overrideFirmwareConfiguration,0
;   firmwareTypeOverride,RepRap (Marlin/Repetier/Sprinter)
;   GPXconfigOverride,r2
;   baudRateOverride,115200
;   overridePrinterModels,0
;   printerModelsOverride
;   startingGcode,G28  ; Home all,;M208S7; DISABLE THE PROBE,;G1 Z5; probe z clearance,;G1 X0 Y0; ,;M280S3; Enable the probe,;G32; probe the grid,;M374; save the grid,;G1 Z20 ; Set Z20 for ooze
;   layerChangeGcode,
;   retractionGcode,
;   toolChangeGcode,
;   endingGcode,G10 S1; retract filament to relieve pressure,M104 S0 ; turn off extruder,M140 S0 ; turn off bed,G91 G1 Z10 ; Clearance from part,G90 G1 X0 Y0 Z170 ; Go to starting position (X0 Y0 Z 170),;M84 ; disable motor,M107; Turn off fan
;   exportFileFormat,gcode
;   celebration,0
;   celebrationSong,Random Song
;   postProcessing,
;   defaultSpeed,2400
;   outlineUnderspeed,0.8
;   solidInfillUnderspeed,1
;   supportUnderspeed,1
;   rapidXYspeed,9000
;   rapidZspeed,1800
;   minBridgingArea,10
;   bridgingExtraInflation,5
;   bridgingExtrusionMultiplier,0.9
;   bridgingSpeedMultiplier,0.6
;   useFixedBridgingAngle,0
;   fixedBridgingAngle,0
;   applyBridgingToPerimeters,1
;   filamentDiameters,1.75|1.75|1.75|1.75|1.75|1.75
;   filamentPricesPerKg,12|46|46|46|46|46
;   filamentDensities,1.33|1.25|1.25|1.25|1.25|1.25
;   useMinPrintHeight,0
;   minPrintHeight,0
;   useMaxPrintHeight,0
;   maxPrintHeight,2.75
;   useDiaphragm,0
;   diaphragmLayerInterval,20
;   robustSlicing,1
;   mergeAllIntoSolid,0
;   onlyRetractWhenCrossingOutline,1
;   retractBetweenLayers,0
;   useRetractionMinTravel,0
;   retractionMinTravel,3
;   retractWhileWiping,0
;   onlyWipeOutlines,1
;   avoidCrossingOutline,0
;   maxMovementDetourFactor,3
;   toolChangeRetractionDistance,12
;   toolChangeExtraRestartDistance,-0.5
;   toolChangeRetractionSpeed,600
;   externalThinWallType,1
;   internalThinWallType,1
;   thinWallAllowedOverlapPercentage,10
;   singleExtrusionMinLength,1
;   singleExtrusionMinPrintingWidthPercentage,50
;   singleExtrusionMaxPrintingWidthPercentage,200
;   singleExtrusionEndpointExtension,0.2
;   horizontalSizeCompensation,0
G90
M82
M106 S0
M140 S60
M190 S60
M104 S240 T0
M109 S240 T0
G28  ; Home all
;M208S7; DISABLE THE PROBE
;G1 Z5; probe z clearance
;G1 X0 Y0; 
;M280S3; Enable the probe
;G32; probe the grid
;M374; save the grid
;G1 Z20 ; Set Z20 for ooze
G92 E0
G1 E-1.2000 F6000
G1 Z0.500 F1800
; process Process1
; layer 1, Z = 0.500
M105
T0
; tool H0.500 W0.600
; skirt
G1 X25.917 Y2.837 F9000
G1 E0.0000 F1800
G92 E0
G1 X26.277 Y2.775 E0.0465 F1800
G1 X38.844 Y5.705 E1.6881
G1 X38.858 Y5.708 E1.6900
G1 X38.967 Y5.737 E1.7044
G1 X38.981 Y5.741 E1.7062
G1 X49.991 Y9.081 E3.1700
G1 X50.006 Y9.086 E3.1719
G1 X50.112 Y9.122 E3.1862
G1 X50.126 Y9.127 E3.1881
G1 X60.895 Y13.180 E4.6519
G1 X60.908 Y13.185 E4.6538
G1 X61.013 Y13.229 E4.6681
G1 X61.026 Y13.235 E4.6700
G1 X71.506 Y17.983 E6.1338
G1 X71.520 Y17.989 E6.1356
G1 X71.621 Y18.039 E6.1500
G1 X71.634 Y18.046 E6.1519
G1 X81.781 Y23.470 E7.6156
G1 X81.794 Y23.477 E7.6175
G1 X81.892 Y23.533 E7.6319
G1 X81.904 Y23.541 E7.6337
G1 X91.675 Y29.617 E9.0975
G1 X91.688 Y29.625 E9.0994
G1 X91.781 Y29.688 E9.1137
G1 X91.794 Y29.696 E9.1156
G1 X101.146 Y36.398 E10.5794
G1 X101.158 Y36.407 E10.5813
G1 X101.247 Y36.475 E10.5956
G1 X101.259 Y36.484 E10.5975
G1 X110.153 Y43.784 E12.0613
G1 X110.164 Y43.793 E12.0631
G1 X110.249 Y43.868 E12.0775
G1 X110.260 Y43.877 E12.0794
G1 X118.658 Y51.743 E13.5431
G1 X118.668 Y51.753 E13.5450
G1 X118.748 Y51.833 E13.5594
G1 X118.758 Y51.843 E13.5613
G1 X126.624 Y60.241 E15.0250
G1 X126.634 Y60.252 E15.0269
G1 X126.708 Y60.337 E15.0413
G1 X126.718 Y60.348 E15.0431
G1 X134.017 Y69.242 E16.5069
G1 X134.026 Y69.254 E16.5088
G1 X134.095 Y69.343 E16.5231
G1 X134.103 Y69.355 E16.5250
G1 X140.805 Y78.708 E17.9888
G1 X140.814 Y78.720 E17.9906
G1 X140.876 Y78.813 E18.0050
G1 X140.884 Y78.826 E18.0069
G1 X146.960 Y88.597 E19.4706
G1 X146.968 Y88.609 E19.4725
G1 X147.024 Y88.707 E19.4869
G1 X147.031 Y88.720 E19.4888
G1 X152.455 Y98.867 E20.9525
G1 X152.462 Y98.880 E20.9544
G1 X152.512 Y98.981 E20.9688
G1 X152.518 Y98.995 E20.9706
G1 X157.267 Y109.475 E22.4344
G1 X157.272 Y109.489 E22.4363
G1 X157.316 Y109.593 E22.4506
G1 X157.321 Y109.607 E22.4525
G1 X161.374 Y120.375 E23.9163
G1 X161.379 Y120.389 E23.9181
G1 X161.415 Y120.496 E23.9325
G1 X161.420 Y120.510 E23.9344
G1 X164.760 Y131.520 E25.3982
G1 X164.764 Y131.534 E25.4000
G1 X164.793 Y131.643 E25.4144
G1 X164.796 Y131.657 E25.4163
G1 X167.727 Y144.224 E27.0579
G1 X167.664 Y144.584 E27.1044
G1 X166.088 Y147.029 E27.4744
G1 X165.786 Y147.235 E27.5210
G1 X134.973 Y153.364 E31.5178
G1 X134.629 Y153.298 E31.5623
G1 X132.295 Y151.797 E31.9153
G1 X132.094 Y151.511 E31.9598
G1 X129.498 Y140.477 E33.4018
G1 X126.596 Y131.104 E34.6502
G1 X123.051 Y121.954 E35.8985
G1 X118.881 Y113.072 E37.1469
G1 X114.106 Y104.499 E38.3952
G1 X108.749 Y96.278 E39.6436
G1 X102.836 Y88.447 E40.8919
G1 X96.395 Y81.045 E42.1403
G1 X89.456 Y74.106 E43.3887
G1 X82.054 Y67.665 E44.6370
G1 X74.223 Y61.752 E45.8854
G1 X66.002 Y56.395 E47.1337
G1 X57.431 Y51.620 E48.3819
G1 X56.118 Y51.005 E48.5663
G1 X60.632 Y54.077 E49.2609
G1 X60.641 Y54.084 E49.2624
G1 X60.715 Y54.136 E49.2739
G1 X60.724 Y54.143 E49.2754
G1 X68.053 Y59.714 E50.4465
G1 X68.062 Y59.721 E50.4480
G1 X68.133 Y59.778 E50.4595
G1 X68.142 Y59.785 E50.4610
G1 X75.169 Y65.731 E51.6321
G1 X75.178 Y65.739 E51.6335
G1 X75.245 Y65.799 E51.6450
G1 X75.254 Y65.807 E51.6465
G1 X81.960 Y72.113 E52.8176
G1 X81.968 Y72.121 E52.8191
G1 X82.032 Y72.185 E52.8306
G1 X82.041 Y72.193 E52.8321
G1 X88.408 Y78.841 E54.0032
G1 X88.416 Y78.850 E54.0047
G1 X88.476 Y78.917 E54.0162
G1 X88.484 Y78.926 E54.0177
G1 X94.494 Y85.898 E55.1888
G1 X94.502 Y85.907 E55.1903
G1 X94.559 Y85.977 E55.2018
G1 X94.567 Y85.986 E55.2033
G1 X100.204 Y93.263 E56.3744
G1 X100.211 Y93.273 E56.3759
G1 X100.264 Y93.345 E56.3874
G1 X100.271 Y93.355 E56.3888
G1 X105.520 Y100.917 E57.5599
G1 X105.526 Y100.927 E57.5614
G1 X105.576 Y101.003 E57.5729
G1 X105.582 Y101.013 E57.5744
G1 X110.428 Y108.839 E58.7455
G1 X110.434 Y108.849 E58.7470
G1 X110.479 Y108.927 E58.7585
G1 X110.485 Y108.938 E58.7600
G1 X114.914 Y117.007 E59.9311
G1 X114.920 Y117.017 E59.9326
G1 X114.961 Y117.098 E59.9441
G1 X114.966 Y117.108 E59.9456
G1 X118.967 Y125.399 E61.1167
G1 X118.972 Y125.409 E61.1182
G1 X119.010 Y125.492 E61.1296
G1 X119.014 Y125.502 E61.1311
G1 X122.576 Y133.991 E62.3022
G1 X122.580 Y134.002 E62.3037
G1 X122.613 Y134.086 E62.3152
G1 X122.617 Y134.097 E62.3167
G1 X126.204 Y144.080 E63.6662
G1 X126.184 Y144.444 E63.7126
G1 X124.915 Y147.046 E64.0810
G1 X124.641 Y147.286 E64.1273
G1 X94.809 Y157.130 E68.1238
G1 X94.459 Y157.107 E68.1685
G1 X91.954 Y155.892 E68.5226
G1 X91.719 Y155.632 E68.5672
G1 X88.278 Y146.174 E69.8476
G1 X84.873 Y138.325 E70.9360
G1 X81.000 Y130.697 E72.0244
G1 X77.187 Y124.192 E72.9836
G1 X77.161 Y124.393 E73.0093
G1 X77.156 Y124.422 E73.0131
G1 X76.970 Y125.356 E73.1343
G1 X76.963 Y125.385 E73.1380
G1 X76.905 Y125.603 E73.1667
G1 X76.896 Y125.631 E73.1705
G1 X76.590 Y126.533 E73.2917
G1 X76.580 Y126.561 E73.2954
G1 X76.493 Y126.769 E73.3242
G1 X76.481 Y126.796 E73.3279
G1 X76.060 Y127.651 E73.4491
G1 X76.046 Y127.677 E73.4528
G1 X75.933 Y127.872 E73.4816
G1 X75.918 Y127.897 E73.4853
G1 X75.388 Y128.689 E73.6065
G1 X75.371 Y128.713 E73.6103
G1 X75.234 Y128.893 E73.6390
G1 X75.215 Y128.915 E73.6428
G1 X74.587 Y129.632 E73.7640
G1 X74.567 Y129.653 E73.7677
G1 X74.407 Y129.813 E73.7964
G1 X74.385 Y129.833 E73.8002
G1 X73.669 Y130.461 E73.9214
G1 X73.646 Y130.480 E73.9251
G1 X73.467 Y130.617 E73.9539
G1 X73.443 Y130.634 E73.9576
G1 X72.651 Y131.164 E74.0788
G1 X72.626 Y131.179 E74.0826
G1 X72.430 Y131.292 E74.1113
G1 X72.405 Y131.306 E74.1151
G1 X71.550 Y131.727 E74.2363
G1 X71.523 Y131.740 E74.2400
G1 X71.315 Y131.826 E74.2687
G1 X71.287 Y131.836 E74.2725
G1 X70.385 Y132.143 E74.3937
G1 X70.357 Y132.151 E74.3974
G1 X70.139 Y132.210 E74.4262
G1 X70.110 Y132.216 E74.4299
G1 X69.176 Y132.402 E74.5511
G1 X69.146 Y132.407 E74.5549
G1 X68.923 Y132.436 E74.5836
G1 X68.893 Y132.439 E74.5873
G1 X67.943 Y132.502 E74.7085
G1 X67.913 Y132.503 E74.7123
G1 X67.687 Y132.503 E74.7410
G1 X67.658 Y132.502 E74.7448
G1 X66.707 Y132.439 E74.8660
G1 X66.678 Y132.436 E74.8697
G1 X66.454 Y132.407 E74.8985
G1 X66.425 Y132.402 E74.9022
G1 X65.491 Y132.216 E75.0234
G1 X65.462 Y132.210 E75.0271
G1 X65.244 Y132.151 E75.0559
G1 X65.216 Y132.143 E75.0596
G1 X64.313 Y131.836 E75.1808
G1 X64.286 Y131.826 E75.1846
G1 X64.077 Y131.740 E75.2133
G1 X64.050 Y131.727 E75.2170
G1 X63.196 Y131.306 E75.3382
G1 X63.170 Y131.292 E75.3420
G1 X62.974 Y131.179 E75.3707
G1 X62.949 Y131.164 E75.3745
G1 X62.157 Y130.634 E75.4957
G1 X62.133 Y130.617 E75.4994
G1 X61.954 Y130.480 E75.5282
G1 X61.931 Y130.461 E75.5319
G1 X61.215 Y129.833 E75.6531
G1 X61.194 Y129.813 E75.6569
G1 X61.034 Y129.653 E75.6856
G1 X61.014 Y129.632 E75.6893
G1 X60.385 Y128.915 E75.8105
G1 X60.367 Y128.892 E75.8143
G1 X60.229 Y128.713 E75.8430
G1 X60.212 Y128.689 E75.8468
G1 X59.683 Y127.897 E75.9680
G1 X59.667 Y127.872 E75.9717
G1 X59.554 Y127.677 E76.0004
G1 X59.541 Y127.651 E76.0042
G1 X59.119 Y126.796 E76.1254
G1 X59.107 Y126.769 E76.1291
G1 X59.021 Y126.561 E76.1579
G1 X59.010 Y126.533 E76.1616
G1 X58.704 Y125.631 E76.2828
G1 X58.695 Y125.603 E76.2866
G1 X58.637 Y125.385 E76.3153
G1 X58.630 Y125.356 E76.3190
G1 X58.444 Y124.422 E76.4402
G1 X58.440 Y124.393 E76.4440
G1 X58.410 Y124.169 E76.4727
G1 X58.407 Y124.139 E76.4765
G1 X58.345 Y123.189 E76.5977
G1 X58.344 Y123.159 E76.6014
G1 X58.344 Y122.933 E76.6302
G1 X58.345 Y122.904 E76.6339
G1 X58.407 Y121.953 E76.7551
G1 X58.410 Y121.924 E76.7589
G1 X58.440 Y121.700 E76.7876
G1 X58.444 Y121.671 E76.7913
G1 X58.555 Y121.115 E76.8634
G1 X57.984 Y121.229 E76.9375
G1 X57.955 Y121.234 E76.9412
G1 X57.731 Y121.263 E76.9700
G1 X57.702 Y121.266 E76.9737
G1 X56.751 Y121.328 E77.0949
G1 X56.722 Y121.329 E77.0987
G1 X56.496 Y121.329 E77.1274
G1 X56.466 Y121.328 E77.1312
G1 X55.516 Y121.266 E77.2524
G1 X55.486 Y121.263 E77.2561
G1 X55.262 Y121.234 E77.2848
G1 X55.233 Y121.229 E77.2886
G1 X54.299 Y121.043 E77.4098
G1 X54.270 Y121.036 E77.4135
G1 X54.052 Y120.978 E77.4423
G1 X54.024 Y120.969 E77.4460
G1 X53.122 Y120.663 E77.5672
G1 X53.094 Y120.653 E77.5710
G1 X52.885 Y120.566 E77.5997
G1 X52.859 Y120.554 E77.6034
G1 X52.004 Y120.133 E77.7246
G1 X51.978 Y120.119 E77.7284
G1 X51.783 Y120.006 E77.7571
G1 X51.758 Y119.990 E77.7609
G1 X50.965 Y119.461 E77.8821
G1 X50.942 Y119.444 E77.8858
G1 X50.762 Y119.307 E77.9145
G1 X50.740 Y119.288 E77.9183
G1 X50.023 Y118.660 E78.0395
G1 X50.002 Y118.640 E78.0432
G1 X49.842 Y118.480 E78.0720
G1 X49.822 Y118.458 E78.0757
G1 X49.194 Y117.742 E78.1969
G1 X49.175 Y117.719 E78.2007
G1 X49.038 Y117.540 E78.2294
G1 X49.020 Y117.516 E78.2332
G1 X48.491 Y116.724 E78.3544
G1 X48.476 Y116.699 E78.3581
G1 X48.363 Y116.503 E78.3868
G1 X48.349 Y116.477 E78.3906
G1 X47.927 Y115.623 E78.5118
G1 X47.915 Y115.596 E78.5155
G1 X47.829 Y115.387 E78.5443
G1 X47.819 Y115.360 E78.5480
G1 X47.512 Y114.458 E78.6692
G1 X47.504 Y114.430 E78.6730
G1 X47.445 Y114.211 E78.7017
G1 X47.439 Y114.183 E78.7054
G1 X47.253 Y113.248 E78.8266
G1 X47.248 Y113.219 E78.8304
G1 X47.218 Y112.995 E78.8591
G1 X47.216 Y112.966 E78.8629
G1 X47.153 Y112.015 E78.9841
G1 X47.152 Y111.986 E78.9878
G1 X47.152 Y111.760 E79.0165
G1 X47.153 Y111.731 E79.0203
G1 X47.216 Y110.780 E79.1415
G1 X47.218 Y110.751 E79.1452
G1 X47.248 Y110.527 E79.1740
G1 X47.253 Y110.498 E79.1777
G1 X47.439 Y109.563 E79.2989
G1 X47.445 Y109.535 E79.3027
G1 X47.504 Y109.317 E79.3314
G1 X47.512 Y109.288 E79.3352
G1 X47.819 Y108.386 E79.4564
G1 X47.829 Y108.359 E79.4601
G1 X47.915 Y108.150 E79.4888
G1 X47.927 Y108.123 E79.4926
G1 X48.349 Y107.269 E79.6138
G1 X48.363 Y107.243 E79.6175
G1 X48.476 Y107.047 E79.6463
G1 X48.491 Y107.022 E79.6500
G1 X49.020 Y106.230 E79.7712
G1 X49.038 Y106.206 E79.7750
G1 X49.175 Y106.027 E79.8037
G1 X49.194 Y106.004 E79.8074
G1 X49.822 Y105.288 E79.9286
G1 X49.842 Y105.266 E79.9324
G1 X50.002 Y105.107 E79.9611
G1 X50.023 Y105.086 E79.9649
G1 X50.740 Y104.458 E80.0861
G1 X50.762 Y104.440 E80.0898
G1 X50.942 Y104.302 E80.1186
G1 X50.966 Y104.285 E80.1223
G1 X51.758 Y103.756 E80.2435
