; G-Code generated by Simplify3D(R) Version 4.1.0
; Dec 8, 2018 at 4:38:45 PM
; Settings Summary
;   processName,Optimal(1)
;   applyToModels,Tuner Drill adapter,Tuner Drill adapter(2)
;   profileName,BortBot (modified)
;   profileVersion,2018-03-11 18:52:45
;   baseProfile,Default
;   printMaterial,PLA
;   printQuality,Medium
;   printExtruders,
;   extruderName,Extruder 1
;   extruderToolheadNumber,0
;   extruderDiameter,0.4
;   extruderAutoWidth,1
;   extruderWidth,0.48
;   extrusionMultiplier,1.04
;   extruderUseRetract,1
;   extruderRetractionDistance,3
;   extruderExtraRestartDistance,0
;   extruderRetractionZLift,0
;   extruderRetractionSpeed,1500
;   extruderUseCoasting,0
;   extruderCoastingDistance,1.4
;   extruderUseWipe,0
;   extruderWipeDistance,2
;   primaryExtruder,0
;   layerHeight,0.25
;   topSolidLayers,3
;   bottomSolidLayers,2
;   perimeterOutlines,4
;   printPerimetersInsideOut,0
;   startPointOption,2
;   startPointOriginX,0
;   startPointOriginY,0
;   sequentialIslands,0
;   spiralVaseMode,0
;   firstLayerHeightPercentage,125
;   firstLayerWidthPercentage,100
;   firstLayerUnderspeed,0.75
;   useRaft,0
;   raftExtruder,0
;   raftTopLayers,2
;   raftBaseLayers,2
;   raftOffset,3
;   raftSeparationDistance,0.3
;   raftTopInfill,90
;   aboveRaftSpeedMultiplier,0.3
;   useSkirt,1
;   skirtExtruder,0
;   skirtLayers,1
;   skirtOutlines,2
;   skirtOffset,3
;   usePrimePillar,0
;   primePillarExtruder,999
;   primePillarWidth,12
;   primePillarLocation,7
;   primePillarSpeedMultiplier,1
;   useOozeShield,0
;   oozeShieldExtruder,999
;   oozeShieldOffset,2
;   oozeShieldOutlines,1
;   oozeShieldSidewallShape,1
;   oozeShieldSidewallAngle,30
;   oozeShieldSpeedMultiplier,1
;   infillExtruder,0
;   internalInfillPattern,Full Honeycomb
;   externalInfillPattern,Rectilinear
;   infillPercentage,40
;   outlineOverlapPercentage,35
;   infillExtrusionWidthPercentage,90
;   minInfillLength,5
;   infillLayerInterval,1
;   internalInfillAngles,0,120,-120
;   overlapInternalInfillAngles,0
;   externalInfillAngles,45,-45
;   generateSupport,1
;   supportExtruder,0
;   supportInfillPercentage,50
;   supportExtraInflation,0
;   supportBaseLayers,1
;   denseSupportExtruder,0
;   denseSupportLayers,4
;   denseSupportInfillPercentage,90
;   supportLayerInterval,1
;   supportHorizontalPartOffset,0.5
;   supportUpperSeparationLayers,1
;   supportLowerSeparationLayers,1
;   supportType,0
;   supportGridSpacing,1
;   maxOverhangAngle,46
;   supportAngles,0
;   temperatureName,Extruder 1,Heated Bed
;   temperatureNumber,0,1
;   temperatureSetpointCount,1,1
;   temperatureSetpointLayers,1,1
;   temperatureSetpointTemperatures,203,60
;   temperatureStabilizeAtStartup,1,1
;   temperatureHeatedBed,0,1
;   fanLayers,1,3
;   fanSpeeds,0,60
;   blipFanToFullPower,1
;   adjustSpeedForCooling,1
;   minSpeedLayerTime,15
;   minCoolingSpeedSlowdown,20
;   increaseFanForCooling,1
;   minFanLayerTime,45
;   maxCoolingFanSpeed,100
;   increaseFanForBridging,1
;   bridgingFanSpeed,100
;   use5D,1
;   relativeEdistances,0
;   allowEaxisZeroing,1
;   independentExtruderAxes,0
;   includeM10123,0
;   stickySupport,1
;   applyToolheadOffsets,0
;   gcodeXoffset,0
;   gcodeYoffset,0
;   gcodeZoffset,0
;   overrideMachineDefinition,0
;   machineTypeOverride,0
;   strokeXoverride,100
;   strokeYoverride,100
;   strokeZoverride,100
;   originOffsetXoverride,0
;   originOffsetYoverride,0
;   originOffsetZoverride,0
;   homeXdirOverride,-1
;   homeYdirOverride,-1
;   homeZdirOverride,-1
;   flipXoverride,1
;   flipYoverride,-1
;   flipZoverride,1
;   toolheadOffsets,0,0|0,0|0,0|0,0|0,0|0,0
;   overrideFirmwareConfiguration,0
;   firmwareTypeOverride,RepRap (Marlin/Repetier/Sprinter)
;   GPXconfigOverride,r2
;   baudRateOverride,115200
;   overridePrinterModels,0
;   printerModelsOverride
;   startingGcode,G28 XY ; HOME XY,M561 ; Clear any bed transform,G1 X80 Y80 Z25; move to center of bed,G30 ;Do a single Z probe,G29 S1 ; Load bed compensating height map,G1 X0 Y0 Z10 ; Return to origin
;   layerChangeGcode,
;   retractionGcode,
;   toolChangeGcode,
;   endingGcode,G10 S5; retract filament to relieve pressure,M104 S0 ; turn off extruder,M140 S0 ; turn off bed,G91 G1 Z10 ; Clearance from part,G90 G1 X0 Y0 Z170 ; Go to starting position (X0 Y0 Z 170),M84 ; disable motor,M107; Turn off fan
;   exportFileFormat,gcode
;   celebration,0
;   celebrationSong,Random Song
;   postProcessing,
;   defaultSpeed,3600
;   outlineUnderspeed,0.8
;   solidInfillUnderspeed,1
;   supportUnderspeed,1
;   rapidXYspeed,3600
;   rapidZspeed,1800
;   minBridgingArea,10
;   bridgingExtraInflation,5
;   bridgingExtrusionMultiplier,0.9
;   bridgingSpeedMultiplier,0.6
;   useFixedBridgingAngle,0
;   fixedBridgingAngle,0
;   applyBridgingToPerimeters,1
;   filamentDiameters,1.75|1.75|1.75|1.75|1.75|1.75
;   filamentPricesPerKg,20|46|46|46|46|46
;   filamentDensities,1.33|1.25|1.25|1.25|1.25|1.25
;   useMinPrintHeight,0
;   minPrintHeight,40
;   useMaxPrintHeight,0
;   maxPrintHeight,60
;   useDiaphragm,0
;   diaphragmLayerInterval,20
;   robustSlicing,1
;   mergeAllIntoSolid,0
;   onlyRetractWhenCrossingOutline,1
;   retractBetweenLayers,0
;   useRetractionMinTravel,0
;   retractionMinTravel,3
;   retractWhileWiping,1
;   onlyWipeOutlines,1
;   avoidCrossingOutline,0
;   maxMovementDetourFactor,3
;   toolChangeRetractionDistance,12
;   toolChangeExtraRestartDistance,-0.5
;   toolChangeRetractionSpeed,600
;   externalThinWallType,1
;   internalThinWallType,2
;   thinWallAllowedOverlapPercentage,20
;   singleExtrusionMinLength,1
;   singleExtrusionMinPrintingWidthPercentage,50
;   singleExtrusionMaxPrintingWidthPercentage,200
;   singleExtrusionEndpointExtension,0.2
;   horizontalSizeCompensation,0
G90
M82
M106 S255
G4 P500
M106 S97
M140 S60
M190 S60
M104 S203 T0
M109 S203 T0
G28 XY ; HOME XY
M561 ; Clear any bed transform
G1 X80 Y80 Z25; move to center of bed
G30 ;Do a single Z probe
G29 S1 ; Load bed compensating height map
G1 X0 Y0 Z10 ; Return to origin
; process Optimal(1)
; layer 1, Z = 0.313
T0
; feature skirt
; tool H0.313 W0.480
G1 Z0.313 F1800
G1 X66.280 Y64.691 F3600
G92 E0.0000
G1 X68.459 Y62.512 E0.1999 F2700
G1 X101.541 Y62.512 E2.3455
G1 X103.720 Y64.691 E2.5453
G1 X103.720 Y80.309 E3.5582
G1 X101.541 Y82.488 E3.7581
G1 X68.459 Y82.488 E5.9037
G1 X66.280 Y80.309 E6.1036
G1 X66.280 Y64.691 E7.1165
G92 E0.0000
G1 E-3.0000 F1500
G1 X66.760 Y64.890 F3600
G1 E0.0000 F1500
G92 E0.0000
G1 X68.658 Y62.992 E0.1741 F2700
G1 X101.342 Y62.992 E2.2939
G1 X103.240 Y64.890 E2.4680
G1 X103.240 Y80.110 E3.4551
G1 X101.342 Y82.008 E3.6292
G1 X68.658 Y82.008 E5.7490
G1 X66.760 Y80.110 E5.9231
G1 X66.760 Y64.890 E6.9102
G92 E0.0000
G1 E-3.0000 F1500
G1 X68.459 Y82.512 F3600
G1 E0.0000 F1500
G92 E0.0000
G1 X101.541 Y82.512 E2.1456 F2700
G1 X103.720 Y84.691 E2.3455
G1 X103.720 Y100.309 E3.3584
G1 X101.541 Y102.488 E3.5582
G1 X68.459 Y102.488 E5.7038
G1 X66.280 Y100.309 E5.9037
G1 X66.280 Y84.691 E6.9166
G1 X68.459 Y82.512 E7.1165
G92 E0.0000
G1 E-3.0000 F1500
G1 X68.658 Y82.992 F3600
G1 E0.0000 F1500
G92 E0.0000
G1 X101.342 Y82.992 E2.1198 F2700
G1 X103.240 Y84.890 E2.2939
G1 X103.240 Y100.110 E3.2810
G1 X101.342 Y102.008 E3.4551
G1 X68.658 Y102.008 E5.5749
G1 X66.760 Y100.110 E5.7490
G1 X66.760 Y84.890 E6.7361
G1 X68.658 Y82.992 E6.9102
G92 E0.0000
G1 E-3.0000 F1500
; feature outer perimeter
G1 X70.240 Y78.528 F3600
G1 E0.0000 F1500
G92 E0.0000
G1 X70.240 Y66.472 E0.7819 F2160
G1 X99.760 Y66.472 E2.6965
G1 X99.760 Y78.528 E3.4784
G1 X70.240 Y78.528 E5.3930
; feature inner perimeter
G1 X70.720 Y78.048 F3600
G92 E0.0000
G1 X70.720 Y66.952 E0.7196 F2430
G1 X74.132 Y66.952 E0.9409
G1 X74.202 Y67.247 E0.9606
G1 X73.822 Y67.439 E0.9882
G1 X73.637 Y67.601 E1.0041
G1 X73.403 Y67.763 E1.0226
G1 X72.999 Y68.163 E1.0594
G1 X72.672 Y68.555 E1.0925
G1 X72.284 Y69.169 E1.1397
G1 X72.116 Y69.517 E1.1647
G1 X71.941 Y69.998 E1.1979
G1 X71.812 Y70.595 E1.2375
G1 X71.780 Y71.078 E1.2689
G1 X71.780 Y73.922 E1.4534
G1 X71.813 Y74.408 E1.4850
G1 X71.941 Y75.000 E1.5243
G1 X72.108 Y75.465 E1.5563
G1 X72.335 Y75.934 E1.5901
G1 X72.651 Y76.411 E1.6272
G1 X72.863 Y76.677 E1.6492
G1 X73.002 Y76.840 E1.6632
G1 X73.403 Y77.237 E1.6997
G1 X73.637 Y77.399 E1.7182
G1 X73.822 Y77.561 E1.7342
G1 X74.202 Y77.753 E1.7618
G1 X74.132 Y78.048 E1.7814
G1 X70.720 Y78.048 E2.0027
G1 X95.798 Y77.753 F3600
G92 E0.0000
G1 X96.178 Y77.561 E0.0276 F2430
G1 X96.363 Y77.399 E0.0435
G1 X96.597 Y77.237 E0.0620
G1 X97.001 Y76.837 E0.0988
G1 X97.323 Y76.450 E0.1316
G1 X97.650 Y75.954 E0.1701
G1 X97.882 Y75.488 E0.2038
G1 X98.059 Y75.002 E0.2374
G1 X98.188 Y74.405 E0.2770
G1 X98.220 Y73.922 E0.3084
G1 X98.220 Y71.078 E0.4928
G1 X98.188 Y70.600 E0.5239
G1 X98.096 Y70.127 E0.5551
G1 X97.894 Y69.539 E0.5954
G1 X97.665 Y69.066 E0.6296
G1 X97.349 Y68.589 E0.6667
G1 X97.137 Y68.323 E0.6887
G1 X96.998 Y68.160 E0.7026
G1 X96.597 Y67.763 E0.7392
G1 X96.363 Y67.601 E0.7577
G1 X96.178 Y67.439 E0.7736
G1 X95.798 Y67.247 E0.8012
G1 X95.868 Y66.952 E0.8209
G1 X99.280 Y66.952 E1.0422
G1 X99.280 Y78.048 E1.7618
G1 X95.868 Y78.048 E1.9831
G1 X95.798 Y77.753 E2.0027
G1 X96.945 Y77.568 F3600
G92 E0.0000
G1 X97.355 Y77.162 E0.0374 F2430
G1 X97.710 Y76.736 E0.0734
G1 X98.067 Y76.194 E0.1155
G1 X98.324 Y75.677 E0.1529
G1 X98.482 Y75.241 E0.1830
G1 X98.800 Y75.297 E0.2039
G1 X98.800 Y77.568 E0.3512
G1 X96.945 Y77.568 E0.4715
G1 X98.479 Y69.765 F3600
G92 E0.0000
G1 X98.339 Y69.356 E0.0280 F2430
G1 X98.083 Y68.828 E0.0661
G1 X97.738 Y68.306 E0.1067
G1 X97.507 Y68.018 E0.1306
G1 X97.350 Y67.833 E0.1463
G1 X96.945 Y67.432 E0.1833
G1 X98.800 Y67.432 E0.3036
G1 X98.800 Y69.711 E0.4514
G1 X98.479 Y69.765 E0.4725
G92 E0.0000
G1 E-3.0000 F1500
G1 X73.055 Y67.432 F3600
G1 E0.0000 F1500
G92 E0.0000
G1 X72.645 Y67.838 E0.0374 F2430
G1 X72.284 Y68.272 E0.0740
G1 X71.863 Y68.935 E0.1250
G1 X71.673 Y69.330 E0.1534
G1 X71.518 Y69.759 E0.1830
G1 X71.200 Y69.703 E0.2039
G1 X71.200 Y67.432 E0.3512
G1 X73.055 Y67.432 E0.4715
G1 X71.518 Y75.243 F3600
G92 E0.0000
G1 X71.665 Y75.651 E0.0281 F2430
G1 X71.917 Y76.172 E0.0657
G1 X72.262 Y76.694 E0.1063
G1 X72.493 Y76.982 E0.1302
G1 X72.650 Y77.167 E0.1459
G1 X73.055 Y77.568 E0.1829
G1 X71.200 Y77.568 E0.3032
G1 X71.200 Y75.298 E0.4504
G1 X71.518 Y75.243 E0.4713
; feature outer perimeter
G1 X72.404 Y74.868 F3600
G92 E0.0000
G1 X72.551 Y75.279 E0.0283 F2160
G1 X72.753 Y75.696 E0.0584
G1 X73.039 Y76.129 E0.0920
G1 X73.233 Y76.371 E0.1121
G1 X73.354 Y76.513 E0.1243
G1 X73.711 Y76.866 E0.1568
G1 X73.933 Y77.020 E0.1743
G1 X74.092 Y77.160 E0.1881
G1 X74.529 Y77.380 E0.2198
G1 X74.975 Y77.473 E0.2494
G1 X95.025 Y77.473 E1.5497
G1 X95.471 Y77.380 E1.5793
G1 X95.908 Y77.160 E1.6110
G1 X96.067 Y77.020 E1.6248
G1 X96.289 Y76.866 E1.6423
G1 X96.646 Y76.512 E1.6749
G1 X96.937 Y76.163 E1.7044
G1 X97.233 Y75.714 E1.7392
G1 X97.441 Y75.298 E1.7694
G1 X97.596 Y74.869 E1.7990
G1 X97.711 Y74.338 E1.8342
G1 X97.740 Y73.906 E1.8623
G1 X97.740 Y71.094 E2.0447
G1 X97.711 Y70.662 E2.0728
G1 X97.631 Y70.251 E2.0999
G1 X97.450 Y69.723 E2.1361
G1 X97.247 Y69.304 E2.1663
G1 X96.961 Y68.871 E2.1999
G1 X96.767 Y68.629 E2.2201
G1 X96.646 Y68.487 E2.2322
G1 X96.289 Y68.134 E2.2648
G1 X96.067 Y67.980 E2.2823
G1 X95.908 Y67.840 E2.2960
G1 X95.471 Y67.620 E2.3277
G1 X95.025 Y67.527 E2.3573
G1 X74.933 Y67.536 E3.6604
G1 X74.529 Y67.619 E3.6871
G1 X74.092 Y67.840 E3.7189
G1 X73.933 Y67.980 E3.7326
G1 X73.711 Y68.134 E3.7501
G1 X73.354 Y68.487 E3.7828
G1 X73.061 Y68.838 E3.8124
G1 X72.704 Y69.402 E3.8557
G1 X72.559 Y69.703 E3.8773
G1 X72.404 Y70.131 E3.9069
G1 X72.289 Y70.662 E3.9421
G1 X72.260 Y71.094 E3.9702
G1 X72.260 Y73.906 E4.1526
G1 X72.289 Y74.340 E4.1808
G1 X72.404 Y74.868 E4.2158
; feature gap fill
G1 X71.032 Y74.641 F3600
G92 E0.0000
G1 X71.343 Y74.952 E0.0285 F2700
G1 X71.602 Y74.907 E0.0455
G1 X71.503 Y74.452 E0.0758
G1 X71.502 Y74.432 E0.0770
G1 X71.032 Y73.963 E0.1201
G1 X71.032 Y73.284 E0.1641
G1 X71.468 Y73.720 E0.2041
G1 X71.468 Y73.041 E0.2481
G1 X71.032 Y72.605 E0.2881
G1 X71.032 Y71.926 E0.3322
G1 X71.468 Y72.362 E0.3722
G1 X71.468 Y71.683 E0.4162
G1 X71.032 Y71.247 E0.4562
G1 X71.032 Y70.568 E0.5002
G1 X71.472 Y71.008 E0.5405
G1 X71.503 Y70.551 E0.5703
G1 X71.537 Y70.394 E0.5807
G1 X71.160 Y70.018 E0.6152
G1 X71.735 Y68.556 F3600
G92 E0.0000
G1 X71.512 Y68.333 E0.0204 F2700
G1 X71.512 Y67.744 E0.0586
G1 X71.602 Y67.744 E0.0644
G1 X71.998 Y68.140 E0.1008
G1 X72.031 Y68.088 E0.1048
G1 X72.301 Y67.764 E0.1321
G1 X72.281 Y67.744 E0.1339
G1 X74.537 Y67.285 F3600
G92 E0.0000
G1 X74.549 Y67.297 E0.0011 F2700
G1 X74.901 Y67.224 E0.0245
G1 X75.155 Y67.224 E0.0409
G1 X74.715 Y66.784 E0.0813
G1 X75.394 Y66.784 E0.1253
G1 X75.833 Y67.224 E0.1656
G1 X76.512 Y67.224 E0.2096
G1 X76.072 Y66.784 E0.2500
G1 X76.751 Y66.784 E0.2940
G1 X77.190 Y67.223 E0.3343
G1 X77.869 Y67.223 E0.3783
G1 X77.430 Y66.784 E0.4185
G1 X78.109 Y66.784 E0.4625
G1 X78.547 Y67.223 E0.5028
G1 X79.226 Y67.222 E0.5468
G1 X78.788 Y66.784 E0.5870
G1 X79.467 Y66.784 E0.6310
G1 X79.904 Y67.222 E0.6711
G1 X80.583 Y67.222 E0.7151
G1 X80.145 Y66.784 E0.7553
G1 X80.824 Y66.784 E0.7993
G1 X81.261 Y67.221 E0.8394
G1 X81.940 Y67.221 E0.8834
G1 X81.503 Y66.784 E0.9235
G1 X82.182 Y66.784 E0.9675
G1 X82.618 Y67.221 E1.0075
G1 X83.297 Y67.220 E1.0515
G1 X82.861 Y66.784 E1.0916
G1 X83.539 Y66.784 E1.1356
G1 X83.975 Y67.220 E1.1756
G1 X84.654 Y67.220 E1.2196
G1 X84.218 Y66.784 E1.2595
G1 X84.897 Y66.784 E1.3035
G1 X85.332 Y67.219 E1.3435
G1 X86.011 Y67.219 E1.3875
G1 X85.576 Y66.784 E1.4274
G1 X86.255 Y66.784 E1.4714
G1 X86.689 Y67.219 E1.5112
G1 X87.368 Y67.218 E1.5553
G1 X86.934 Y66.784 E1.5951
G1 X87.612 Y66.784 E1.6391
G1 X88.046 Y67.218 E1.6789
G1 X88.725 Y67.218 E1.7229
G1 X88.291 Y66.784 E1.7627
G1 X88.970 Y66.784 E1.8067
G1 X89.403 Y67.217 E1.8464
G1 X90.082 Y67.217 E1.8904
G1 X89.649 Y66.784 E1.9302
G1 X90.328 Y66.784 E1.9742
G1 X90.760 Y67.217 E2.0139
G1 X91.439 Y67.216 E2.0579
G1 X91.006 Y66.784 E2.0975
G1 X91.685 Y66.784 E2.1415
G1 X92.117 Y67.216 E2.1812
G1 X92.796 Y67.216 E2.2252
G1 X92.364 Y66.784 E2.2648
G1 X93.043 Y66.784 E2.3088
G1 X93.474 Y67.215 E2.3483
G1 X94.153 Y67.215 E2.3923
G1 X93.722 Y66.784 E2.4319
G1 X94.401 Y66.784 E2.4759
G1 X94.831 Y67.215 E2.5154
G1 X95.057 Y67.215 E2.5300
G1 X95.460 Y67.299 E2.5567
G1 X95.486 Y67.191 E2.5639
G1 X95.079 Y66.784 E2.6012
G1 X98.076 Y67.744 F3600
G92 E0.0000
G1 X98.488 Y68.156 E0.0378 F2700
G1 X98.488 Y68.835 E0.0818
G1 X98.381 Y68.728 E0.0916
G1 X98.412 Y70.117 F3600
G92 E0.0000
G1 X98.968 Y70.673 E0.0510 F2700
G1 X98.968 Y71.352 E0.0950
G1 X98.521 Y70.905 E0.1360
G1 X98.532 Y71.067 E0.1466
G1 X98.532 Y71.594 E0.1808
G1 X98.968 Y72.030 E0.2208
G1 X98.968 Y72.709 E0.2648
G1 X98.532 Y72.273 E0.3048
G1 X98.532 Y72.952 E0.3488
G1 X98.968 Y73.388 E0.3888
G1 X98.968 Y74.067 E0.4329
G1 X98.532 Y73.631 E0.4728
G1 X98.532 Y73.933 E0.4924
G1 X98.508 Y74.286 E0.5154
G1 X98.968 Y74.746 E0.5576
G1 X98.968 Y75.005 E0.5744
G1 X98.459 Y74.915 E0.6079
G1 X98.408 Y74.864 E0.6126
G1 X98.403 Y76.218 F3600
G92 E0.0000
G1 X98.488 Y76.302 E0.0078 F2700
G1 X98.488 Y76.981 E0.0518
G1 X98.147 Y76.640 E0.0831
G1 X97.960 Y76.922 E0.1050
G1 X97.865 Y77.037 E0.1147
G1 X98.084 Y77.256 E0.1348
G1 X95.191 Y77.757 F3600
G92 E0.0000
G1 X95.562 Y78.128 E0.0340 F2700
G1 X95.583 Y78.216 E0.0398
G1 X94.971 Y78.216 E0.0795
G1 X94.541 Y77.785 E0.1190
G1 X93.862 Y77.785 E0.1630
G1 X94.292 Y78.216 E0.2025
G1 X93.613 Y78.216 E0.2466
G1 X93.183 Y77.785 E0.2860
G1 X92.504 Y77.785 E0.3301
G1 X92.935 Y78.216 E0.3696
G1 X92.256 Y78.216 E0.4136
G1 X91.825 Y77.785 E0.4531
G1 X91.146 Y77.785 E0.4971
G1 X91.577 Y78.216 E0.5366
G1 X90.898 Y78.216 E0.5806
G1 X90.468 Y77.785 E0.6201
G1 X89.789 Y77.785 E0.6641
G1 X90.219 Y78.216 E0.7036
G1 X89.541 Y78.216 E0.7476
G1 X89.110 Y77.785 E0.7871
G1 X88.431 Y77.785 E0.8312
G1 X88.862 Y78.216 E0.8706
G1 X88.183 Y78.216 E0.9147
G1 X87.752 Y77.785 E0.9542
G1 X87.074 Y77.785 E0.9982
G1 X87.504 Y78.216 E1.0377
G1 X86.825 Y78.216 E1.0817
G1 X86.395 Y77.785 E1.1212
G1 X85.716 Y77.785 E1.1652
G1 X86.146 Y78.216 E1.2047
G1 X85.468 Y78.216 E1.2487
