; G-Code generated by Simplify3D(R) Version 4.0.1
; Oct 24, 2018 at 5:38:09 PM
; Settings Summary
;   processName,Optimal(1)
;   applyToModels,Aluminum Rod End Cap,Aluminum Rod End Cap(2),Aluminum Rod End Cap(3),Aluminum Rod End Cap(4)
;   profileName,BortBot (modified)
;   profileVersion,2018-03-11 18:52:45
;   baseProfile,Default
;   printMaterial,PLA
;   printQuality,Medium
;   printExtruders,
;   extruderName,Extruder 1
;   extruderToolheadNumber,0
;   extruderDiameter,0.4
;   extruderAutoWidth,1
;   extruderWidth,0.48
;   extrusionMultiplier,1.01
;   extruderUseRetract,1
;   extruderRetractionDistance,3
;   extruderExtraRestartDistance,0
;   extruderRetractionZLift,0
;   extruderRetractionSpeed,1500
;   extruderUseCoasting,0
;   extruderCoastingDistance,1.4
;   extruderUseWipe,0
;   extruderWipeDistance,2
;   primaryExtruder,0
;   layerHeight,0.25
;   topSolidLayers,2
;   bottomSolidLayers,2
;   perimeterOutlines,2
;   printPerimetersInsideOut,1
;   startPointOption,2
;   startPointOriginX,0
;   startPointOriginY,0
;   sequentialIslands,0
;   spiralVaseMode,0
;   firstLayerHeightPercentage,125
;   firstLayerWidthPercentage,100
;   firstLayerUnderspeed,0.75
;   useRaft,0
;   raftExtruder,0
;   raftTopLayers,2
;   raftBaseLayers,2
;   raftOffset,3
;   raftSeparationDistance,0.3
;   raftTopInfill,90
;   aboveRaftSpeedMultiplier,0.3
;   useSkirt,1
;   skirtExtruder,0
;   skirtLayers,1
;   skirtOutlines,2
;   skirtOffset,3
;   usePrimePillar,0
;   primePillarExtruder,999
;   primePillarWidth,12
;   primePillarLocation,7
;   primePillarSpeedMultiplier,1
;   useOozeShield,0
;   oozeShieldExtruder,999
;   oozeShieldOffset,2
;   oozeShieldOutlines,1
;   oozeShieldSidewallShape,1
;   oozeShieldSidewallAngle,30
;   oozeShieldSpeedMultiplier,1
;   infillExtruder,0
;   internalInfillPattern,Grid
;   externalInfillPattern,Rectilinear
;   infillPercentage,60
;   outlineOverlapPercentage,35
;   infillExtrusionWidthPercentage,90
;   minInfillLength,5
;   infillLayerInterval,1
;   internalInfillAngles,45,-45
;   overlapInternalInfillAngles,1
;   externalInfillAngles,45,-45
;   generateSupport,1
;   supportExtruder,0
;   supportInfillPercentage,50
;   supportExtraInflation,0
;   supportBaseLayers,1
;   denseSupportExtruder,0
;   denseSupportLayers,4
;   denseSupportInfillPercentage,90
;   supportLayerInterval,1
;   supportHorizontalPartOffset,0.5
;   supportUpperSeparationLayers,1
;   supportLowerSeparationLayers,1
;   supportType,0
;   supportGridSpacing,1
;   maxOverhangAngle,46
;   supportAngles,0
;   temperatureName,Extruder 1,Heated Bed
;   temperatureNumber,0,1
;   temperatureSetpointCount,1,1
;   temperatureSetpointLayers,1,1
;   temperatureSetpointTemperatures,200,60
;   temperatureStabilizeAtStartup,1,1
;   temperatureHeatedBed,0,1
;   temperatureRelayBetweenLayers,1,0
;   temperatureRelayBetweenLoops,1,0
;   fanLayers,1,3
;   fanSpeeds,0,60
;   blipFanToFullPower,1
;   adjustSpeedForCooling,1
;   minSpeedLayerTime,15
;   minCoolingSpeedSlowdown,20
;   increaseFanForCooling,1
;   minFanLayerTime,45
;   maxCoolingFanSpeed,100
;   increaseFanForBridging,1
;   bridgingFanSpeed,100
;   use5D,1
;   relativeEdistances,0
;   allowEaxisZeroing,1
;   independentExtruderAxes,0
;   includeM10123,0
;   stickySupport,1
;   applyToolheadOffsets,0
;   gcodeXoffset,0
;   gcodeYoffset,0
;   gcodeZoffset,0
;   overrideMachineDefinition,0
;   machineTypeOverride,0
;   strokeXoverride,100
;   strokeYoverride,100
;   strokeZoverride,100
;   originOffsetXoverride,0
;   originOffsetYoverride,0
;   originOffsetZoverride,0
;   homeXdirOverride,-1
;   homeYdirOverride,-1
;   homeZdirOverride,-1
;   flipXoverride,1
;   flipYoverride,-1
;   flipZoverride,1
;   toolheadOffsets,0,0|0,0|0,0|0,0|0,0|0,0
;   overrideFirmwareConfiguration,0
;   firmwareTypeOverride,RepRap (Marlin/Repetier/Sprinter)
;   GPXconfigOverride,r2
;   baudRateOverride,115200
;   overridePrinterModels,0
;   printerModelsOverride
;   startingGcode,G28 XY ; HOME XY,M561 ; Clear any bed transform,G1 X80 Y80 Z25; move to center of bed,G30 ;Do a single Z probe,G29 S1 ; Load bed compensating height map,G1 X0 Y0 Z10 ; Return to origin
;   layerChangeGcode,
;   retractionGcode,
;   toolChangeGcode,
;   endingGcode,G10 S2.5; retract filament to relieve pressure,M104 S0 ; turn off extruder,M140 S0 ; turn off bed,G91 G1 Z10 ; Clearance from part,G90 G1 X0 Y0 Z170 ; Go to starting position (X0 Y0 Z 170),M84 ; disable motor,M107; Turn off fan
;   exportFileFormat,gcode
;   celebration,0
;   celebrationSong,Random Song
;   postProcessing,
;   defaultSpeed,3000
;   outlineUnderspeed,0.8
;   solidInfillUnderspeed,1
;   supportUnderspeed,1
;   rapidXYspeed,5100
;   rapidZspeed,1800
;   minBridgingArea,10
;   bridgingExtraInflation,5
;   bridgingExtrusionMultiplier,0.9
;   bridgingSpeedMultiplier,0.6
;   useFixedBridgingAngle,0
;   fixedBridgingAngle,0
;   applyBridgingToPerimeters,1
;   filamentDiameters,1.75|1.75|1.75|1.75|1.75|1.75
;   filamentPricesPerKg,20|46|46|46|46|46
;   filamentDensities,1.33|1.25|1.25|1.25|1.25|1.25
;   useMinPrintHeight,0
;   minPrintHeight,40
;   useMaxPrintHeight,0
;   maxPrintHeight,60
;   useDiaphragm,0
;   diaphragmLayerInterval,20
;   robustSlicing,1
;   mergeAllIntoSolid,0
;   onlyRetractWhenCrossingOutline,1
;   retractBetweenLayers,0
;   useRetractionMinTravel,0
;   retractionMinTravel,3
;   retractWhileWiping,1
;   onlyWipeOutlines,1
;   avoidCrossingOutline,0
;   maxMovementDetourFactor,3
;   toolChangeRetractionDistance,12
;   toolChangeExtraRestartDistance,-0.5
;   toolChangeRetractionSpeed,600
;   externalThinWallType,1
;   internalThinWallType,2
;   thinWallAllowedOverlapPercentage,20
;   singleExtrusionMinLength,1
;   singleExtrusionMinPrintingWidthPercentage,50
;   singleExtrusionMaxPrintingWidthPercentage,200
;   singleExtrusionEndpointExtension,0.2
;   horizontalSizeCompensation,0
G90
M82
M106 S255
G4 P500
M106 S0
M140 S60
M190 S60
M104 S200 T0
M109 S200 T0
G28 XY ; HOME XY
M561 ; Clear any bed transform
G1 X80 Y80 Z25; move to center of bed
G30 ;Do a single Z probe
G29 S1 ; Load bed compensating height map
G1 X0 Y0 Z10 ; Return to origin
G92 E0
G1 E-3.0000 F1500
G1 Z0.312 F1800
; process Optimal(1)
; layer 1, Z = 0.313
M105
T0
; tool H0.312 W0.480
; skirt
G1 X54.178 Y61.036 F5100
G1 E0.0000 F450
G92 E0
G1 X54.194 Y61.018 E0.0015 F2250
G1 X54.350 Y60.863 E0.0153
G1 X54.367 Y60.847 E0.0168
G1 X55.079 Y60.223 E0.0765
G1 X55.097 Y60.208 E0.0779
G1 X55.271 Y60.074 E0.0918
G1 X55.291 Y60.060 E0.0933
G1 X56.078 Y59.534 E0.1529
G1 X56.098 Y59.522 E0.1544
G1 X56.288 Y59.412 E0.1683
G1 X56.309 Y59.400 E0.1697
G1 X57.158 Y58.982 E0.2294
G1 X57.180 Y58.972 E0.2309
G1 X57.383 Y58.888 E0.2447
G1 X57.405 Y58.879 E0.2462
G1 X58.302 Y58.575 E0.3058
G1 X58.324 Y58.568 E0.3073
G1 X58.537 Y58.511 E0.3212
G1 X58.560 Y58.506 E0.3227
G1 X59.488 Y58.321 E0.3823
G1 X59.511 Y58.317 E0.3838
G1 X59.730 Y58.289 E0.3976
G1 X59.753 Y58.286 E0.3991
G1 X60.698 Y58.225 E0.4588
G1 X60.721 Y58.224 E0.4602
G1 X60.941 Y58.224 E0.4741
G1 X60.965 Y58.225 E0.4756
G1 X61.910 Y58.286 E0.5352
G1 X61.933 Y58.289 E0.5367
G1 X62.151 Y58.317 E0.5506
G1 X62.174 Y58.321 E0.5520
G1 X63.103 Y58.506 E0.6117
G1 X63.126 Y58.511 E0.6132
G1 X63.338 Y58.568 E0.6270
G1 X63.361 Y58.575 E0.6285
G1 X64.257 Y58.879 E0.6881
G1 X64.279 Y58.888 E0.6896
G1 X64.483 Y58.972 E0.7035
G1 X64.504 Y58.982 E0.7049
G1 X65.353 Y59.400 E0.7646
G1 X65.374 Y59.412 E0.7661
G1 X65.565 Y59.522 E0.7799
G1 X65.585 Y59.534 E0.7814
G1 X66.372 Y60.060 E0.8410
G1 X66.391 Y60.074 E0.8425
G1 X66.566 Y60.208 E0.8564
G1 X66.584 Y60.223 E0.8579
G1 X67.296 Y60.847 E0.9175
G1 X67.313 Y60.863 E0.9190
G1 X67.468 Y61.018 E0.9328
G1 X67.484 Y61.036 E0.9343
G1 X68.109 Y61.747 E0.9940
G1 X68.124 Y61.766 E0.9954
G1 X68.258 Y61.940 E1.0093
G1 X68.271 Y61.959 E1.0108
G1 X68.797 Y62.747 E1.0704
G1 X68.810 Y62.767 E1.0719
G1 X68.887 Y62.901 E1.0817
G1 X68.965 Y62.767 E1.0915
G1 X68.978 Y62.747 E1.0930
G1 X69.504 Y61.959 E1.1526
G1 X69.517 Y61.940 E1.1541
G1 X69.651 Y61.766 E1.1680
G1 X69.666 Y61.748 E1.1694
G1 X70.291 Y61.036 E1.2291
G1 X70.307 Y61.019 E1.2306
G1 X70.462 Y60.863 E1.2444
G1 X70.479 Y60.847 E1.2459
G1 X71.191 Y60.223 E1.3055
G1 X71.209 Y60.208 E1.3070
G1 X71.384 Y60.074 E1.3209
G1 X71.403 Y60.060 E1.3224
G1 X72.190 Y59.534 E1.3820
G1 X72.210 Y59.522 E1.3835
G1 X72.401 Y59.412 E1.3973
G1 X72.422 Y59.400 E1.3988
G1 X73.271 Y58.982 E1.4585
G1 X73.292 Y58.972 E1.4599
G1 X73.496 Y58.888 E1.4738
G1 X73.518 Y58.879 E1.4753
G1 X74.414 Y58.575 E1.5349
G1 X74.437 Y58.568 E1.5364
G1 X74.649 Y58.511 E1.5502
G1 X74.672 Y58.506 E1.5517
G1 X75.601 Y58.321 E1.6114
G1 X75.624 Y58.317 E1.6129
G1 X75.842 Y58.289 E1.6267
G1 X75.865 Y58.286 E1.6282
G1 X76.810 Y58.225 E1.6878
G1 X76.834 Y58.224 E1.6893
G1 X77.054 Y58.224 E1.7032
G1 X77.077 Y58.225 E1.7047
G1 X78.022 Y58.286 E1.7643
G1 X78.045 Y58.289 E1.7658
G1 X78.264 Y58.317 E1.7796
G1 X78.287 Y58.321 E1.7811
G1 X79.215 Y58.506 E1.8407
G1 X79.238 Y58.511 E1.8422
G1 X79.451 Y58.568 E1.8561
G1 X79.473 Y58.575 E1.8576
G1 X80.370 Y58.879 E1.9172
G1 X80.392 Y58.888 E1.9187
G1 X80.595 Y58.972 E1.9325
G1 X80.617 Y58.982 E1.9340
G1 X81.466 Y59.400 E1.9937
G1 X81.487 Y59.412 E1.9951
G1 X81.677 Y59.522 E2.0090
G1 X81.697 Y59.534 E2.0105
G1 X82.484 Y60.060 E2.0701
G1 X82.504 Y60.074 E2.0716
G1 X82.678 Y60.208 E2.0855
G1 X82.696 Y60.223 E2.0869
G1 X83.408 Y60.847 E2.1466
G1 X83.425 Y60.863 E2.1481
G1 X83.581 Y61.018 E2.1619
G1 X83.597 Y61.036 E2.1634
G1 X84.221 Y61.747 E2.2230
G1 X84.236 Y61.766 E2.2245
G1 X84.370 Y61.940 E2.2384
G1 X84.384 Y61.959 E2.2399
G1 X84.910 Y62.747 E2.2995
G1 X84.922 Y62.767 E2.3010
G1 X85.000 Y62.901 E2.3108
G1 X85.078 Y62.767 E2.3206
G1 X85.090 Y62.747 E2.3221
G1 X85.616 Y61.959 E2.3817
G1 X85.630 Y61.940 E2.3832
G1 X85.764 Y61.766 E2.3970
G1 X85.779 Y61.747 E2.3985
G1 X86.403 Y61.036 E2.4582
G1 X86.419 Y61.018 E2.4596
G1 X86.575 Y60.863 E2.4735
G1 X86.592 Y60.847 E2.4750
G1 X87.304 Y60.223 E2.5346
G1 X87.322 Y60.208 E2.5361
G1 X87.496 Y60.074 E2.5500
G1 X87.516 Y60.060 E2.5514
G1 X88.303 Y59.534 E2.6111
G1 X88.323 Y59.522 E2.6126
G1 X88.513 Y59.412 E2.6264
G1 X88.534 Y59.400 E2.6279
G1 X89.383 Y58.982 E2.6875
G1 X89.405 Y58.972 E2.6890
G1 X89.608 Y58.888 E2.7029
G1 X89.630 Y58.879 E2.7044
G1 X90.527 Y58.575 E2.7640
G1 X90.549 Y58.568 E2.7655
G1 X90.762 Y58.511 E2.7793
G1 X90.785 Y58.506 E2.7808
G1 X91.713 Y58.321 E2.8404
G1 X91.736 Y58.317 E2.8419
G1 X91.955 Y58.289 E2.8558
G1 X91.978 Y58.286 E2.8573
G1 X92.923 Y58.225 E2.9169
G1 X92.946 Y58.224 E2.9184
G1 X93.166 Y58.224 E2.9322
G1 X93.190 Y58.225 E2.9337
G1 X94.135 Y58.286 E2.9934
G1 X94.158 Y58.289 E2.9948
G1 X94.376 Y58.317 E3.0087
G1 X94.399 Y58.321 E3.0102
G1 X95.328 Y58.506 E3.0698
G1 X95.351 Y58.511 E3.0713
G1 X95.563 Y58.568 E3.0852
G1 X95.586 Y58.575 E3.0866
G1 X96.482 Y58.879 E3.1463
G1 X96.504 Y58.888 E3.1478
G1 X96.708 Y58.972 E3.1616
G1 X96.729 Y58.982 E3.1631
G1 X97.578 Y59.400 E3.2227
G1 X97.599 Y59.412 E3.2242
G1 X97.790 Y59.522 E3.2381
G1 X97.810 Y59.534 E3.2396
G1 X98.597 Y60.060 E3.2992
G1 X98.616 Y60.074 E3.3007
G1 X98.791 Y60.208 E3.3145
G1 X98.809 Y60.223 E3.3160
G1 X99.521 Y60.847 E3.3757
G1 X99.538 Y60.863 E3.3771
G1 X99.693 Y61.019 E3.3910
G1 X99.709 Y61.036 E3.3925
G1 X100.334 Y61.748 E3.4521
G1 X100.349 Y61.766 E3.4536
G1 X100.483 Y61.940 E3.4675
G1 X100.496 Y61.959 E3.4689
G1 X101.022 Y62.747 E3.5286
G1 X101.035 Y62.767 E3.5301
G1 X101.113 Y62.901 E3.5399
G1 X101.190 Y62.767 E3.5496
G1 X101.203 Y62.747 E3.5511
G1 X101.729 Y61.959 E3.6108
G1 X101.742 Y61.940 E3.6122
G1 X101.876 Y61.766 E3.6261
G1 X101.891 Y61.747 E3.6276
G1 X102.516 Y61.036 E3.6872
G1 X102.532 Y61.018 E3.6887
G1 X102.687 Y60.863 E3.7026
G1 X102.704 Y60.847 E3.7041
G1 X103.416 Y60.223 E3.7637
G1 X103.434 Y60.208 E3.7652
G1 X103.609 Y60.074 E3.7790
G1 X103.628 Y60.060 E3.7805
G1 X104.415 Y59.534 E3.8401
G1 X104.435 Y59.522 E3.8416
G1 X104.626 Y59.412 E3.8555
G1 X104.647 Y59.400 E3.8570
G1 X105.496 Y58.982 E3.9166
G1 X105.517 Y58.972 E3.9181
G1 X105.721 Y58.888 E3.9319
G1 X105.743 Y58.879 E3.9334
G1 X106.639 Y58.575 E3.9931
G1 X106.662 Y58.568 E3.9945
G1 X106.874 Y58.511 E4.0084
G1 X106.897 Y58.506 E4.0099
G1 X107.826 Y58.321 E4.0695
G1 X107.849 Y58.317 E4.0710
G1 X108.067 Y58.289 E4.0849
G1 X108.090 Y58.286 E4.0863
G1 X109.035 Y58.225 E4.1460
G1 X109.059 Y58.224 E4.1475
G1 X109.279 Y58.224 E4.1613
G1 X109.302 Y58.225 E4.1628
G1 X110.247 Y58.286 E4.2224
G1 X110.270 Y58.289 E4.2239
G1 X110.489 Y58.317 E4.2378
G1 X110.512 Y58.321 E4.2393
G1 X111.440 Y58.506 E4.2989
G1 X111.463 Y58.511 E4.3004
G1 X111.676 Y58.568 E4.3142
G1 X111.698 Y58.575 E4.3157
G1 X112.595 Y58.879 E4.3754
G1 X112.617 Y58.888 E4.3768
G1 X112.820 Y58.972 E4.3907
G1 X112.842 Y58.982 E4.3922
G1 X113.691 Y59.400 E4.4518
G1 X113.712 Y59.412 E4.4533
G1 X113.902 Y59.522 E4.4672
G1 X113.922 Y59.534 E4.4686
G1 X114.709 Y60.060 E4.5283
G1 X114.729 Y60.074 E4.5298
G1 X114.903 Y60.208 E4.5436
G1 X114.921 Y60.223 E4.5451
G1 X115.633 Y60.847 E4.6047
G1 X115.650 Y60.863 E4.6062
G1 X115.806 Y61.019 E4.6201
G1 X115.822 Y61.036 E4.6216
G1 X116.446 Y61.748 E4.6812
G1 X116.461 Y61.766 E4.6827
G1 X116.595 Y61.940 E4.6965
G1 X116.609 Y61.959 E4.6980
G1 X117.135 Y62.747 E4.7576
G1 X117.147 Y62.767 E4.7591
G1 X117.257 Y62.957 E4.7730
G1 X117.268 Y62.978 E4.7745
G1 X117.687 Y63.827 E4.8341
G1 X117.697 Y63.849 E4.8356
G1 X117.781 Y64.052 E4.8494
G1 X117.789 Y64.074 E4.8509
G1 X118.094 Y64.970 E4.9106
G1 X118.100 Y64.993 E4.9120
G1 X118.157 Y65.205 E4.9259
G1 X118.163 Y65.228 E4.9274
G1 X118.347 Y66.157 E4.9870
G1 X118.351 Y66.180 E4.9885
G1 X118.380 Y66.398 E5.0024
G1 X118.382 Y66.422 E5.0038
G1 X118.444 Y67.366 E5.0635
G1 X118.445 Y67.390 E5.0650
G1 X118.445 Y67.610 E5.0788
G1 X118.444 Y67.634 E5.0803
G1 X118.382 Y68.578 E5.1399
G1 X118.380 Y68.602 E5.1414
G1 X118.351 Y68.820 E5.1553
G1 X118.347 Y68.843 E5.1568
G1 X118.163 Y69.772 E5.2164
G1 X118.157 Y69.795 E5.2179
G1 X118.100 Y70.007 E5.2317
G1 X118.094 Y70.030 E5.2332
G1 X117.789 Y70.926 E5.2929
G1 X117.781 Y70.948 E5.2943
G1 X117.697 Y71.151 E5.3082
G1 X117.687 Y71.173 E5.3097
G1 X117.268 Y72.022 E5.3693
G1 X117.257 Y72.043 E5.3708
G1 X117.147 Y72.233 E5.3847
G1 X117.135 Y72.253 E5.3861
G1 X116.609 Y73.041 E5.4458
G1 X116.595 Y73.060 E5.4473
G1 X116.461 Y73.234 E5.4611
G1 X116.446 Y73.252 E5.4626
G1 X115.822 Y73.964 E5.5222
G1 X115.806 Y73.981 E5.5237
G1 X115.650 Y74.137 E5.5376
G1 X115.633 Y74.153 E5.5391
G1 X114.921 Y74.777 E5.5987
G1 X114.903 Y74.792 E5.6002
G1 X114.729 Y74.926 E5.6140
G1 X114.709 Y74.940 E5.6155
G1 X113.922 Y75.466 E5.6751
G1 X113.902 Y75.478 E5.6766
G1 X113.712 Y75.588 E5.6905
G1 X113.691 Y75.600 E5.6920
G1 X112.842 Y76.018 E5.7516
G1 X112.820 Y76.028 E5.7531
G1 X112.617 Y76.112 E5.7669
G1 X112.595 Y76.121 E5.7684
G1 X111.698 Y76.425 E5.8281
G1 X111.676 Y76.432 E5.8295
G1 X111.463 Y76.489 E5.8434
G1 X111.440 Y76.494 E5.8449
G1 X110.512 Y76.679 E5.9045
G1 X110.489 Y76.683 E5.9060
G1 X110.271 Y76.711 E5.9199
G1 X110.247 Y76.714 E5.9213
G1 X109.302 Y76.775 E5.9810
G1 X109.279 Y76.776 E5.9825
G1 X109.059 Y76.776 E5.9963
G1 X109.035 Y76.775 E5.9978
G1 X108.090 Y76.714 E6.0574
G1 X108.067 Y76.711 E6.0589
G1 X107.849 Y76.683 E6.0728
G1 X107.826 Y76.679 E6.0743
G1 X106.897 Y76.494 E6.1339
G1 X106.874 Y76.489 E6.1354
G1 X106.662 Y76.432 E6.1492
G1 X106.639 Y76.425 E6.1507
G1 X105.743 Y76.121 E6.2104
G1 X105.721 Y76.112 E6.2118
G1 X105.517 Y76.028 E6.2257
G1 X105.496 Y76.018 E6.2272
G1 X104.647 Y75.600 E6.2868
G1 X104.626 Y75.588 E6.2883
G1 X104.435 Y75.478 E6.3022
G1 X104.415 Y75.466 E6.3036
G1 X103.628 Y74.940 E6.3633
G1 X103.609 Y74.926 E6.3648
G1 X103.434 Y74.792 E6.3786
G1 X103.416 Y74.777 E6.3801
G1 X102.704 Y74.153 E6.4397
G1 X102.687 Y74.137 E6.4412
G1 X102.532 Y73.982 E6.4551
G1 X102.516 Y73.964 E6.4566
G1 X101.891 Y73.252 E6.5162
G1 X101.876 Y73.234 E6.5177
G1 X101.742 Y73.060 E6.5315
G1 X101.729 Y73.041 E6.5330
G1 X101.203 Y72.253 E6.5926
G1 X101.190 Y72.233 E6.5941
G1 X101.113 Y72.099 E6.6039
G1 X101.035 Y72.233 E6.6137
G1 X101.022 Y72.253 E6.6152
G1 X100.496 Y73.041 E6.6748
G1 X100.483 Y73.060 E6.6763
