; G-Code generated by Simplify3D(R) Version 4.1.0
; Jul 20, 2019 at 10:30:16 PM
; Settings Summary
;   processName,Process1
;   applyToModels,Center mark jig, Kinematic coupling, top,Center mark jig, Kinematic coupling, top(2),3DBenchy
;   profileName,Hatchbox - PLA - 0.6 (modified)
;   profileVersion,2019-07-20 16:14:43
;   baseProfile,Default
;   printMaterial,PLA
;   printQuality,Medium
;   printExtruders,
;   extruderName,Extruder 1
;   extruderToolheadNumber,0
;   extruderDiameter,0.6
;   extruderAutoWidth,1
;   extruderWidth,0.72
;   extrusionMultiplier,1
;   extruderUseRetract,1
;   extruderRetractionDistance,4.1
;   extruderExtraRestartDistance,0.5
;   extruderRetractionZLift,0
;   extruderRetractionSpeed,3000
;   extruderUseCoasting,0
;   extruderCoastingDistance,1.4
;   extruderUseWipe,0
;   extruderWipeDistance,1
;   primaryExtruder,0
;   layerHeight,0.3
;   topSolidLayers,3
;   bottomSolidLayers,3
;   perimeterOutlines,2
;   printPerimetersInsideOut,1
;   startPointOption,3
;   startPointOriginX,200
;   startPointOriginY,100
;   sequentialIslands,0
;   spiralVaseMode,0
;   firstLayerHeightPercentage,100
;   firstLayerWidthPercentage,100
;   firstLayerUnderspeed,0.65
;   useRaft,0
;   raftExtruder,0
;   raftTopLayers,2
;   raftBaseLayers,2
;   raftOffset,3
;   raftSeparationDistance,0.3
;   raftTopInfill,90
;   aboveRaftSpeedMultiplier,0.3
;   useSkirt,1
;   skirtExtruder,0
;   skirtLayers,1
;   skirtOutlines,2
;   skirtOffset,2
;   usePrimePillar,0
;   primePillarExtruder,999
;   primePillarWidth,12
;   primePillarLocation,7
;   primePillarSpeedMultiplier,1
;   useOozeShield,0
;   oozeShieldExtruder,999
;   oozeShieldOffset,2
;   oozeShieldOutlines,1
;   oozeShieldSidewallShape,1
;   oozeShieldSidewallAngle,30
;   oozeShieldSpeedMultiplier,1
;   infillExtruder,0
;   internalInfillPattern,Triangular
;   externalInfillPattern,Rectilinear
;   infillPercentage,10
;   outlineOverlapPercentage,50
;   infillExtrusionWidthPercentage,100
;   minInfillLength,5
;   infillLayerInterval,1
;   internalInfillAngles,0,60,-60
;   overlapInternalInfillAngles,1
;   externalInfillAngles,45,-45
;   generateSupport,0
;   supportExtruder,0
;   supportInfillPercentage,30
;   supportExtraInflation,1
;   supportBaseLayers,1
;   denseSupportExtruder,0
;   denseSupportLayers,2
;   denseSupportInfillPercentage,80
;   supportLayerInterval,1
;   supportHorizontalPartOffset,0.5
;   supportUpperSeparationLayers,1
;   supportLowerSeparationLayers,1
;   supportType,0
;   supportGridSpacing,1
;   maxOverhangAngle,46
;   supportAngles,90
;   temperatureName,Extruder 1,Heated Bed
;   temperatureNumber,0,1
;   temperatureSetpointCount,1,1
;   temperatureSetpointLayers,1,1
;   temperatureSetpointTemperatures,215,45
;   temperatureStabilizeAtStartup,1,1
;   temperatureHeatedBed,0,1
;   fanLayers,1,3
;   fanSpeeds,0,45
;   blipFanToFullPower,0
;   adjustSpeedForCooling,0
;   minSpeedLayerTime,15
;   minCoolingSpeedSlowdown,20
;   increaseFanForCooling,1
;   minFanLayerTime,25
;   maxCoolingFanSpeed,65
;   increaseFanForBridging,1
;   bridgingFanSpeed,100
;   use5D,1
;   relativeEdistances,0
;   allowEaxisZeroing,1
;   independentExtruderAxes,0
;   includeM10123,0
;   stickySupport,1
;   applyToolheadOffsets,0
;   gcodeXoffset,0
;   gcodeYoffset,0
;   gcodeZoffset,0
;   overrideMachineDefinition,0
;   machineTypeOverride,0
;   strokeXoverride,100
;   strokeYoverride,100
;   strokeZoverride,100
;   originOffsetXoverride,0
;   originOffsetYoverride,0
;   originOffsetZoverride,0
;   homeXdirOverride,-1
;   homeYdirOverride,-1
;   homeZdirOverride,-1
;   flipXoverride,1
;   flipYoverride,-1
;   flipZoverride,1
;   toolheadOffsets,0,0|0,0|0,0|0,0|0,0|0,0
;   overrideFirmwareConfiguration,0
;   firmwareTypeOverride,RepRap (Marlin/Repetier/Sprinter)
;   GPXconfigOverride,r2
;   baudRateOverride,115200
;   overridePrinterModels,0
;   printerModelsOverride
;   startingGcode,G11 S1; Unretract,;G28 XY ; HOME XY,;M561 ; Clear any bed transform,G1 X100 Y80 Z25; move to center of bed,G30 ;Do a single Z probe,G29 S1 ; Load bed compensating height map,;G1 Z10; ,M572 D0 S1
;   layerChangeGcode,
;   retractionGcode,
;   toolChangeGcode,
;   endingGcode,G10 S1; retract filament to relieve pressure,M104 S0 ; turn off extruder,M140 S0 ; turn off bed,G91 G1 Z10 ; Clearance from part,G90 G1 X0 Y0 ; Go to starting position (X0 Y0 Z300),M84 ; disable motor,M107; Turn off fan
;   exportFileFormat,gcode
;   celebration,0
;   celebrationSong,Random Song
;   postProcessing,
;   defaultSpeed,3600
;   outlineUnderspeed,0.8
;   solidInfillUnderspeed,1
;   supportUnderspeed,1
;   rapidXYspeed,3600
;   rapidZspeed,1800
;   minBridgingArea,10
;   bridgingExtraInflation,5
;   bridgingExtrusionMultiplier,0.9
;   bridgingSpeedMultiplier,0.6
;   useFixedBridgingAngle,0
;   fixedBridgingAngle,0
;   applyBridgingToPerimeters,1
;   filamentDiameters,1.71|1.75|1.75|1.75|1.75|1.75
;   filamentPricesPerKg,20|46|46|46|46|46
;   filamentDensities,1.21|1.25|1.25|1.25|1.25|1.25
;   useMinPrintHeight,0
;   minPrintHeight,23
;   useMaxPrintHeight,0
;   maxPrintHeight,60
;   useDiaphragm,0
;   diaphragmLayerInterval,20
;   robustSlicing,1
;   mergeAllIntoSolid,0
;   onlyRetractWhenCrossingOutline,1
;   retractBetweenLayers,0
;   useRetractionMinTravel,1
;   retractionMinTravel,3
;   retractWhileWiping,0
;   onlyWipeOutlines,0
;   avoidCrossingOutline,1
;   maxMovementDetourFactor,3
;   toolChangeRetractionDistance,12
;   toolChangeExtraRestartDistance,-0.5
;   toolChangeRetractionSpeed,600
;   externalThinWallType,1
;   internalThinWallType,1
;   thinWallAllowedOverlapPercentage,30
;   singleExtrusionMinLength,1
;   singleExtrusionMinPrintingWidthPercentage,50
;   singleExtrusionMaxPrintingWidthPercentage,200
;   singleExtrusionEndpointExtension,0.2
;   horizontalSizeCompensation,0
G90
M82
M106 S0
M140 S45
M190 S45
M104 S215 T0
M109 S215 T0
G11 S1; Unretract
;G28 XY ; HOME XY
;M561 ; Clear any bed transform
G1 X100 Y80 Z25; move to center of bed
G30 ;Do a single Z probe
G29 S1 ; Load bed compensating height map
;G1 Z10; 
M572 D0 S1
; process Process1
; layer 1, Z = 0.300
T0
; feature skirt
; tool H0.300 W0.720
G1 Z0.300 F1800
G1 X116.126 Y76.645 F3600
G92 E0.0000
G1 X115.964 Y77.194 E0.0539 F2340
G1 X115.881 Y77.412 E0.0757
G1 X115.660 Y77.883 E0.1248
G1 X115.565 Y78.056 E0.1433
G1 X114.433 Y79.837 E0.3417
G1 X114.358 Y79.945 E0.3541
G1 X113.199 Y81.464 E0.5338
G1 X113.135 Y81.543 E0.5434
G1 X112.311 Y82.487 E0.6613
G1 X112.266 Y82.536 E0.6675
G1 X111.688 Y83.144 E0.7464
G1 X111.650 Y83.182 E0.7514
G1 X111.078 Y83.744 E0.8269
G1 X111.027 Y83.791 E0.8334
G1 X110.012 Y84.700 E0.9616
G1 X109.959 Y84.746 E0.9682
G1 X109.330 Y85.260 E1.0445
G1 X109.274 Y85.304 E1.0513
G1 X108.173 Y86.121 E1.1802
G1 X108.115 Y86.162 E1.1868
G1 X107.429 Y86.623 E1.2646
G1 X107.353 Y86.671 E1.2731
G1 X105.652 Y87.676 E1.4589
G1 X105.573 Y87.720 E1.4674
G1 X104.813 Y88.111 E1.5478
G1 X104.729 Y88.151 E1.5566
G1 X102.867 Y88.971 E1.7479
G1 X102.780 Y89.006 E1.7567
G1 X102.015 Y89.289 E1.8334
G1 X101.951 Y89.311 E1.8398
G1 X100.707 Y89.709 E1.9626
G1 X100.623 Y89.733 E1.9708
G1 X99.318 Y90.072 E2.0977
G1 X99.237 Y90.090 E2.1055
G1 X97.962 Y90.348 E2.2278
G1 X97.877 Y90.363 E2.2360
G1 X96.568 Y90.552 E2.3603
G1 X96.484 Y90.562 E2.3683
G1 X95.167 Y90.679 E2.4926
G1 X95.082 Y90.685 E2.5006
G1 X93.784 Y90.728 E2.6228
G1 X93.698 Y90.729 E2.6309
G1 X92.370 Y90.699 E2.7558
G1 X92.311 Y90.696 E2.7614
G1 X56.881 Y88.545 E6.0998
G1 X56.706 Y88.524 E6.1164
G1 X55.866 Y88.376 E6.1966
G1 X55.623 Y88.312 E6.2202
G1 X55.143 Y88.144 E6.2680
G1 X54.951 Y88.061 E6.2877
G1 X54.404 Y87.781 E6.3455
G1 X54.206 Y87.660 E6.3673
G1 X53.727 Y87.315 E6.4229
G1 X53.565 Y87.180 E6.4427
G1 X53.177 Y86.812 E6.4930
G1 X52.999 Y86.610 E6.5183
G1 X52.501 Y85.936 E6.5971
G1 X52.356 Y85.696 E6.6235
G1 X52.088 Y85.146 E6.6811
G1 X52.008 Y84.950 E6.7009
G1 X51.822 Y84.382 E6.7571
G1 X51.766 Y84.151 E6.7796
G1 X51.649 Y83.437 E6.8476
G1 X51.630 Y83.256 E6.8647
G1 X51.614 Y82.872 E6.9009
G1 X51.612 Y82.804 E6.9072
G1 X51.617 Y67.939 E8.3054
G1 X51.634 Y67.709 E8.3270
G1 X51.760 Y66.877 E8.4062
G1 X51.819 Y66.626 E8.4304
G1 X52.008 Y66.050 E8.4875
G1 X52.088 Y65.854 E8.5073
G1 X52.356 Y65.303 E8.5650
G1 X52.504 Y65.060 E8.5917
G1 X53.007 Y64.382 E8.6712
G1 X53.188 Y64.177 E8.6968
G1 X53.603 Y63.786 E8.7505
G1 X53.776 Y63.646 E8.7714
G1 X54.284 Y63.289 E8.8298
G1 X54.525 Y63.151 E8.8559
G1 X55.259 Y62.813 E8.9320
G1 X55.505 Y62.724 E8.9565
G1 X56.094 Y62.567 E9.0139
G1 X56.306 Y62.526 E9.0341
G1 X56.838 Y62.460 E9.0846
G1 X56.932 Y62.452 E9.0935
G1 X92.083 Y60.316 E12.4056
G1 X92.128 Y60.314 E12.4098
G1 X93.450 Y60.272 E12.5343
G1 X93.523 Y60.271 E12.5412
G1 X94.457 Y60.286 E12.6289
G1 X94.546 Y60.290 E12.6373
G1 X96.363 Y60.424 E12.8087
G1 X96.467 Y60.435 E12.8186
G1 X97.845 Y60.632 E12.9495
G1 X97.945 Y60.649 E12.9590
G1 X99.680 Y61.015 E13.1258
G1 X99.777 Y61.039 E13.1352
G1 X101.044 Y61.393 E13.2589
G1 X101.111 Y61.414 E13.2655
G1 X101.981 Y61.700 E13.3516
G1 X102.052 Y61.725 E13.3588
G1 X103.359 Y62.228 E13.4904
G1 X103.426 Y62.256 E13.4973
G1 X104.217 Y62.604 E13.5785
G1 X104.272 Y62.629 E13.5842
G1 X105.113 Y63.040 E13.6722
G1 X105.176 Y63.072 E13.6789
G1 X106.339 Y63.708 E13.8036
G1 X106.403 Y63.744 E13.8105
G1 X107.186 Y64.222 E13.8967
G1 X107.247 Y64.261 E13.9036
G1 X108.430 Y65.062 E14.0379
G1 X108.490 Y65.106 E14.0449
G1 X109.195 Y65.634 E14.1278
G1 X109.264 Y65.689 E14.1361
G1 X110.636 Y66.847 E14.3050
G1 X110.713 Y66.916 E14.3147
G1 X111.714 Y67.883 E14.4456
G1 X111.787 Y67.958 E14.4554
G1 X113.024 Y69.325 E14.6288
G1 X113.088 Y69.400 E14.6381
G1 X113.841 Y70.349 E14.7520
G1 X113.884 Y70.406 E14.7588
G1 X114.487 Y71.241 E14.8556
G1 X114.525 Y71.296 E14.8619
G1 X115.077 Y72.137 E14.9565
G1 X115.110 Y72.190 E14.9624
G1 X115.589 Y72.987 E15.0498
G1 X115.658 Y73.116 E15.0636
G1 X115.889 Y73.599 E15.1140
G1 X115.999 Y73.910 E15.1449
G1 X116.209 Y74.798 E15.2308
G1 X116.250 Y75.140 E15.2632
G1 X116.255 Y75.702 E15.3161
G1 X116.242 Y75.921 E15.3367
G1 X116.176 Y76.413 E15.3834
G1 X116.126 Y76.645 E15.4057
G1 X115.428 Y76.467 F3600
G92 E0.0000
G1 X115.281 Y76.964 E0.0487 F2340
G1 X115.218 Y77.131 E0.0655
G1 X115.018 Y77.557 E0.1098
G1 X114.945 Y77.689 E0.1240
G1 X113.834 Y79.438 E0.3188
G1 X113.776 Y79.520 E0.3283
G1 X112.634 Y81.018 E0.5054
G1 X112.585 Y81.078 E0.5128
G1 X111.774 Y82.008 E0.6288
G1 X111.739 Y82.045 E0.6336
G1 X111.171 Y82.643 E0.7112
G1 X111.142 Y82.672 E0.7150
G1 X110.579 Y83.224 E0.7892
G1 X110.541 Y83.260 E0.7941
G1 X109.538 Y84.159 E0.9207
G1 X109.497 Y84.194 E0.9258
G1 X108.881 Y84.697 E1.0006
G1 X108.838 Y84.731 E1.0058
G1 X107.751 Y85.537 E1.1331
G1 X107.706 Y85.569 E1.1382
G1 X107.036 Y86.020 E1.2142
G1 X106.978 Y86.057 E1.2207
G1 X105.295 Y87.051 E1.4045
G1 X105.234 Y87.085 E1.4110
G1 X104.493 Y87.466 E1.4895
G1 X104.429 Y87.497 E1.4962
G1 X102.587 Y88.307 E1.6854
G1 X102.521 Y88.334 E1.6921
G1 X101.773 Y88.611 E1.7671
G1 X101.724 Y88.627 E1.7720
G1 X100.497 Y89.020 E1.8931
G1 X100.433 Y89.039 E1.8994
G1 X99.147 Y89.372 E2.0244
G1 X99.085 Y89.386 E2.0304
G1 X97.829 Y89.641 E2.1509
G1 X97.764 Y89.652 E2.1571
G1 X96.475 Y89.838 E2.2796
G1 X96.411 Y89.846 E2.2857
G1 X95.113 Y89.961 E2.4082
G1 X95.048 Y89.965 E2.4143
G1 X93.770 Y90.008 E2.5346
G1 X93.704 Y90.009 E2.5408
G1 X92.393 Y89.979 E2.6641
G1 X92.348 Y89.977 E2.6684
G1 X56.945 Y87.828 E6.0042
G1 X56.811 Y87.812 E6.0169
G1 X56.020 Y87.672 E6.0925
G1 X55.834 Y87.623 E6.1105
G1 X55.405 Y87.472 E6.1533
G1 X55.258 Y87.409 E6.1684
G1 X54.757 Y87.152 E6.2214
G1 X54.605 Y87.060 E6.2381
G1 X54.167 Y86.744 E6.2888
G1 X54.043 Y86.642 E6.3040
G1 X53.696 Y86.312 E6.3490
G1 X53.560 Y86.157 E6.3684
G1 X53.100 Y85.535 E6.4412
G1 X52.989 Y85.351 E6.4614
G1 X52.746 Y84.852 E6.5136
G1 X52.685 Y84.703 E6.5288
G1 X52.515 Y84.185 E6.5800
G1 X52.472 Y84.007 E6.5972
G1 X52.363 Y83.342 E6.6606
G1 X52.349 Y83.203 E6.6737
G1 X52.333 Y82.848 E6.7072
G1 X52.332 Y82.797 E6.7120
G1 X52.337 Y67.966 E8.1069
G1 X52.350 Y67.790 E8.1235
G1 X52.467 Y67.014 E8.1973
G1 X52.513 Y66.822 E8.2158
G1 X52.685 Y66.297 E8.2678
G1 X52.746 Y66.148 E8.2830
G1 X52.989 Y65.648 E8.3352
G1 X53.102 Y65.462 E8.3557
G1 X53.566 Y64.836 E8.4290
G1 X53.705 Y64.680 E8.4487
G1 X54.078 Y64.328 E8.4969
G1 X54.210 Y64.220 E8.5129
G1 X54.671 Y63.897 E8.5658
G1 X54.856 Y63.791 E8.5858
G1 X55.533 Y63.480 E8.6559
G1 X55.721 Y63.412 E8.6748
G1 X56.256 Y63.269 E8.7269
G1 X56.418 Y63.237 E8.7424
G1 X56.915 Y63.176 E8.7894
G1 X56.987 Y63.170 E8.7963
G1 X92.122 Y61.035 E12.1069
G1 X92.156 Y61.033 E12.1101
G1 X93.464 Y60.992 E12.2332
G1 X93.521 Y60.991 E12.2386
G1 X94.435 Y61.005 E12.3245
G1 X94.503 Y61.008 E12.3309
G1 X96.297 Y61.141 E12.5002
G1 X96.378 Y61.149 E12.5078
G1 X97.731 Y61.343 E12.6364
G1 X97.808 Y61.356 E12.6437
G1 X99.520 Y61.717 E12.8083
G1 X99.595 Y61.736 E12.8155
G1 X100.842 Y62.085 E12.9373
G1 X100.893 Y62.100 E12.9423
G1 X101.747 Y62.381 E13.0269
G1 X101.802 Y62.401 E13.0323
G1 X103.092 Y62.897 E13.1624
G1 X103.144 Y62.918 E13.1676
G1 X103.920 Y63.260 E13.2474
G1 X103.963 Y63.280 E13.2518
G1 X104.790 Y63.683 E13.3383
G1 X104.838 Y63.708 E13.3435
G1 X105.986 Y64.335 E13.4665
G1 X106.036 Y64.364 E13.4719
G1 X106.803 Y64.832 E13.5564
G1 X106.850 Y64.862 E13.5617
G1 X108.019 Y65.654 E13.6944
G1 X108.065 Y65.687 E13.6998
G1 X108.754 Y66.204 E13.7809
G1 X108.807 Y66.246 E13.7872
G1 X110.163 Y67.390 E13.9540
G1 X110.222 Y67.443 E13.9615
G1 X111.205 Y68.392 E14.0901
G1 X111.261 Y68.450 E14.0976
G1 X112.482 Y69.800 E14.2688
G1 X112.531 Y69.857 E14.2759
G1 X113.272 Y70.790 E14.3879
G1 X113.305 Y70.834 E14.3931
G1 X113.898 Y71.656 E14.4884
G1 X113.927 Y71.698 E14.4932
G1 X114.471 Y72.526 E14.5864
G1 X114.497 Y72.567 E14.5910
G1 X114.963 Y73.343 E14.6761
G1 X115.016 Y73.441 E14.6866
G1 X115.223 Y73.875 E14.7318
G1 X115.307 Y74.113 E14.7555
G1 X115.499 Y74.925 E14.8340
G1 X115.531 Y75.187 E14.8588
G1 X115.535 Y75.683 E14.9055
G1 X115.525 Y75.851 E14.9213
G1 X115.466 Y76.290 E14.9630
G1 X115.428 Y76.467 E14.9800
G92 E0.0000
G1 E-4.1000 F3000
G1 X154.580 Y102.477 F3600
G1 E0.5000 F3000
G92 E0.0000
G1 X154.580 Y129.029 E2.4972 F2340
G1 X152.776 Y130.833 E2.7372
G1 X101.224 Y130.833 E7.5858
G1 X100.000 Y129.609 E7.7486
G1 X98.776 Y130.833 E7.9115
G1 X47.224 Y130.833 E12.7600
G1 X45.420 Y129.029 E13.0000
G1 X45.420 Y102.477 E15.4973
G1 X47.224 Y100.673 E15.7372
G1 X98.776 Y100.673 E20.5858
G1 X100.000 Y101.897 E20.7486
G1 X101.224 Y100.673 E20.9115
G1 X152.776 Y100.673 E25.7600
G1 X154.580 Y102.477 E26.0000
G1 X153.860 Y102.775 F3600
G92 E0.0000
G1 X153.860 Y128.731 E2.4411 F2340
G1 X152.478 Y130.113 E2.6250
G1 X101.522 Y130.113 E7.4175
G1 X100.000 Y128.591 E7.6200
G1 X98.478 Y130.113 E7.8225
G1 X47.522 Y130.113 E12.6150
G1 X46.140 Y128.731 E12.7989
G1 X46.140 Y102.775 E15.2400
G1 X47.522 Y101.393 E15.4239
G1 X98.478 Y101.393 E20.2163
G1 X100.000 Y102.915 E20.4189
G1 X101.522 Y101.393 E20.6214
G1 X152.478 Y101.393 E25.4138
G1 X153.860 Y102.775 E25.5977
G92 E0.0000
G1 E-4.1000 F3000
; feature inner perimeter
G1 X112.321 Y76.780 F3600
G1 X112.594 Y76.318
G1 X112.705 Y76.082
G1 X112.786 Y75.810
G1 X112.814 Y75.598
G1 X112.812 Y75.372
G1 X112.771 Y75.127
G1 X112.703 Y74.911
G1 X112.593 Y74.680
G1 X112.181 Y73.994
G1 X111.935 Y73.619
G1 X110.127 Y72.362
G1 E0.5000 F3000
G92 E0.0000
G1 X109.800 Y72.680 E0.0429 F2106
G1 X109.469 Y72.401 E0.0837
G1 X109.015 Y72.213 E0.1298
G1 X108.627 Y72.148 E0.1669
G1 X105.692 Y72.138 E0.4429
G1 X105.097 Y72.154 E0.4989
G1 X104.600 Y72.227 E0.5462
G1 X104.112 Y72.413 E0.5952
G1 X103.632 Y72.803 E0.6534
G1 X103.250 Y72.451 E0.7023
G1 X102.877 Y72.242 E0.7425
G1 X102.367 Y72.129 E0.7916
G1 X101.901 Y72.190 E0.8358
G1 X101.450 Y72.409 E0.8830
G1 X101.155 Y72.663 E0.9196
G1 X100.920 Y72.947 E0.9542
G1 X100.647 Y73.399 E1.0039
G1 X100.274 Y74.242 E1.0906
G1 X100.081 Y73.531 E1.1599
G1 X99.885 Y73.094 E1.2049
G1 X99.659 Y72.786 E1.2408
G1 X99.379 Y72.535 E1.2762
G1 X99.058 Y72.346 E1.3113
G1 X98.763 Y72.233 E1.3410
G1 X98.414 Y72.157 E1.3746
G1 X98.041 Y72.141 E1.4097
G1 X97.674 Y72.200 E1.4447
