; G-Code generated by Simplify3D(R) Version 4.0.0
; Aug 12, 2018 at 3:52:15 PM
; Settings Summary
;   processName,Process1
;   applyToModels,Focuser
;   profileName,BortBot (modified)
;   profileVersion,2018-03-11 18:52:45
;   baseProfile,Default
;   printMaterial,PLA
;   printQuality,Medium
;   printExtruders,
;   extruderName,Extruder 1
;   extruderToolheadNumber,0
;   extruderDiameter,0.5
;   extruderAutoWidth,0
;   extruderWidth,0.6
;   extrusionMultiplier,1.05
;   extruderUseRetract,1
;   extruderRetractionDistance,1.2
;   extruderExtraRestartDistance,0
;   extruderRetractionZLift,0
;   extruderRetractionSpeed,6000
;   extruderUseCoasting,1
;   extruderCoastingDistance,1.2
;   extruderUseWipe,1
;   extruderWipeDistance,4.4
;   primaryExtruder,0
;   layerHeight,0.2
;   topSolidLayers,3
;   bottomSolidLayers,3
;   perimeterOutlines,4
;   printPerimetersInsideOut,0
;   startPointOption,2
;   startPointOriginX,0
;   startPointOriginY,0
;   sequentialIslands,0
;   spiralVaseMode,0
;   firstLayerHeightPercentage,100
;   firstLayerWidthPercentage,100
;   firstLayerUnderspeed,0.75
;   useRaft,0
;   raftExtruder,0
;   raftTopLayers,2
;   raftBaseLayers,2
;   raftOffset,3
;   raftSeparationDistance,0.3
;   raftTopInfill,90
;   aboveRaftSpeedMultiplier,0.3
;   useSkirt,1
;   skirtExtruder,0
;   skirtLayers,1
;   skirtOutlines,2
;   skirtOffset,3
;   usePrimePillar,0
;   primePillarExtruder,999
;   primePillarWidth,12
;   primePillarLocation,7
;   primePillarSpeedMultiplier,1
;   useOozeShield,0
;   oozeShieldExtruder,999
;   oozeShieldOffset,2
;   oozeShieldOutlines,1
;   oozeShieldSidewallShape,1
;   oozeShieldSidewallAngle,30
;   oozeShieldSpeedMultiplier,1
;   infillExtruder,0
;   internalInfillPattern,Rectilinear
;   externalInfillPattern,Rectilinear
;   infillPercentage,40
;   outlineOverlapPercentage,35
;   infillExtrusionWidthPercentage,90
;   minInfillLength,5
;   infillLayerInterval,2
;   internalInfillAngles,45,-45
;   overlapInternalInfillAngles,0
;   externalInfillAngles,45,-45
;   generateSupport,0
;   supportExtruder,0
;   supportInfillPercentage,30
;   supportExtraInflation,0
;   supportBaseLayers,1
;   denseSupportExtruder,0
;   denseSupportLayers,4
;   denseSupportInfillPercentage,90
;   supportLayerInterval,2
;   supportHorizontalPartOffset,0.4
;   supportUpperSeparationLayers,1
;   supportLowerSeparationLayers,2
;   supportType,0
;   supportGridSpacing,1
;   maxOverhangAngle,46
;   supportAngles,30
;   temperatureName,Extruder 1,Heated Bed
;   temperatureNumber,0,1
;   temperatureSetpointCount,1,1
;   temperatureSetpointLayers,1,1
;   temperatureSetpointTemperatures,245,60
;   temperatureStabilizeAtStartup,1,1
;   temperatureHeatedBed,0,1
;   temperatureRelayBetweenLayers,1,0
;   temperatureRelayBetweenLoops,1,0
;   fanLayers,1,3
;   fanSpeeds,0,40
;   blipFanToFullPower,0
;   adjustSpeedForCooling,1
;   minSpeedLayerTime,15
;   minCoolingSpeedSlowdown,20
;   increaseFanForCooling,1
;   minFanLayerTime,45
;   maxCoolingFanSpeed,100
;   increaseFanForBridging,1
;   bridgingFanSpeed,100
;   use5D,1
;   relativeEdistances,0
;   allowEaxisZeroing,1
;   independentExtruderAxes,0
;   includeM10123,0
;   stickySupport,1
;   applyToolheadOffsets,0
;   gcodeXoffset,0
;   gcodeYoffset,0
;   gcodeZoffset,0
;   overrideMachineDefinition,0
;   machineTypeOverride,0
;   strokeXoverride,100
;   strokeYoverride,100
;   strokeZoverride,100
;   originOffsetXoverride,0
;   originOffsetYoverride,0
;   originOffsetZoverride,0
;   homeXdirOverride,-1
;   homeYdirOverride,-1
;   homeZdirOverride,-1
;   flipXoverride,1
;   flipYoverride,-1
;   flipZoverride,1
;   toolheadOffsets,0,0|0,0|0,0|0,0|0,0|0,0
;   overrideFirmwareConfiguration,0
;   firmwareTypeOverride,RepRap (Marlin/Repetier/Sprinter)
;   GPXconfigOverride,r2
;   baudRateOverride,115200
;   overridePrinterModels,0
;   printerModelsOverride
;   startingGcode,;G28  ; Home all,;M208S7; DISABLE THE PROBE,;G1 Z5; probe z clearance,;G1 X0 Y0; ,;M280S3; Enable the probe,;G32; probe the grid,;M374; save the grid,;G1 Z20 ; Set Z20 for ooze
;   layerChangeGcode,
;   retractionGcode,
;   toolChangeGcode,
;   endingGcode,G10 S2.5; retract filament to relieve pressure,M104 S0 ; turn off extruder,M140 S0 ; turn off bed,G91 G1 Z10 ; Clearance from part,G90 G1 X0 Y0 Z170 ; Go to starting position (X0 Y0 Z 170),;M84 ; disable motor,M107; Turn off fan
;   exportFileFormat,gcode
;   celebration,0
;   celebrationSong,Random Song
;   postProcessing,
;   defaultSpeed,2400
;   outlineUnderspeed,0.8
;   solidInfillUnderspeed,1
;   supportUnderspeed,1
;   rapidXYspeed,9000
;   rapidZspeed,1800
;   minBridgingArea,10
;   bridgingExtraInflation,5
;   bridgingExtrusionMultiplier,0.9
;   bridgingSpeedMultiplier,0.6
;   useFixedBridgingAngle,0
;   fixedBridgingAngle,0
;   applyBridgingToPerimeters,1
;   filamentDiameters,1.75|1.75|1.75|1.75|1.75|1.75
;   filamentPricesPerKg,12|46|46|46|46|46
;   filamentDensities,1.33|1.25|1.25|1.25|1.25|1.25
;   useMinPrintHeight,0
;   minPrintHeight,0
;   useMaxPrintHeight,0
;   maxPrintHeight,2.75
;   useDiaphragm,0
;   diaphragmLayerInterval,20
;   robustSlicing,1
;   mergeAllIntoSolid,0
;   onlyRetractWhenCrossingOutline,1
;   retractBetweenLayers,0
;   useRetractionMinTravel,0
;   retractionMinTravel,3
;   retractWhileWiping,1
;   onlyWipeOutlines,1
;   avoidCrossingOutline,0
;   maxMovementDetourFactor,3
;   toolChangeRetractionDistance,12
;   toolChangeExtraRestartDistance,-0.5
;   toolChangeRetractionSpeed,600
;   externalThinWallType,1
;   internalThinWallType,1
;   thinWallAllowedOverlapPercentage,10
;   singleExtrusionMinLength,1
;   singleExtrusionMinPrintingWidthPercentage,50
;   singleExtrusionMaxPrintingWidthPercentage,200
;   singleExtrusionEndpointExtension,0.2
;   horizontalSizeCompensation,0
G90
M82
M106 S0
M140 S60
M190 S60
M104 S245 T0
M109 S245 T0
;G28  ; Home all
;M208S7; DISABLE THE PROBE
;G1 Z5; probe z clearance
;G1 X0 Y0; 
;M280S3; Enable the probe
;G32; probe the grid
;M374; save the grid
;G1 Z20 ; Set Z20 for ooze
G92 E0
G1 E-1.2000 F6000
G1 Z0.200 F1800
; process Process1
; layer 1, Z = 0.200
M105
T0
; tool H0.200 W0.600
; skirt
G1 X47.423 Y47.566 F9000
G1 E0.0000 F1800
G92 E0
G1 X50.734 Y44.083 E0.2518 F1800
G1 X50.750 Y44.067 E0.2530
G1 X50.877 Y43.946 E0.2621
G1 X50.894 Y43.931 E0.2633
G1 X54.540 Y40.800 E0.5151
G1 X54.558 Y40.786 E0.5163
G1 X54.696 Y40.679 E0.5254
G1 X54.715 Y40.665 E0.5266
G1 X58.660 Y37.920 E0.7784
G1 X58.679 Y37.907 E0.7796
G1 X58.827 Y37.815 E0.7888
G1 X58.847 Y37.803 E0.7900
G1 X63.049 Y35.471 E1.0417
G1 X63.069 Y35.460 E1.0429
G1 X63.226 Y35.383 E1.0521
G1 X63.247 Y35.374 E1.0533
G1 X67.664 Y33.478 E1.3050
G1 X67.685 Y33.470 E1.3062
G1 X67.849 Y33.409 E1.3154
G1 X67.870 Y33.402 E1.3166
G1 X72.456 Y31.963 E1.5684
G1 X72.478 Y31.957 E1.5696
G1 X72.647 Y31.913 E1.5787
G1 X72.669 Y31.908 E1.5799
G1 X77.377 Y30.940 E1.8317
G1 X77.400 Y30.936 E1.8329
G1 X77.573 Y30.910 E1.8420
G1 X77.595 Y30.907 E1.8432
G1 X82.377 Y30.421 E2.0950
G1 X82.399 Y30.419 E2.0962
G1 X82.574 Y30.410 E2.1054
G1 X82.597 Y30.409 E2.1066
G1 X87.403 Y30.409 E2.3583
G1 X87.426 Y30.410 E2.3595
G1 X87.601 Y30.419 E2.3687
G1 X87.623 Y30.421 E2.3699
G1 X92.405 Y30.907 E2.6216
G1 X92.427 Y30.910 E2.6228
G1 X92.600 Y30.936 E2.6320
G1 X92.623 Y30.940 E2.6332
G1 X97.331 Y31.908 E2.8850
G1 X97.353 Y31.913 E2.8862
G1 X97.522 Y31.957 E2.8953
G1 X97.544 Y31.963 E2.8965
G1 X102.130 Y33.402 E3.1483
G1 X102.151 Y33.409 E3.1495
G1 X102.315 Y33.470 E3.1586
G1 X102.336 Y33.478 E3.1598
G1 X106.753 Y35.374 E3.4116
G1 X106.774 Y35.383 E3.4128
G1 X106.931 Y35.460 E3.4220
G1 X106.951 Y35.471 E3.4232
G1 X111.153 Y37.803 E3.6749
G1 X111.173 Y37.815 E3.6761
G1 X111.321 Y37.907 E3.6853
G1 X111.340 Y37.920 E3.6865
G1 X115.285 Y40.665 E3.9383
G1 X115.304 Y40.679 E3.9394
G1 X115.442 Y40.786 E3.9486
G1 X115.460 Y40.800 E3.9498
G1 X119.106 Y43.931 E4.2016
G1 X119.123 Y43.946 E4.2028
G1 X119.250 Y44.067 E4.2119
G1 X119.266 Y44.083 E4.2131
G1 X122.578 Y47.566 E4.4649
G1 X122.593 Y47.583 E4.4661
G1 X122.707 Y47.717 E4.4753
G1 X122.722 Y47.734 E4.4765
G1 X125.676 Y51.554 E4.7295
G1 X125.690 Y51.572 E4.7306
G1 X125.790 Y51.716 E4.7398
G1 X125.802 Y51.735 E4.7410
G1 X128.331 Y55.794 E4.9916
G1 X128.343 Y55.814 E4.9928
G1 X128.428 Y55.967 E5.0019
G1 X128.438 Y55.987 E5.0031
G1 X130.555 Y60.302 E5.2549
G1 X130.564 Y60.322 E5.2561
G1 X130.633 Y60.483 E5.2652
G1 X130.642 Y60.504 E5.2664
G1 X132.311 Y65.011 E5.5182
G1 X132.318 Y65.033 E5.5194
G1 X132.371 Y65.200 E5.5285
G1 X132.377 Y65.222 E5.5297
G1 X133.582 Y69.874 E5.7815
G1 X133.587 Y69.897 E5.7827
G1 X133.622 Y70.068 E5.7919
G1 X133.626 Y70.090 E5.7930
G1 X134.354 Y74.842 E6.0448
G1 X134.357 Y74.864 E6.0460
G1 X134.374 Y75.038 E6.0552
G1 X134.376 Y75.061 E6.0564
G1 X134.617 Y79.817 E6.3058
G1 X134.618 Y79.828 E6.3064
G1 X134.620 Y79.915 E6.3110
G1 X134.620 Y79.927 E6.3116
G1 X134.620 Y127.112 E8.7834
G1 X134.483 Y127.443 E8.8022
G1 X132.472 Y129.454 E8.9511
G1 X132.142 Y129.591 E8.9699
G1 X37.858 Y129.591 E13.9089
G1 X37.528 Y129.454 E13.9276
G1 X35.517 Y127.443 E14.0766
G1 X35.380 Y127.112 E14.0953
G1 X35.380 Y79.927 E16.5671
G1 X35.380 Y79.915 E16.5677
G1 X35.382 Y79.828 E16.5723
G1 X35.383 Y79.817 E16.5729
G1 X35.624 Y75.061 E16.8224
G1 X35.626 Y75.038 E16.8235
G1 X35.643 Y74.864 E16.8327
G1 X35.646 Y74.842 E16.8339
G1 X36.374 Y70.090 E17.0857
G1 X36.378 Y70.068 E17.0869
G1 X36.413 Y69.897 E17.0960
G1 X36.418 Y69.875 E17.0972
G1 X37.623 Y65.222 E17.3490
G1 X37.629 Y65.200 E17.3502
G1 X37.682 Y65.033 E17.3594
G1 X37.689 Y65.011 E17.3606
G1 X39.358 Y60.504 E17.6123
G1 X39.367 Y60.483 E17.6135
G1 X39.436 Y60.322 E17.6227
G1 X39.446 Y60.301 E17.6239
G1 X41.574 Y55.964 E17.8770
G1 X41.585 Y55.944 E17.8782
G1 X41.670 Y55.791 E17.8873
G1 X41.681 Y55.772 E17.8885
G1 X44.212 Y51.715 E18.1390
G1 X44.224 Y51.696 E18.1402
G1 X44.324 Y51.552 E18.1493
G1 X44.337 Y51.534 E18.1505
G1 X46.679 Y48.508 E18.3510
G1 X47.279 Y47.734 F1800
G1 X47.293 Y47.716 F1800
G1 X47.407 Y47.583 F1800
G1 X47.423 Y47.566 F1800
G1 X47.863 Y47.974 F9000
G92 E0
G1 X51.164 Y44.502 E0.2510 F1800
G1 X51.169 Y44.496 E0.2514
G1 X51.285 Y44.386 E0.2597
G1 X51.290 Y44.381 E0.2601
G1 X54.926 Y41.260 E0.5111
G1 X54.931 Y41.256 E0.5115
G1 X55.058 Y41.158 E0.5199
G1 X55.064 Y41.153 E0.5203
G1 X58.996 Y38.417 E0.7712
G1 X59.002 Y38.412 E0.7716
G1 X59.138 Y38.328 E0.7800
G1 X59.144 Y38.324 E0.7804
G1 X63.333 Y35.999 E1.0314
G1 X63.340 Y35.995 E1.0318
G1 X63.484 Y35.925 E1.0401
G1 X63.490 Y35.922 E1.0405
G1 X67.893 Y34.033 E1.2915
G1 X67.900 Y34.030 E1.2919
G1 X68.050 Y33.974 E1.3003
G1 X68.057 Y33.972 E1.3007
G1 X72.628 Y32.538 E1.5516
G1 X72.636 Y32.535 E1.5520
G1 X72.790 Y32.495 E1.5604
G1 X72.798 Y32.494 E1.5608
G1 X77.491 Y31.529 E1.8118
G1 X77.498 Y31.528 E1.8122
G1 X77.656 Y31.504 E1.8205
G1 X77.663 Y31.503 E1.8209
G1 X82.430 Y31.018 E2.0719
G1 X82.437 Y31.018 E2.0723
G1 X82.597 Y31.010 E2.0807
G1 X82.605 Y31.009 E2.0811
G1 X87.395 Y31.009 E2.3321
G1 X87.403 Y31.010 E2.3324
G1 X87.563 Y31.018 E2.3408
G1 X87.570 Y31.018 E2.3412
G1 X92.337 Y31.503 E2.5922
G1 X92.344 Y31.504 E2.5926
G1 X92.502 Y31.528 E2.6009
G1 X92.509 Y31.529 E2.6013
G1 X97.202 Y32.494 E2.8523
G1 X97.210 Y32.495 E2.8527
G1 X97.364 Y32.535 E2.8611
G1 X97.372 Y32.538 E2.8615
G1 X101.943 Y33.972 E3.1125
G1 X101.950 Y33.974 E3.1129
G1 X102.100 Y34.030 E3.1212
G1 X102.107 Y34.033 E3.1216
G1 X106.510 Y35.922 E3.3726
G1 X106.516 Y35.925 E3.3730
G1 X106.660 Y35.995 E3.3814
G1 X106.666 Y35.999 E3.3817
G1 X110.856 Y38.324 E3.6327
G1 X110.862 Y38.328 E3.6331
G1 X110.998 Y38.412 E3.6415
G1 X111.004 Y38.417 E3.6419
G1 X114.936 Y41.153 E3.8929
G1 X114.942 Y41.158 E3.8933
G1 X115.069 Y41.256 E3.9016
G1 X115.074 Y41.260 E3.9020
G1 X118.710 Y44.381 E4.1530
G1 X118.715 Y44.386 E4.1534
G1 X118.831 Y44.496 E4.1618
G1 X118.836 Y44.502 E4.1622
G1 X122.137 Y47.974 E4.4131
G1 X122.142 Y47.980 E4.4135
G1 X122.247 Y48.101 E4.4219
G1 X122.252 Y48.107 E4.4223
G1 X125.197 Y51.915 E4.6745
G1 X125.202 Y51.921 E4.6749
G1 X125.293 Y52.052 E4.6833
G1 X125.297 Y52.058 E4.6837
G1 X127.818 Y56.105 E4.9334
G1 X127.822 Y56.112 E4.9338
G1 X127.899 Y56.251 E4.9422
G1 X127.903 Y56.258 E4.9426
G1 X130.013 Y60.559 E5.1935
G1 X130.016 Y60.566 E5.1939
G1 X130.079 Y60.713 E5.2023
G1 X130.082 Y60.720 E5.2027
G1 X131.746 Y65.212 E5.4537
G1 X131.748 Y65.220 E5.4541
G1 X131.796 Y65.372 E5.4624
G1 X131.798 Y65.379 E5.4628
G1 X132.999 Y70.018 E5.7138
G1 X133.000 Y70.025 E5.7142
G1 X133.033 Y70.181 E5.7226
G1 X133.034 Y70.189 E5.7230
G1 X133.759 Y74.925 E5.9740
G1 X133.760 Y74.932 E5.9744
G1 X133.777 Y75.091 E5.9827
G1 X133.777 Y75.099 E5.9831
G1 X134.018 Y79.843 E6.2320
G1 X134.018 Y79.847 E6.2322
G1 X134.020 Y79.927 E6.2364
G1 X134.020 Y79.931 E6.2366
G1 X134.020 Y126.993 E8.7019
G1 X133.974 Y127.103 E8.7082
G1 X132.133 Y128.945 E8.8446
G1 X132.022 Y128.991 E8.8508
G1 X37.978 Y128.991 E13.7773
G1 X37.867 Y128.945 E13.7836
G1 X36.026 Y127.103 E13.9200
G1 X35.980 Y126.993 E13.9263
G1 X35.980 Y79.931 E16.3916
G1 X35.980 Y79.927 E16.3918
G1 X35.982 Y79.847 E16.3960
G1 X35.982 Y79.843 E16.3962
G1 X36.223 Y75.099 E16.6451
G1 X36.223 Y75.091 E16.6455
G1 X36.240 Y74.932 E16.6538
G1 X36.241 Y74.925 E16.6542
G1 X36.966 Y70.189 E16.9052
G1 X36.967 Y70.181 E16.9056
G1 X36.999 Y70.025 E16.9140
G1 X37.001 Y70.018 E16.9144
G1 X38.202 Y65.379 E17.1654
G1 X38.204 Y65.372 E17.1658
G1 X38.252 Y65.220 E17.1741
G1 X38.254 Y65.212 E17.1745
G1 X39.918 Y60.720 E17.4255
G1 X39.921 Y60.713 E17.4259
G1 X39.984 Y60.565 E17.4343
G1 X39.988 Y60.559 E17.4347
G1 X42.110 Y56.236 E17.6870
G1 X42.113 Y56.229 E17.6874
G1 X42.191 Y56.089 E17.6957
G1 X42.195 Y56.083 E17.6961
G1 X44.717 Y52.038 E17.9458
G1 X44.721 Y52.032 E17.9462
G1 X44.812 Y51.901 E17.9545
G1 X44.816 Y51.895 E17.9549
G1 X47.121 Y48.917 E18.1522
G1 X47.749 Y48.107 F1800
G1 X47.754 Y48.101 F1800
G1 X47.858 Y47.980 F1800
G1 X47.863 Y47.974 F1800
G92 E0
G1 E-1.2000 F6000
; outer perimeter
G1 X50.537 Y50.386 F9000
G1 E0.0000 F6000
G92 E0
G1 X53.707 Y47.051 E0.2410 F1440
G1 X57.198 Y44.054 E0.4820
G1 X60.975 Y41.426 E0.7231
G1 X64.997 Y39.193 E0.9641
G1 X69.226 Y37.378 E1.2051
G1 X73.616 Y36.001 E1.4461
G1 X78.122 Y35.075 E1.6871
G1 X82.700 Y34.609 E1.9282
G1 X87.300 Y34.609 E2.1692
G1 X91.878 Y35.075 E2.4102
G1 X96.384 Y36.001 E2.6512
G1 X100.774 Y37.378 E2.8922
G1 X105.003 Y39.193 E3.1332
G1 X109.025 Y41.426 E3.3743
G1 X112.802 Y44.054 E3.6153
G1 X116.293 Y47.051 E3.8563
G1 X119.462 Y50.386 E4.0973
G1 X122.292 Y54.043 E4.3395
G1 X124.712 Y57.928 E4.5794
G1 X126.739 Y62.059 E4.8204
G1 X128.337 Y66.374 E5.0614
G1 X129.490 Y70.828 E5.3024
G1 X130.187 Y75.376 E5.5434
G1 X130.420 Y79.978 E5.7848
G1 X130.420 Y125.391 E8.1638
G1 X39.580 Y125.391 E12.9224
G1 X39.580 Y79.978 E15.3013
G1 X39.813 Y75.376 E15.5427
G1 X40.510 Y70.828 E15.7837
G1 X41.663 Y66.374 E16.0247
G1 X43.261 Y62.059 E16.2658
G1 X45.299 Y57.907 E16.5081
G1 X47.721 Y54.024 E16.7478
G1 X49.803 Y51.335 E16.9260
G1 X50.537 Y50.386 F1440
G1 X53.569 Y47.197 F2400
; inner perimeter
G1 X54.121 Y47.486 F9000
G92 E0
G1 X57.566 Y44.529 E0.2378 F1620
G1 X61.292 Y41.935 E0.4757
G1 X65.262 Y39.732 E0.7135
G1 X69.434 Y37.942 E0.9513
G1 X73.766 Y36.583 E1.1892
G1 X78.213 Y35.669 E1.4270
G1 X82.730 Y35.209 E1.6648
G1 X87.270 Y35.209 E1.9026
G1 X91.787 Y35.669 E2.1405
G1 X96.234 Y36.583 E2.3783
G1 X100.566 Y37.942 E2.6161
G1 X104.738 Y39.732 E2.8540
G1 X108.708 Y41.935 E3.0918
G1 X112.434 Y44.529 E3.3296
G1 X115.879 Y47.486 E3.5675
G1 X119.007 Y50.777 E3.8053
G1 X121.798 Y54.386 E4.0443
G1 X124.187 Y58.220 E4.2809
G1 X126.187 Y62.296 E4.5188
G1 X127.763 Y66.554 E4.7566
G1 X128.901 Y70.949 E4.9944
G1 X129.589 Y75.437 E5.2323
G1 X129.820 Y79.993 E5.4713
G1 X129.820 Y124.791 E7.8180
G1 X40.180 Y124.791 E12.5137
G1 X40.180 Y79.993 E14.8604
G1 X40.411 Y75.437 E15.0994
G1 X41.099 Y70.949 E15.3373
G1 X42.237 Y66.554 E15.5751
G1 X43.813 Y62.296 E15.8129
G1 X45.825 Y58.199 E16.0520
G1 X48.214 Y54.367 E16.2886
G1 X50.993 Y50.777 E16.5264
G1 X53.295 Y48.356 E16.7014
G1 X54.121 Y47.486 F1620
G1 X54.535 Y47.922 F9000
G92 E0
G1 X57.934 Y45.004 E0.2346 F1620
