; G-Code generated by Simplify3D(R) Version 4.1.0
; Jun 15, 2019 at 10:01:34 AM
; Settings Summary
;   processName,general PLA
;   applyToModels,focuser2
;   profileName,BortBot (modified)
;   profileVersion,2018-03-11 18:52:45
;   baseProfile,Default
;   printMaterial,PLA
;   printQuality,Medium
;   printExtruders,
;   extruderName,Extruder 1
;   extruderToolheadNumber,0
;   extruderDiameter,1.2
;   extruderAutoWidth,1
;   extruderWidth,1.44
;   extrusionMultiplier,1.02
;   extruderUseRetract,1
;   extruderRetractionDistance,3.2
;   extruderExtraRestartDistance,0.1
;   extruderRetractionZLift,0
;   extruderRetractionSpeed,2400
;   extruderUseCoasting,0
;   extruderCoastingDistance,1.4
;   extruderUseWipe,0
;   extruderWipeDistance,2
;   primaryExtruder,0
;   layerHeight,0.8
;   topSolidLayers,4
;   bottomSolidLayers,3
;   perimeterOutlines,2
;   printPerimetersInsideOut,0
;   startPointOption,3
;   startPointOriginX,200
;   startPointOriginY,100
;   sequentialIslands,0
;   spiralVaseMode,0
;   firstLayerHeightPercentage,100
;   firstLayerWidthPercentage,102
;   firstLayerUnderspeed,0.25
;   useRaft,0
;   raftExtruder,0
;   raftTopLayers,2
;   raftBaseLayers,2
;   raftOffset,3
;   raftSeparationDistance,0.3
;   raftTopInfill,90
;   aboveRaftSpeedMultiplier,0.3
;   useSkirt,1
;   skirtExtruder,0
;   skirtLayers,1
;   skirtOutlines,2
;   skirtOffset,2
;   usePrimePillar,0
;   primePillarExtruder,999
;   primePillarWidth,12
;   primePillarLocation,7
;   primePillarSpeedMultiplier,1
;   useOozeShield,0
;   oozeShieldExtruder,999
;   oozeShieldOffset,2
;   oozeShieldOutlines,1
;   oozeShieldSidewallShape,1
;   oozeShieldSidewallAngle,30
;   oozeShieldSpeedMultiplier,1
;   infillExtruder,0
;   internalInfillPattern,Triangular
;   externalInfillPattern,Concentric
;   infillPercentage,30
;   outlineOverlapPercentage,5
;   infillExtrusionWidthPercentage,101
;   minInfillLength,5
;   infillLayerInterval,1
;   internalInfillAngles,0,60,-60
;   overlapInternalInfillAngles,1
;   externalInfillAngles,45,-45
;   generateSupport,0
;   supportExtruder,0
;   supportInfillPercentage,25
;   supportExtraInflation,0
;   supportBaseLayers,1
;   denseSupportExtruder,0
;   denseSupportLayers,3
;   denseSupportInfillPercentage,90
;   supportLayerInterval,1
;   supportHorizontalPartOffset,0.5
;   supportUpperSeparationLayers,1
;   supportLowerSeparationLayers,1
;   supportType,0
;   supportGridSpacing,1
;   maxOverhangAngle,46
;   supportAngles,90
;   temperatureName,Extruder 1,Heated Bed
;   temperatureNumber,0,1
;   temperatureSetpointCount,1,1
;   temperatureSetpointLayers,1,1
;   temperatureSetpointTemperatures,220,60
;   temperatureStabilizeAtStartup,1,1
;   temperatureHeatedBed,0,1
;   fanLayers,1,3
;   fanSpeeds,0,60
;   blipFanToFullPower,1
;   adjustSpeedForCooling,0
;   minSpeedLayerTime,15
;   minCoolingSpeedSlowdown,20
;   increaseFanForCooling,1
;   minFanLayerTime,45
;   maxCoolingFanSpeed,75
;   increaseFanForBridging,1
;   bridgingFanSpeed,75
;   use5D,1
;   relativeEdistances,0
;   allowEaxisZeroing,1
;   independentExtruderAxes,0
;   includeM10123,0
;   stickySupport,1
;   applyToolheadOffsets,0
;   gcodeXoffset,0
;   gcodeYoffset,0
;   gcodeZoffset,0
;   overrideMachineDefinition,0
;   machineTypeOverride,0
;   strokeXoverride,100
;   strokeYoverride,100
;   strokeZoverride,100
;   originOffsetXoverride,0
;   originOffsetYoverride,0
;   originOffsetZoverride,0
;   homeXdirOverride,-1
;   homeYdirOverride,-1
;   homeZdirOverride,-1
;   flipXoverride,1
;   flipYoverride,-1
;   flipZoverride,1
;   toolheadOffsets,0,0|0,0|0,0|0,0|0,0|0,0
;   overrideFirmwareConfiguration,0
;   firmwareTypeOverride,RepRap (Marlin/Repetier/Sprinter)
;   GPXconfigOverride,r2
;   baudRateOverride,115200
;   overridePrinterModels,0
;   printerModelsOverride
;   startingGcode,G11 S1; Unretract,;G28 XY ; HOME XY,;M561 ; Clear any bed transform,G1 X100 Y80 Z25; move to center of bed,G30 ;Do a single Z probe,G29 S1 ; Load bed compensating height map,;G1 Z10; ,M572 D0 S0.15,
;   layerChangeGcode,
;   retractionGcode,
;   toolChangeGcode,
;   endingGcode,G10 S1; retract filament to relieve pressure,M104 S0 ; turn off extruder,M140 S0 ; turn off bed,G91 G1 Z10 ; Clearance from part,G90 G1 X0 Y0 ; Go to starting position (X0 Y0 Z300),M84 ; disable motor,M107; Turn off fan
;   exportFileFormat,gcode
;   celebration,0
;   celebrationSong,Random Song
;   postProcessing,
;   defaultSpeed,3600
;   outlineUnderspeed,0.8
;   solidInfillUnderspeed,1
;   supportUnderspeed,1
;   rapidXYspeed,3600
;   rapidZspeed,1800
;   minBridgingArea,10
;   bridgingExtraInflation,5
;   bridgingExtrusionMultiplier,0.9
;   bridgingSpeedMultiplier,0.6
;   useFixedBridgingAngle,0
;   fixedBridgingAngle,0
;   applyBridgingToPerimeters,1
;   filamentDiameters,1.75|1.75|1.75|1.75|1.75|1.75
;   filamentPricesPerKg,20|46|46|46|46|46
;   filamentDensities,1.33|1.25|1.25|1.25|1.25|1.25
;   useMinPrintHeight,0
;   minPrintHeight,50
;   useMaxPrintHeight,0
;   maxPrintHeight,23
;   useDiaphragm,0
;   diaphragmLayerInterval,20
;   robustSlicing,1
;   mergeAllIntoSolid,0
;   onlyRetractWhenCrossingOutline,1
;   retractBetweenLayers,0
;   useRetractionMinTravel,0
;   retractionMinTravel,3
;   retractWhileWiping,0
;   onlyWipeOutlines,1
;   avoidCrossingOutline,1
;   maxMovementDetourFactor,5
;   toolChangeRetractionDistance,12
;   toolChangeExtraRestartDistance,-0.5
;   toolChangeRetractionSpeed,600
;   externalThinWallType,1
;   internalThinWallType,1
;   thinWallAllowedOverlapPercentage,30
;   singleExtrusionMinLength,1
;   singleExtrusionMinPrintingWidthPercentage,50
;   singleExtrusionMaxPrintingWidthPercentage,200
;   singleExtrusionEndpointExtension,1.5
;   horizontalSizeCompensation,0
G90
M82
M106 S0
M140 S60
M190 S60
M104 S220 T0
M109 S220 T0
G11 S1; Unretract
;G28 XY ; HOME XY
;M561 ; Clear any bed transform
G1 X100 Y80 Z25; move to center of bed
G30 ;Do a single Z probe
G29 S1 ; Load bed compensating height map
;G1 Z10; 
M572 D0 S0.15
; process general PLA
; layer 1, Z = 0.800
T0
; feature skirt
; tool H0.800 W1.469
G1 Z0.800 F1800
G1 X153.363 Y81.981 F3600
G92 E0.0000
G1 X148.903 Y106.471 E12.4041 F900
G1 X146.564 Y108.423 E13.9221
G1 X53.436 Y108.423 E60.3275
G1 X51.097 Y106.471 E61.8455
G1 X46.637 Y81.981 E74.2495
G1 X48.366 Y79.219 E75.8731
G1 X54.743 Y77.442 E79.1718
G1 X54.801 Y77.426 E79.2018
G1 X59.674 Y76.217 E81.7038
G1 X59.733 Y76.203 E81.7337
G1 X64.639 Y75.134 E84.2357
G1 X64.698 Y75.122 E84.2657
G1 X69.632 Y74.193 E86.7676
G1 X69.691 Y74.183 E86.7976
G1 X74.650 Y73.396 E89.2995
G1 X74.710 Y73.387 E89.3295
G1 X79.689 Y72.743 E91.8315
G1 X79.749 Y72.736 E91.8614
G1 X84.745 Y72.234 E94.3634
G1 X84.805 Y72.229 E94.3933
G1 X89.813 Y71.870 E96.8953
G1 X89.873 Y71.866 E96.9253
G1 X94.889 Y71.651 E99.4272
G1 X94.949 Y71.649 E99.4572
G1 X99.970 Y71.577 E101.9591
G1 X100.030 Y71.577 E101.9891
G1 X105.051 Y71.649 E104.4911
G1 X105.111 Y71.651 E104.5210
G1 X110.127 Y71.866 E107.0230
G1 X110.187 Y71.870 E107.0529
G1 X115.195 Y72.229 E109.5549
G1 X115.255 Y72.234 E109.5849
G1 X120.251 Y72.736 E112.0868
G1 X120.311 Y72.743 E112.1168
G1 X125.290 Y73.387 E114.6187
G1 X125.350 Y73.396 E114.6487
G1 X130.309 Y74.183 E117.1506
G1 X130.368 Y74.193 E117.1806
G1 X135.302 Y75.122 E119.6826
G1 X135.361 Y75.134 E119.7125
G1 X140.267 Y76.203 E122.2145
G1 X140.326 Y76.217 E122.2445
G1 X145.199 Y77.426 E124.7464
G1 X145.257 Y77.442 E124.7764
G1 X151.634 Y79.219 E128.0751
G1 X153.363 Y81.981 E129.6987
G92 E0.0000
G1 E-3.2000 F2400
G1 X151.816 Y82.278 F3600
G1 E0.1000 F2400
G92 E0.0000
G1 X147.554 Y105.684 E11.8552 F900
G1 X146.032 Y106.954 E12.8427
G1 X53.968 Y106.954 E58.7176
G1 X52.446 Y105.684 E59.7052
G1 X48.184 Y82.278 E71.5603
G1 X49.309 Y80.481 E72.6166
G1 X55.127 Y78.859 E75.6264
G1 X55.164 Y78.850 E75.6456
G1 X60.018 Y77.645 E78.1374
G1 X60.056 Y77.636 E78.1568
G1 X64.941 Y76.571 E80.6483
G1 X64.980 Y76.563 E80.6680
G1 X69.893 Y75.639 E83.1594
G1 X69.932 Y75.632 E83.1787
G1 X74.870 Y74.848 E85.6702
G1 X74.908 Y74.843 E85.6895
G1 X79.867 Y74.201 E88.1812
G1 X79.906 Y74.196 E88.2009
G1 X84.881 Y73.696 E90.6922
G1 X84.921 Y73.693 E90.7120
G1 X89.907 Y73.335 E93.2032
G1 X89.946 Y73.333 E93.2226
G1 X94.942 Y73.119 E95.7143
G1 X94.981 Y73.117 E95.7337
G1 X99.980 Y73.046 E98.2252
G1 X100.020 Y73.046 E98.2446
G1 X105.019 Y73.117 E100.7361
G1 X105.058 Y73.119 E100.7556
G1 X110.054 Y73.333 E103.2472
G1 X110.093 Y73.335 E103.2666
G1 X115.079 Y73.693 E105.7578
G1 X115.119 Y73.696 E105.7777
G1 X120.094 Y74.196 E108.2690
G1 X120.133 Y74.201 E108.2886
G1 X125.091 Y74.843 E110.7801
G1 X125.130 Y74.848 E110.7997
G1 X130.068 Y75.632 E113.2909
G1 X130.107 Y75.639 E113.3105
G1 X135.020 Y76.563 E115.8018
G1 X135.059 Y76.571 E115.8215
G1 X139.944 Y77.636 E118.3131
G1 X139.982 Y77.645 E118.3323
G1 X144.836 Y78.850 E120.8242
G1 X144.873 Y78.859 E120.8434
G1 X150.691 Y80.481 E123.8533
G1 X151.816 Y82.278 E124.9095
G92 E0.0000
G1 E-3.2000 F2400
; feature outer perimeter
G1 X148.093 Y83.358 F3600
G1 E0.1000 F2400
G92 E0.0000
G1 X144.428 Y103.485 E10.1941 F720
G1 X55.572 Y103.485 E54.4709
G1 X51.907 Y83.358 E64.6650
G1 X56.030 Y82.209 E66.7980
G1 X60.824 Y81.019 E69.2595
G1 X65.651 Y79.967 E71.7210
G1 X70.505 Y79.053 E74.1824
G1 X75.384 Y78.279 E76.6441
G1 X80.283 Y77.645 E79.1055
G1 X85.198 Y77.151 E81.5669
G1 X90.125 Y76.797 E84.0286
G1 X95.061 Y76.585 E86.4901
G1 X100.000 Y76.515 E88.9515
G1 X104.939 Y76.585 E91.4130
G1 X109.875 Y76.797 E93.8745
G1 X114.802 Y77.151 E96.3362
G1 X119.717 Y77.645 E98.7975
G1 X124.616 Y78.279 E101.2590
G1 X129.495 Y79.053 E103.7207
G1 X134.349 Y79.967 E106.1821
G1 X139.176 Y81.019 E108.6436
G1 X143.970 Y82.209 E111.1051
G1 X148.093 Y83.358 E113.2380
G92 E0.0000
G1 E-3.2000 F2400
; feature inner perimeter
G1 X146.408 Y84.413 F3600
G1 E0.1000 F2400
G92 E0.0000
G1 X143.203 Y102.016 E8.9158 F810
G1 X56.797 Y102.016 E51.9713
G1 X53.592 Y84.413 E60.8871
G1 X56.404 Y83.629 E62.3419
G1 X61.158 Y82.450 E64.7825
G1 X65.943 Y81.406 E67.2231
G1 X70.756 Y80.501 E69.6635
G1 X75.593 Y79.733 E72.1041
G1 X80.451 Y79.104 E74.5448
G1 X85.324 Y78.614 E76.9853
G1 X90.209 Y78.264 E79.4258
G1 X95.103 Y78.054 E81.8665
G1 X100.000 Y77.984 E84.3070
G1 X104.897 Y78.054 E86.7475
G1 X109.791 Y78.264 E89.1881
G1 X114.676 Y78.614 E91.6287
G1 X119.549 Y79.104 E94.0692
G1 X124.407 Y79.733 E96.5098
G1 X129.244 Y80.501 E98.9504
G1 X134.057 Y81.406 E101.3908
G1 X138.842 Y82.450 E103.8315
G1 X143.596 Y83.629 E106.2721
G1 X146.408 Y84.413 E107.7268
; feature outer perimeter
G1 X140.871 Y92.090 F3600
G92 E0.0000
G1 X140.936 Y91.584 E0.2543 F720
G1 X140.905 Y91.057 E0.5172
G1 X140.778 Y90.545 E0.7800
G1 X140.557 Y90.066 E1.0429
G1 X140.246 Y89.627 E1.3110
G1 X139.775 Y89.193 E1.6300
G1 X139.314 Y88.920 E1.8971
G1 X138.835 Y88.745 E2.1513
G1 X138.551 Y88.685 E2.2956
G1 X138.157 Y88.648 E2.4928
G1 X137.640 Y88.685 E2.7514
G1 X137.129 Y88.818 E3.0142
G1 X136.653 Y89.044 E3.2771
G1 X136.240 Y89.344 E3.5313
G1 X136.032 Y89.545 E3.6756
G1 X135.781 Y89.851 E3.8728
G1 X135.521 Y90.300 E4.1313
G1 X135.347 Y90.798 E4.3942
G1 X135.267 Y91.320 E4.6571
G1 X135.285 Y91.838 E4.9156
G1 X135.363 Y92.226 E5.1128
G1 X135.453 Y92.502 E5.2571
G1 X135.676 Y92.960 E5.5113
G1 X135.991 Y93.383 E5.7742
G1 X136.379 Y93.741 E6.0371
G1 X136.812 Y94.011 E6.2913
G1 X137.076 Y94.129 E6.4356
G1 X137.454 Y94.247 E6.6328
G1 X137.968 Y94.319 E6.8914
G1 X138.478 Y94.295 E7.1456
G1 X138.762 Y94.242 E7.2899
G1 X139.140 Y94.124 E7.4871
G1 X139.604 Y93.891 E7.7457
G1 X140.023 Y93.571 E8.0085
G1 X140.376 Y93.179 E8.2714
G1 X140.646 Y92.736 E8.5299
G1 X140.794 Y92.369 E8.7271
G1 X140.871 Y92.090 E8.8714
; feature inner perimeter
G1 X142.314 Y92.379 F3600
G92 E0.0000
G1 X142.410 Y91.635 E0.3738 F810
G1 X142.364 Y90.835 E0.7734
G1 X142.170 Y90.057 E1.1728
G1 X141.835 Y89.328 E1.5726
G1 X141.355 Y88.651 E1.9861
G1 X140.657 Y88.009 E2.4587
G1 X139.945 Y87.587 E2.8709
G1 X139.241 Y87.330 E3.2446
G1 X138.773 Y87.231 E3.4827
G1 X138.175 Y87.175 E3.7823
G1 X137.401 Y87.229 E4.1689
G1 X136.625 Y87.432 E4.5684
G1 X135.900 Y87.775 E4.9679
G1 X135.293 Y88.216 E5.3417
G1 X134.950 Y88.548 E5.5798
G1 X134.569 Y89.013 E5.8794
G1 X134.181 Y89.685 E6.2660
G1 X133.915 Y90.441 E6.6655
G1 X133.794 Y91.234 E7.0650
G1 X133.822 Y92.009 E7.4516
G1 X133.940 Y92.599 E7.7512
G1 X134.087 Y93.053 E7.9892
G1 X134.416 Y93.727 E8.3630
G1 X134.895 Y94.371 E8.7626
G1 X135.485 Y94.914 E9.1621
G1 X136.121 Y95.311 E9.5358
G1 X136.557 Y95.506 E9.7739
G1 X137.131 Y95.685 E10.0735
G1 X137.899 Y95.793 E10.4601
G1 X138.649 Y95.758 E10.8339
G1 X139.118 Y95.669 E11.0720
G1 X139.692 Y95.490 E11.3715
G1 X140.385 Y95.142 E11.7582
G1 X141.023 Y94.656 E12.1577
G1 X141.559 Y94.060 E12.5571
G1 X141.963 Y93.397 E12.9438
G1 X142.188 Y92.840 E13.2434
G1 X142.314 Y92.379 E13.4814
; feature outer perimeter
G1 X140.797 Y92.359 F3600
G1 X140.794 Y92.369
G1 X140.646 Y92.736
G1 X140.376 Y93.179
G1 X140.023 Y93.571
G1 X139.604 Y93.891
G1 X139.140 Y94.124
G1 X138.762 Y94.242
G1 X138.478 Y94.295
G1 X137.968 Y94.319
G1 X137.454 Y94.247
G1 X137.076 Y94.129
G1 X136.812 Y94.011
G1 X136.379 Y93.741
G1 X135.991 Y93.383
G1 X135.676 Y92.960
G1 X135.453 Y92.502
G1 X135.383 Y92.287
G1 X102.811 Y91.855
G92 E0.0000
G1 X102.835 Y91.567 E0.1443 F720
G1 X102.805 Y91.057 E0.3986
G1 X102.678 Y90.545 E0.6614
G1 X102.457 Y90.066 E0.9244
G1 X102.146 Y89.627 E1.1925
G1 X101.675 Y89.193 E1.5114
G1 X101.214 Y88.920 E1.7785
G1 X100.735 Y88.745 E2.0327
G1 X100.451 Y88.685 E2.1770
G1 X100.057 Y88.648 E2.3742
G1 X99.540 Y88.685 E2.6328
G1 X99.029 Y88.818 E2.8956
G1 X98.568 Y89.037 E3.1499
G1 X98.326 Y89.196 E3.2942
G1 X98.023 Y89.450 E3.4914
G1 X97.685 Y89.844 E3.7499
G1 X97.421 Y90.300 E4.0128
G1 X97.247 Y90.798 E4.2756
G1 X97.167 Y91.320 E4.5385
G1 X97.186 Y91.847 E4.8013
G1 X97.299 Y92.353 E5.0599
G1 X97.448 Y92.720 E5.2571
G1 X97.586 Y92.974 E5.4013
G1 X97.891 Y93.383 E5.6557
G1 X98.279 Y93.741 E5.9185
G1 X98.712 Y94.011 E6.1728
G1 X98.976 Y94.129 E6.3170
G1 X99.354 Y94.247 E6.5142
G1 X99.868 Y94.319 E6.7728
G1 X100.378 Y94.295 E7.0270
G1 X100.662 Y94.242 E7.1713
G1 X101.040 Y94.124 E7.3685
G1 X101.504 Y93.891 E7.6271
G1 X101.923 Y93.571 E7.8899
G1 X102.276 Y93.179 E8.1528
G1 X102.550 Y92.729 E8.4157
G1 X102.734 Y92.243 E8.6742
G1 X102.811 Y91.855 E8.8714
; feature inner perimeter
G1 X104.268 Y92.060 F3600
G92 E0.0000
G1 X104.307 Y91.584 E0.2381 F810
G1 X104.264 Y90.835 E0.6119
G1 X104.070 Y90.057 E1.0114
G1 X103.735 Y89.328 E1.4112
G1 X103.254 Y88.651 E1.8247
G1 X102.557 Y88.009 E2.2972
G1 X101.845 Y87.587 E2.7095
G1 X101.141 Y87.330 E3.0832
G1 X100.673 Y87.231 E3.3213
G1 X100.075 Y87.175 E3.6208
G1 X99.301 Y87.229 E4.0075
G1 X98.525 Y87.432 E4.4070
G1 X97.847 Y87.753 E4.7808
G1 X97.448 Y88.016 E5.0189
G1 X96.987 Y88.402 E5.3184
G1 X96.482 Y88.990 E5.7051
G1 X96.081 Y89.685 E6.1046
G1 X95.815 Y90.441 E6.5040
G1 X95.695 Y91.234 E6.9035
G1 X95.722 Y92.035 E7.3031
G1 X95.893 Y92.792 E7.6897
G1 X96.118 Y93.350 E7.9892
G1 X96.347 Y93.769 E8.2273
G1 X96.795 Y94.371 E8.6011
G1 X97.385 Y94.914 E9.0006
G1 X98.021 Y95.311 E9.3744
G1 X98.457 Y95.506 E9.6125
G1 X99.031 Y95.685 E9.9121
G1 X99.799 Y95.793 E10.2987
G1 X100.549 Y95.758 E10.6724
G1 X101.018 Y95.669 E10.9105
G1 X101.592 Y95.490 E11.2101
G1 X102.285 Y95.142 E11.5967
G1 X102.923 Y94.656 E11.9962
G1 X103.459 Y94.060 E12.3957
G1 X103.876 Y93.375 E12.7953
G1 X104.150 Y92.649 E13.1818
G1 X104.268 Y92.060 E13.4814
; feature outer perimeter
G1 X102.773 Y92.047 F3600
G1 X102.734 Y92.243
G1 X102.550 Y92.729
G1 X102.276 Y93.179
G1 X101.923 Y93.571
G1 X101.504 Y93.891
G1 X101.040 Y94.124
G1 X100.662 Y94.242
G1 X100.378 Y94.295
G1 X99.868 Y94.319
G1 X99.354 Y94.247
G1 X98.976 Y94.129
G1 X98.712 Y94.011
G1 X98.279 Y93.741
G1 X97.891 Y93.383
G1 X97.587 Y92.974
G1 X97.448 Y92.720
G1 X97.299 Y92.353
G1 X97.220 Y92.000
G1 X64.727 Y91.724
G92 E0.0000
G1 X64.731 Y91.328 E0.1972 F720
G1 X64.701 Y91.040 E0.3415
G1 X64.582 Y90.562 E0.5871
G1 X64.473 Y90.294 E0.7315
G1 X64.283 Y89.946 E0.9286
G1 X63.964 Y89.537 E1.1872
G1 X63.568 Y89.189 E1.4500
G1 X63.114 Y88.920 E1.7129
G1 X62.635 Y88.745 E1.9671
