; G-Code generated by Simplify3D(R) Version 4.0.0
; Aug 18, 2018 at 2:10:14 PM
; Settings Summary
;   processName,Process1
;   applyToModels,Lower Ring Clamp - inner,Lower Ring Clamp - outer
;   profileName,BortBot (modified)
;   profileVersion,2018-03-11 18:52:45
;   baseProfile,Default
;   printMaterial,PLA
;   printQuality,Medium
;   printExtruders,
;   extruderName,Extruder 1
;   extruderToolheadNumber,0
;   extruderDiameter,0.5
;   extruderAutoWidth,0
;   extruderWidth,0.6
;   extrusionMultiplier,1.05
;   extruderUseRetract,1
;   extruderRetractionDistance,1.2
;   extruderExtraRestartDistance,0
;   extruderRetractionZLift,0
;   extruderRetractionSpeed,6000
;   extruderUseCoasting,1
;   extruderCoastingDistance,1.4
;   extruderUseWipe,0
;   extruderWipeDistance,4.4
;   primaryExtruder,0
;   layerHeight,0.2
;   topSolidLayers,3
;   bottomSolidLayers,3
;   perimeterOutlines,4
;   printPerimetersInsideOut,0
;   startPointOption,2
;   startPointOriginX,0
;   startPointOriginY,0
;   sequentialIslands,0
;   spiralVaseMode,0
;   firstLayerHeightPercentage,130
;   firstLayerWidthPercentage,100
;   firstLayerUnderspeed,0.75
;   useRaft,0
;   raftExtruder,0
;   raftTopLayers,2
;   raftBaseLayers,2
;   raftOffset,3
;   raftSeparationDistance,0.3
;   raftTopInfill,90
;   aboveRaftSpeedMultiplier,0.3
;   useSkirt,1
;   skirtExtruder,0
;   skirtLayers,1
;   skirtOutlines,2
;   skirtOffset,3
;   usePrimePillar,0
;   primePillarExtruder,999
;   primePillarWidth,12
;   primePillarLocation,7
;   primePillarSpeedMultiplier,1
;   useOozeShield,0
;   oozeShieldExtruder,999
;   oozeShieldOffset,2
;   oozeShieldOutlines,1
;   oozeShieldSidewallShape,1
;   oozeShieldSidewallAngle,30
;   oozeShieldSpeedMultiplier,1
;   infillExtruder,0
;   internalInfillPattern,Rectilinear
;   externalInfillPattern,Rectilinear
;   infillPercentage,40
;   outlineOverlapPercentage,35
;   infillExtrusionWidthPercentage,90
;   minInfillLength,5
;   infillLayerInterval,2
;   internalInfillAngles,45,-45
;   overlapInternalInfillAngles,0
;   externalInfillAngles,45,-45
;   generateSupport,0
;   supportExtruder,0
;   supportInfillPercentage,30
;   supportExtraInflation,0
;   supportBaseLayers,1
;   denseSupportExtruder,0
;   denseSupportLayers,4
;   denseSupportInfillPercentage,90
;   supportLayerInterval,2
;   supportHorizontalPartOffset,0.4
;   supportUpperSeparationLayers,1
;   supportLowerSeparationLayers,2
;   supportType,0
;   supportGridSpacing,1
;   maxOverhangAngle,46
;   supportAngles,30
;   temperatureName,Extruder 1,Heated Bed
;   temperatureNumber,0,1
;   temperatureSetpointCount,1,1
;   temperatureSetpointLayers,1,1
;   temperatureSetpointTemperatures,245,60
;   temperatureStabilizeAtStartup,1,1
;   temperatureHeatedBed,0,1
;   temperatureRelayBetweenLayers,1,0
;   temperatureRelayBetweenLoops,1,0
;   fanLayers,1,3
;   fanSpeeds,0,40
;   blipFanToFullPower,0
;   adjustSpeedForCooling,1
;   minSpeedLayerTime,15
;   minCoolingSpeedSlowdown,20
;   increaseFanForCooling,1
;   minFanLayerTime,45
;   maxCoolingFanSpeed,100
;   increaseFanForBridging,1
;   bridgingFanSpeed,100
;   use5D,1
;   relativeEdistances,0
;   allowEaxisZeroing,1
;   independentExtruderAxes,0
;   includeM10123,0
;   stickySupport,1
;   applyToolheadOffsets,0
;   gcodeXoffset,0
;   gcodeYoffset,0
;   gcodeZoffset,0
;   overrideMachineDefinition,0
;   machineTypeOverride,0
;   strokeXoverride,100
;   strokeYoverride,100
;   strokeZoverride,100
;   originOffsetXoverride,0
;   originOffsetYoverride,0
;   originOffsetZoverride,0
;   homeXdirOverride,-1
;   homeYdirOverride,-1
;   homeZdirOverride,-1
;   flipXoverride,1
;   flipYoverride,-1
;   flipZoverride,1
;   toolheadOffsets,0,0|0,0|0,0|0,0|0,0|0,0
;   overrideFirmwareConfiguration,0
;   firmwareTypeOverride,RepRap (Marlin/Repetier/Sprinter)
;   GPXconfigOverride,r2
;   baudRateOverride,115200
;   overridePrinterModels,0
;   printerModelsOverride
;   startingGcode,G28  ; Home all,;M208S7; DISABLE THE PROBE,;G1 Z5; probe z clearance,;G1 X0 Y0; ,;M280S3; Enable the probe,;G32; probe the grid,;M374; save the grid,;G1 Z20 ; Set Z20 for ooze
;   layerChangeGcode,
;   retractionGcode,
;   toolChangeGcode,
;   endingGcode,G10 S2.5; retract filament to relieve pressure,M104 S0 ; turn off extruder,M140 S0 ; turn off bed,G91 G1 Z10 ; Clearance from part,G90 G1 X0 Y0 Z170 ; Go to starting position (X0 Y0 Z 170),;M84 ; disable motor,M107; Turn off fan
;   exportFileFormat,gcode
;   celebration,0
;   celebrationSong,Random Song
;   postProcessing,
;   defaultSpeed,2400
;   outlineUnderspeed,0.8
;   solidInfillUnderspeed,1
;   supportUnderspeed,1
;   rapidXYspeed,9000
;   rapidZspeed,1800
;   minBridgingArea,10
;   bridgingExtraInflation,5
;   bridgingExtrusionMultiplier,0.9
;   bridgingSpeedMultiplier,0.6
;   useFixedBridgingAngle,0
;   fixedBridgingAngle,0
;   applyBridgingToPerimeters,1
;   filamentDiameters,1.75|1.75|1.75|1.75|1.75|1.75
;   filamentPricesPerKg,12|46|46|46|46|46
;   filamentDensities,1.33|1.25|1.25|1.25|1.25|1.25
;   useMinPrintHeight,0
;   minPrintHeight,0
;   useMaxPrintHeight,0
;   maxPrintHeight,2.75
;   useDiaphragm,0
;   diaphragmLayerInterval,20
;   robustSlicing,1
;   mergeAllIntoSolid,0
;   onlyRetractWhenCrossingOutline,1
;   retractBetweenLayers,0
;   useRetractionMinTravel,0
;   retractionMinTravel,3
;   retractWhileWiping,1
;   onlyWipeOutlines,1
;   avoidCrossingOutline,0
;   maxMovementDetourFactor,3
;   toolChangeRetractionDistance,12
;   toolChangeExtraRestartDistance,-0.5
;   toolChangeRetractionSpeed,600
;   externalThinWallType,1
;   internalThinWallType,1
;   thinWallAllowedOverlapPercentage,10
;   singleExtrusionMinLength,1
;   singleExtrusionMinPrintingWidthPercentage,50
;   singleExtrusionMaxPrintingWidthPercentage,200
;   singleExtrusionEndpointExtension,0.2
;   horizontalSizeCompensation,0
G90
M82
M106 S0
M140 S60
M190 S60
M104 S245 T0
M109 S245 T0
G28  ; Home all
;M208S7; DISABLE THE PROBE
;G1 Z5; probe z clearance
;G1 X0 Y0; 
;M280S3; Enable the probe
;G32; probe the grid
;M374; save the grid
;G1 Z20 ; Set Z20 for ooze
G92 E0
G1 E-1.2000 F6000
G1 Z0.260 F1800
; process Process1
; layer 1, Z = 0.260
M105
T0
; tool H0.260 W0.600
; skirt
G1 X46.236 Y34.594 F9000
G1 E0.0000 F1800
G92 E0
G1 X46.259 Y34.566 E0.0024 F1800
G1 X47.481 Y33.160 E0.1293
G1 X47.506 Y33.134 E0.1318
G1 X47.702 Y32.942 E0.1505
G1 X47.728 Y32.918 E0.1529
G1 X49.158 Y31.723 E0.2798
G1 X49.187 Y31.701 E0.2822
G1 X49.411 Y31.543 E0.3009
G1 X49.441 Y31.523 E0.3034
G1 X51.042 Y30.570 E0.4303
G1 X51.073 Y30.553 E0.4327
G1 X51.320 Y30.432 E0.4514
G1 X51.352 Y30.417 E0.4538
G1 X53.084 Y29.730 E0.5807
G1 X53.118 Y29.718 E0.5832
G1 X53.381 Y29.637 E0.6019
G1 X53.415 Y29.628 E0.6043
G1 X55.234 Y29.224 E0.7312
G1 X55.269 Y29.217 E0.7336
G1 X55.541 Y29.179 E0.7523
G1 X55.577 Y29.176 E0.7548
G1 X57.437 Y29.064 E0.8817
G1 X57.473 Y29.064 E0.8841
G1 X57.747 Y29.069 E0.9028
G1 X57.783 Y29.071 E0.9052
G1 X59.550 Y29.247 E1.0261
G1 X59.562 Y29.249 E1.0270
G1 X59.660 Y29.261 E1.0337
G1 X59.673 Y29.263 E1.0346
G1 X66.062 Y30.271 E1.4751
G1 X72.353 Y30.977 E1.9062
G1 X78.670 Y31.401 E2.3374
G1 X85.000 Y31.543 E2.7685
G1 X91.330 Y31.401 E3.1997
G1 X97.647 Y30.977 E3.6309
G1 X103.938 Y30.271 E4.0620
G1 X110.327 Y29.263 E4.5025
G1 X110.340 Y29.261 E4.5033
G1 X110.438 Y29.249 E4.5101
G1 X110.450 Y29.247 E4.5109
G1 X112.217 Y29.071 E4.6319
G1 X112.253 Y29.069 E4.6343
G1 X112.527 Y29.064 E4.6530
G1 X112.563 Y29.064 E4.6554
G1 X114.423 Y29.176 E4.7823
G1 X114.459 Y29.179 E4.7848
G1 X114.731 Y29.217 E4.8034
G1 X114.766 Y29.224 E4.8059
G1 X116.585 Y29.628 E4.9328
G1 X116.619 Y29.637 E4.9352
G1 X116.882 Y29.718 E4.9539
G1 X116.916 Y29.730 E4.9563
G1 X118.648 Y30.417 E5.0832
G1 X118.680 Y30.432 E5.0857
G1 X118.926 Y30.553 E5.1044
G1 X118.958 Y30.570 E5.1068
G1 X120.559 Y31.523 E5.2337
G1 X120.589 Y31.543 E5.2361
G1 X120.813 Y31.701 E5.2548
G1 X120.842 Y31.723 E5.2573
G1 X122.272 Y32.918 E5.3842
G1 X122.298 Y32.942 E5.3866
G1 X122.494 Y33.134 E5.4053
G1 X122.519 Y33.160 E5.4077
G1 X123.741 Y34.566 E5.5346
G1 X123.764 Y34.594 E5.5371
G1 X123.927 Y34.815 E5.5558
G1 X123.947 Y34.845 E5.5582
G1 X124.932 Y36.427 E5.6851
G1 X124.949 Y36.458 E5.6875
G1 X125.075 Y36.702 E5.7062
G1 X125.090 Y36.734 E5.7087
G1 X125.812 Y38.452 E5.8356
G1 X125.825 Y38.486 E5.8380
G1 X125.910 Y38.746 E5.8567
G1 X125.920 Y38.781 E5.8591
G1 X126.361 Y40.591 E5.9860
G1 X126.368 Y40.627 E5.9885
G1 X126.411 Y40.898 E6.0072
G1 X126.415 Y40.933 E6.0096
G1 X126.558 Y42.722 E6.1318
G1 X126.559 Y42.740 E6.1331
G1 X126.565 Y42.877 E6.1424
G1 X126.565 Y42.895 E6.1436
G1 X126.565 Y63.044 E7.5158
G1 X126.460 Y63.338 E7.5370
G1 X124.905 Y65.237 E7.7042
G1 X124.638 Y65.398 E7.7254
G1 X118.709 Y66.591 E8.1372
G1 X118.704 Y66.592 E8.1376
G1 X118.660 Y66.600 E8.1407
G1 X118.654 Y66.601 E8.1411
G1 X113.162 Y67.560 E8.5207
G1 X113.155 Y67.561 E8.5212
G1 X113.101 Y67.569 E8.5249
G1 X113.094 Y67.570 E8.5254
G1 X107.570 Y68.356 E8.9054
G1 X107.563 Y68.357 E8.9059
G1 X107.509 Y68.364 E8.9096
G1 X107.502 Y68.365 E8.9101
G1 X101.955 Y68.977 E9.2901
G1 X101.948 Y68.978 E9.2906
G1 X101.894 Y68.983 E9.2943
G1 X101.887 Y68.983 E9.2947
G1 X96.324 Y69.421 E9.6748
G1 X96.317 Y69.422 E9.6752
G1 X96.263 Y69.425 E9.6789
G1 X96.256 Y69.425 E9.6794
G1 X90.682 Y69.688 E10.0594
G1 X90.675 Y69.688 E10.0599
G1 X90.621 Y69.690 E10.0636
G1 X90.614 Y69.690 E10.0641
G1 X85.034 Y69.778 E10.4441
G1 X85.027 Y69.778 E10.4446
G1 X84.973 Y69.778 E10.4483
G1 X84.966 Y69.778 E10.4487
G1 X79.386 Y69.690 E10.8288
G1 X79.379 Y69.690 E10.8292
G1 X79.325 Y69.688 E10.8329
G1 X79.318 Y69.688 E10.8334
G1 X73.744 Y69.425 E11.2134
G1 X73.737 Y69.425 E11.2139
G1 X73.683 Y69.422 E11.2176
G1 X73.676 Y69.421 E11.2181
G1 X68.113 Y68.983 E11.5981
G1 X68.106 Y68.983 E11.5986
G1 X68.052 Y68.978 E11.6023
G1 X68.045 Y68.977 E11.6028
G1 X62.498 Y68.365 E11.9828
G1 X62.491 Y68.364 E11.9833
G1 X62.437 Y68.357 E11.9869
G1 X62.430 Y68.356 E11.9874
G1 X56.906 Y67.570 E12.3674
G1 X56.899 Y67.569 E12.3679
G1 X56.845 Y67.561 E12.3716
G1 X56.838 Y67.560 E12.3721
G1 X51.357 Y66.603 E12.7510
G1 X51.354 Y66.603 E12.7512
G1 X51.332 Y66.599 E12.7527
G1 X51.330 Y66.598 E12.7529
G1 X47.845 Y65.945 E12.9943
G1 X47.839 Y65.944 E12.9947
G1 X47.791 Y65.934 E12.9981
G1 X47.785 Y65.932 E12.9985
G1 X45.322 Y65.398 E13.1701
G1 X45.060 Y65.236 E13.1911
G1 X43.538 Y63.347 E13.3563
G1 X43.435 Y63.057 E13.3773
G1 X43.435 Y42.895 E14.7503
G1 X43.435 Y42.877 E14.7515
G1 X43.441 Y42.740 E14.7609
G1 X43.442 Y42.722 E14.7621
G1 X43.584 Y40.933 E14.8843
G1 X43.589 Y40.898 E14.8867
G1 X43.632 Y40.627 E14.9054
G1 X43.639 Y40.591 E14.9079
G1 X44.080 Y38.781 E15.0348
G1 X44.090 Y38.746 E15.0372
G1 X44.175 Y38.486 E15.0559
G1 X44.188 Y38.452 E15.0583
G1 X44.910 Y36.734 E15.1852
G1 X44.925 Y36.702 E15.1877
G1 X45.051 Y36.458 E15.2064
G1 X45.068 Y36.427 E15.2088
G1 X45.477 Y35.770 E15.2615
G1 X46.053 Y34.845 F1800
G1 X46.073 Y34.815 F1800
G1 X46.236 Y34.594 F1800
G92 E0
G1 E-1.2000 F6000
G1 X55.234 Y83.411 F9000
G1 E0.0000 F6000
G92 E0
G1 X55.269 Y83.404 E0.0024 F1800
G1 X55.541 Y83.366 E0.0211
G1 X55.577 Y83.363 E0.0236
G1 X57.437 Y83.251 E0.1505
G1 X57.473 Y83.251 E0.1529
G1 X57.747 Y83.256 E0.1716
G1 X57.783 Y83.258 E0.1740
G1 X59.550 Y83.434 E0.2949
G1 X59.562 Y83.436 E0.2958
G1 X59.660 Y83.448 E0.3025
G1 X59.673 Y83.450 E0.3034
G1 X66.062 Y84.458 E0.7439
G1 X72.353 Y85.164 E1.1750
G1 X78.670 Y85.588 E1.6062
G1 X85.000 Y85.730 E2.0373
G1 X91.330 Y85.588 E2.4685
G1 X97.647 Y85.164 E2.8997
G1 X103.938 Y84.458 E3.3308
G1 X110.327 Y83.450 E3.7713
G1 X110.340 Y83.448 E3.7721
G1 X110.438 Y83.436 E3.7789
G1 X110.450 Y83.434 E3.7797
G1 X112.217 Y83.258 E3.9007
G1 X112.253 Y83.256 E3.9031
G1 X112.527 Y83.251 E3.9218
G1 X112.563 Y83.251 E3.9242
G1 X114.423 Y83.363 E4.0511
G1 X114.459 Y83.366 E4.0536
G1 X114.731 Y83.404 E4.0722
G1 X114.766 Y83.411 E4.0747
G1 X116.585 Y83.815 E4.2016
G1 X116.619 Y83.824 E4.2040
G1 X116.882 Y83.905 E4.2227
G1 X116.916 Y83.917 E4.2251
G1 X118.647 Y84.604 E4.3520
G1 X118.680 Y84.619 E4.3545
G1 X118.927 Y84.740 E4.3732
G1 X118.958 Y84.757 E4.3756
G1 X120.559 Y85.710 E4.5025
G1 X120.589 Y85.730 E4.5050
G1 X120.813 Y85.889 E4.5236
G1 X120.842 Y85.910 E4.5261
G1 X122.272 Y87.105 E4.6530
G1 X122.298 Y87.129 E4.6554
G1 X122.494 Y87.321 E4.6741
G1 X122.519 Y87.347 E4.6766
G1 X123.741 Y88.753 E4.8034
G1 X123.764 Y88.781 E4.8059
G1 X123.927 Y89.002 E4.8246
G1 X123.947 Y89.032 E4.8270
G1 X124.932 Y90.614 E4.9539
G1 X124.949 Y90.645 E4.9563
G1 X125.075 Y90.889 E4.9750
G1 X125.091 Y90.921 E4.9775
G1 X125.812 Y92.639 E5.1044
G1 X125.825 Y92.673 E5.1068
G1 X125.910 Y92.933 E5.1255
G1 X125.920 Y92.968 E5.1279
G1 X126.361 Y94.778 E5.2548
G1 X126.368 Y94.814 E5.2573
G1 X126.411 Y95.085 E5.2760
G1 X126.416 Y95.120 E5.2784
G1 X126.558 Y96.909 E5.4006
G1 X126.559 Y96.927 E5.4019
G1 X126.565 Y97.064 E5.4112
G1 X126.565 Y97.082 E5.4124
G1 X126.565 Y111.421 E6.3889
G1 X126.462 Y111.713 E6.4100
G1 X124.931 Y113.604 E6.5757
G1 X124.667 Y113.766 E6.5967
G1 X118.982 Y114.976 E6.9925
G1 X118.976 Y114.977 E6.9930
G1 X118.927 Y114.987 E6.9964
G1 X118.921 Y114.988 E6.9968
G1 X113.816 Y115.922 E7.3503
G1 X113.809 Y115.924 E7.3507
G1 X113.758 Y115.932 E7.3543
G1 X113.751 Y115.933 E7.3547
G1 X108.618 Y116.714 E7.7083
G1 X108.611 Y116.715 E7.7087
G1 X108.560 Y116.722 E7.7123
G1 X108.553 Y116.723 E7.7127
G1 X103.399 Y117.348 E8.0663
G1 X103.393 Y117.348 E8.0667
G1 X103.341 Y117.354 E8.0703
G1 X103.334 Y117.355 E8.0708
G1 X98.164 Y117.824 E8.4243
G1 X98.157 Y117.825 E8.4248
G1 X98.105 Y117.828 E8.4283
G1 X98.098 Y117.829 E8.4288
G1 X92.916 Y118.142 E8.7823
G1 X92.909 Y118.142 E8.7828
G1 X92.857 Y118.145 E8.7863
G1 X92.851 Y118.145 E8.7868
G1 X87.661 Y118.302 E9.1403
G1 X87.655 Y118.302 E9.1408
G1 X87.603 Y118.303 E9.1444
G1 X87.596 Y118.303 E9.1448
G1 X82.404 Y118.303 E9.4984
G1 X82.397 Y118.303 E9.4988
G1 X82.345 Y118.302 E9.5024
G1 X82.339 Y118.302 E9.5028
G1 X77.149 Y118.145 E9.8564
G1 X77.143 Y118.145 E9.8568
G1 X77.091 Y118.142 E9.8604
G1 X77.084 Y118.142 E9.8608
G1 X71.902 Y117.829 E10.2144
G1 X71.895 Y117.828 E10.2149
G1 X71.843 Y117.825 E10.2184
G1 X71.836 Y117.824 E10.2189
G1 X66.666 Y117.355 E10.5724
G1 X66.659 Y117.354 E10.5729
G1 X66.607 Y117.348 E10.5764
G1 X66.601 Y117.348 E10.5769
G1 X61.447 Y116.723 E10.9304
G1 X61.440 Y116.722 E10.9309
G1 X61.389 Y116.715 E10.9344
G1 X61.382 Y116.714 E10.9349
G1 X56.249 Y115.933 E11.2884
G1 X56.242 Y115.932 E11.2889
G1 X56.191 Y115.924 E11.2925
G1 X56.184 Y115.922 E11.2929
G1 X51.079 Y114.988 E11.6464
G1 X51.073 Y114.987 E11.6468
G1 X51.024 Y114.977 E11.6502
G1 X51.018 Y114.976 E11.6506
G1 X45.333 Y113.766 E12.0464
G1 X45.069 Y113.604 E12.0675
G1 X43.538 Y111.713 E12.2332
G1 X43.435 Y111.421 E12.2543
G1 X43.435 Y97.082 E13.2308
G1 X43.435 Y97.064 E13.2320
G1 X43.441 Y96.927 E13.2413
G1 X43.442 Y96.909 E13.2425
G1 X43.584 Y95.120 E13.3648
G1 X43.589 Y95.085 E13.3672
G1 X43.632 Y94.814 E13.3859
G1 X43.639 Y94.779 E13.3883
G1 X44.080 Y92.968 E13.5152
G1 X44.090 Y92.933 E13.5177
G1 X44.175 Y92.673 E13.5364
G1 X44.188 Y92.639 E13.5388
G1 X44.910 Y90.921 E13.6657
G1 X44.925 Y90.889 E13.6681
G1 X45.051 Y90.645 E13.6868
G1 X45.068 Y90.614 E13.6893
G1 X46.053 Y89.032 E13.8162
G1 X46.073 Y89.002 E13.8186
G1 X46.236 Y88.781 E13.8373
G1 X46.259 Y88.753 E13.8397
G1 X47.481 Y87.347 E13.9666
G1 X47.506 Y87.321 E13.9691
G1 X47.702 Y87.129 E13.9878
G1 X47.728 Y87.105 E13.9902
G1 X49.158 Y85.910 E14.1171
G1 X49.187 Y85.889 E14.1195
G1 X49.411 Y85.730 E14.1382
G1 X49.441 Y85.710 E14.1407
G1 X51.042 Y84.757 E14.2676
G1 X51.074 Y84.740 E14.2700
G1 X51.320 Y84.619 E14.2887
G1 X51.352 Y84.604 E14.2911
G1 X53.084 Y83.917 E14.4180
G1 X53.118 Y83.905 E14.4205
G1 X53.381 Y83.824 E14.4392
G1 X53.415 Y83.815 E14.4416
G1 X53.867 Y83.715 E14.4732
G1 X55.234 Y83.411 F1800
G1 X55.353 Y83.999 F9000
G92 E0
G1 X55.364 Y83.997 E0.0008 F1800
G1 X55.613 Y83.962 E0.0179
G1 X55.624 Y83.961 E0.0187
G1 X57.461 Y83.851 E0.1440
G1 X57.473 Y83.851 E0.1448
G1 X57.723 Y83.856 E0.1618
G1 X57.735 Y83.856 E0.1627
G1 X59.486 Y84.031 E0.2825
G1 X59.490 Y84.031 E0.2828
G1 X59.579 Y84.043 E0.2889
