; G-Code generated by Simplify3D(R) Version 4.0.1
; Nov 4, 2018 at 4:13:56 PM
; Settings Summary
;   processName,Optimal(1)
;   applyToModels,rod paint fixture 2,rod paint fixture 2(2),rod paint fixture 2(3)
;   profileName,BortBot (modified)
;   profileVersion,2018-03-11 18:52:45
;   baseProfile,Default
;   printMaterial,PLA
;   printQuality,Medium
;   printExtruders,
;   extruderName,Extruder 1
;   extruderToolheadNumber,0
;   extruderDiameter,0.4
;   extruderAutoWidth,1
;   extruderWidth,0.48
;   extrusionMultiplier,1.02
;   extruderUseRetract,1
;   extruderRetractionDistance,3
;   extruderExtraRestartDistance,0
;   extruderRetractionZLift,0
;   extruderRetractionSpeed,1500
;   extruderUseCoasting,0
;   extruderCoastingDistance,1.4
;   extruderUseWipe,0
;   extruderWipeDistance,2
;   primaryExtruder,0
;   layerHeight,0.3
;   topSolidLayers,3
;   bottomSolidLayers,2
;   perimeterOutlines,3
;   printPerimetersInsideOut,0
;   startPointOption,2
;   startPointOriginX,0
;   startPointOriginY,0
;   sequentialIslands,0
;   spiralVaseMode,0
;   firstLayerHeightPercentage,125
;   firstLayerWidthPercentage,100
;   firstLayerUnderspeed,0.75
;   useRaft,0
;   raftExtruder,0
;   raftTopLayers,2
;   raftBaseLayers,2
;   raftOffset,3
;   raftSeparationDistance,0.3
;   raftTopInfill,90
;   aboveRaftSpeedMultiplier,0.3
;   useSkirt,1
;   skirtExtruder,0
;   skirtLayers,1
;   skirtOutlines,2
;   skirtOffset,3
;   usePrimePillar,0
;   primePillarExtruder,999
;   primePillarWidth,12
;   primePillarLocation,7
;   primePillarSpeedMultiplier,1
;   useOozeShield,0
;   oozeShieldExtruder,999
;   oozeShieldOffset,2
;   oozeShieldOutlines,1
;   oozeShieldSidewallShape,1
;   oozeShieldSidewallAngle,30
;   oozeShieldSpeedMultiplier,1
;   infillExtruder,0
;   internalInfillPattern,Full Honeycomb
;   externalInfillPattern,Rectilinear
;   infillPercentage,40
;   outlineOverlapPercentage,35
;   infillExtrusionWidthPercentage,90
;   minInfillLength,5
;   infillLayerInterval,1
;   internalInfillAngles,0,120,-120
;   overlapInternalInfillAngles,0
;   externalInfillAngles,45,-45
;   generateSupport,0
;   supportExtruder,0
;   supportInfillPercentage,50
;   supportExtraInflation,0
;   supportBaseLayers,1
;   denseSupportExtruder,0
;   denseSupportLayers,4
;   denseSupportInfillPercentage,90
;   supportLayerInterval,1
;   supportHorizontalPartOffset,0.5
;   supportUpperSeparationLayers,1
;   supportLowerSeparationLayers,1
;   supportType,0
;   supportGridSpacing,1
;   maxOverhangAngle,46
;   supportAngles,0
;   temperatureName,Extruder 1,Heated Bed
;   temperatureNumber,0,1
;   temperatureSetpointCount,1,1
;   temperatureSetpointLayers,1,1
;   temperatureSetpointTemperatures,203,60
;   temperatureStabilizeAtStartup,1,1
;   temperatureHeatedBed,0,1
;   temperatureRelayBetweenLayers,1,0
;   temperatureRelayBetweenLoops,1,0
;   fanLayers,1,3
;   fanSpeeds,0,60
;   blipFanToFullPower,1
;   adjustSpeedForCooling,1
;   minSpeedLayerTime,15
;   minCoolingSpeedSlowdown,20
;   increaseFanForCooling,1
;   minFanLayerTime,45
;   maxCoolingFanSpeed,100
;   increaseFanForBridging,1
;   bridgingFanSpeed,100
;   use5D,1
;   relativeEdistances,0
;   allowEaxisZeroing,1
;   independentExtruderAxes,0
;   includeM10123,0
;   stickySupport,1
;   applyToolheadOffsets,0
;   gcodeXoffset,0
;   gcodeYoffset,0
;   gcodeZoffset,0
;   overrideMachineDefinition,0
;   machineTypeOverride,0
;   strokeXoverride,100
;   strokeYoverride,100
;   strokeZoverride,100
;   originOffsetXoverride,0
;   originOffsetYoverride,0
;   originOffsetZoverride,0
;   homeXdirOverride,-1
;   homeYdirOverride,-1
;   homeZdirOverride,-1
;   flipXoverride,1
;   flipYoverride,-1
;   flipZoverride,1
;   toolheadOffsets,0,0|0,0|0,0|0,0|0,0|0,0
;   overrideFirmwareConfiguration,0
;   firmwareTypeOverride,RepRap (Marlin/Repetier/Sprinter)
;   GPXconfigOverride,r2
;   baudRateOverride,115200
;   overridePrinterModels,0
;   printerModelsOverride
;   startingGcode,G28 XY ; HOME XY,M561 ; Clear any bed transform,G1 X80 Y80 Z25; move to center of bed,G30 ;Do a single Z probe,G29 S1 ; Load bed compensating height map,G1 X0 Y0 Z10 ; Return to origin
;   layerChangeGcode,
;   retractionGcode,
;   toolChangeGcode,
;   endingGcode,G10 S5; retract filament to relieve pressure,M104 S0 ; turn off extruder,M140 S0 ; turn off bed,G91 G1 Z10 ; Clearance from part,G90 G1 X0 Y0 Z170 ; Go to starting position (X0 Y0 Z 170),M84 ; disable motor,M107; Turn off fan
;   exportFileFormat,gcode
;   celebration,0
;   celebrationSong,Random Song
;   postProcessing,
;   defaultSpeed,3600
;   outlineUnderspeed,0.8
;   solidInfillUnderspeed,1
;   supportUnderspeed,1
;   rapidXYspeed,5100
;   rapidZspeed,1800
;   minBridgingArea,10
;   bridgingExtraInflation,5
;   bridgingExtrusionMultiplier,0.9
;   bridgingSpeedMultiplier,0.6
;   useFixedBridgingAngle,0
;   fixedBridgingAngle,0
;   applyBridgingToPerimeters,1
;   filamentDiameters,1.75|1.75|1.75|1.75|1.75|1.75
;   filamentPricesPerKg,20|46|46|46|46|46
;   filamentDensities,1.33|1.25|1.25|1.25|1.25|1.25
;   useMinPrintHeight,0
;   minPrintHeight,40
;   useMaxPrintHeight,0
;   maxPrintHeight,60
;   useDiaphragm,0
;   diaphragmLayerInterval,20
;   robustSlicing,1
;   mergeAllIntoSolid,0
;   onlyRetractWhenCrossingOutline,1
;   retractBetweenLayers,0
;   useRetractionMinTravel,0
;   retractionMinTravel,3
;   retractWhileWiping,1
;   onlyWipeOutlines,1
;   avoidCrossingOutline,0
;   maxMovementDetourFactor,3
;   toolChangeRetractionDistance,12
;   toolChangeExtraRestartDistance,-0.5
;   toolChangeRetractionSpeed,600
;   externalThinWallType,1
;   internalThinWallType,2
;   thinWallAllowedOverlapPercentage,20
;   singleExtrusionMinLength,1
;   singleExtrusionMinPrintingWidthPercentage,50
;   singleExtrusionMaxPrintingWidthPercentage,200
;   singleExtrusionEndpointExtension,0.2
;   horizontalSizeCompensation,0
G90
M82
M106 S255
G4 P500
M106 S0
M140 S60
M190 S60
M104 S203 T0
M109 S203 T0
G28 XY ; HOME XY
M561 ; Clear any bed transform
G1 X80 Y80 Z25; move to center of bed
G30 ;Do a single Z probe
G29 S1 ; Load bed compensating height map
G1 X0 Y0 Z10 ; Return to origin
G92 E0
G1 E-3.0000 F1500
G1 Z0.375 F1800
; process Optimal(1)
; layer 1, Z = 0.375
M105
T0
; tool H0.375 W0.480
; skirt
G1 X31.350 Y43.890 F5100
G1 E0.0000 F450
G92 E0
G1 X31.614 Y43.780 E0.0219 F2700
G1 X138.386 Y43.780 E8.1720
G1 X138.650 Y43.890 E8.1938
G1 X140.610 Y45.850 E8.4054
G1 X140.720 Y46.114 E8.4273
G1 X140.720 Y68.886 E10.1655
G1 X140.610 Y69.150 E10.1873
G1 X139.761 Y70.000 E10.2790
G1 X140.610 Y70.850 E10.3707
G1 X140.720 Y71.114 E10.3926
G1 X140.720 Y93.886 E12.1308
G1 X140.610 Y94.150 E12.1527
G1 X139.761 Y95.000 E12.2444
G1 X140.610 Y95.850 E12.3361
G1 X140.720 Y96.114 E12.3580
G1 X140.720 Y118.886 E14.0962
G1 X140.610 Y119.150 E14.1180
G1 X138.650 Y121.110 E14.3296
G1 X138.386 Y121.220 E14.3515
G1 X31.614 Y121.220 E22.5016
G1 X31.350 Y121.110 E22.5234
G1 X29.390 Y119.150 E22.7350
G1 X29.280 Y118.886 E22.7569
G1 X29.280 Y96.114 E24.4951
G1 X29.390 Y95.850 E24.5169
G1 X30.239 Y95.000 E24.6086
G1 X29.390 Y94.150 E24.7004
G1 X29.280 Y93.886 E24.7222
G1 X29.280 Y71.114 E26.4604
G1 X29.390 Y70.850 E26.4823
G1 X30.239 Y70.000 E26.5740
G1 X29.390 Y69.150 E26.6657
G1 X29.280 Y68.886 E26.6876
G1 X29.280 Y46.114 E28.4258
G1 X29.390 Y45.850 E28.4476
G1 X31.350 Y43.890 E28.6592
G1 X31.621 Y44.297 F5100
G92 E0
G1 X31.710 Y44.260 E0.0073 F2700
G1 X138.290 Y44.260 E8.1428
G1 X138.379 Y44.297 E8.1501
G1 X140.203 Y46.121 E8.3471
G1 X140.240 Y46.210 E8.3544
G1 X140.240 Y68.790 E10.0780
G1 X140.203 Y68.879 E10.0853
G1 X139.082 Y70.000 E10.2064
G1 X140.203 Y71.121 E10.3274
G1 X140.240 Y71.210 E10.3347
G1 X140.240 Y93.790 E12.0583
G1 X140.203 Y93.879 E12.0656
G1 X139.082 Y95.000 E12.1867
G1 X140.203 Y96.121 E12.3077
G1 X140.240 Y96.210 E12.3150
G1 X140.240 Y118.790 E14.0387
G1 X140.203 Y118.879 E14.0459
G1 X138.379 Y120.703 E14.2429
G1 X138.290 Y120.740 E14.2502
G1 X31.710 Y120.740 E22.3858
G1 X31.621 Y120.703 E22.3930
G1 X29.797 Y118.879 E22.5900
G1 X29.760 Y118.790 E22.5973
G1 X29.760 Y96.210 E24.3210
G1 X29.797 Y96.121 E24.3282
G1 X30.918 Y95.000 E24.4493
G1 X29.797 Y93.879 E24.5704
G1 X29.760 Y93.790 E24.5776
G1 X29.760 Y71.210 E26.3013
G1 X29.797 Y71.121 E26.3086
G1 X30.918 Y70.000 E26.4296
G1 X29.797 Y68.879 E26.5507
G1 X29.760 Y68.790 E26.5580
G1 X29.760 Y46.210 E28.2816
G1 X29.797 Y46.121 E28.2889
G1 X31.621 Y44.297 E28.4859
G92 E0
G1 E-3.0000 F1500
; outer perimeter
G1 X33.240 Y47.740 F5100
G1 E0.0000 F1500
G92 E0
G1 X136.760 Y47.740 E7.9019 F2160
G1 X136.760 Y67.260 E9.3919
G1 X33.240 Y67.260 E17.2938
G1 X33.240 Y47.740 E18.7838
; inner perimeter
G1 X33.720 Y48.220 F5100
G92 E0
G1 X136.280 Y48.220 E7.8286 F2430
G1 X136.280 Y66.780 E9.2453
G1 X33.720 Y66.780 E17.0739
G1 X33.720 Y48.220 E18.4907
G1 X34.200 Y48.700 F5100
G92 E0
G1 X135.800 Y48.700 E7.7553 F2430
G1 X135.800 Y66.300 E9.0988
G1 X34.200 Y66.300 E16.8541
G1 X34.200 Y48.700 E18.1976
; outer perimeter
G1 X37.933 Y51.441 F5100
G92 E0
G1 X37.777 Y51.721 E0.0245 F2160
G1 X37.670 Y52.024 E0.0490
G1 X37.616 Y52.340 E0.0734
G1 X37.616 Y52.660 E0.0979
G1 X37.670 Y52.976 E0.1224
G1 X37.777 Y53.279 E0.1469
G1 X37.933 Y53.559 E0.1714
G1 X38.135 Y53.808 E0.1958
G1 X38.376 Y54.020 E0.2203
G1 X38.649 Y54.188 E0.2448
G1 X38.946 Y54.308 E0.2693
G1 X39.260 Y54.376 E0.2938
G1 X39.580 Y54.389 E0.3183
G1 X39.898 Y54.348 E0.3427
G1 X40.205 Y54.255 E0.3672
G1 X40.491 Y54.110 E0.3917
G1 X40.749 Y53.919 E0.4162
G1 X40.971 Y53.688 E0.4407
G1 X41.151 Y53.422 E0.4651
G1 X41.283 Y53.130 E0.4896
G1 X41.364 Y52.820 E0.5141
G1 X41.391 Y52.500 E0.5386
G1 X41.364 Y52.180 E0.5631
G1 X41.283 Y51.870 E0.5875
G1 X41.151 Y51.578 E0.6120
G1 X40.971 Y51.312 E0.6365
G1 X40.749 Y51.081 E0.6610
G1 X40.491 Y50.890 E0.6855
G1 X40.205 Y50.745 E0.7099
G1 X39.898 Y50.652 E0.7344
G1 X39.580 Y50.611 E0.7589
G1 X39.260 Y50.624 E0.7834
G1 X38.946 Y50.692 E0.8079
G1 X38.649 Y50.812 E0.8323
G1 X38.376 Y50.980 E0.8568
G1 X38.135 Y51.192 E0.8813
G1 X37.933 Y51.441 E0.9058
; inner perimeter
G1 X37.534 Y51.171 F5100
G92 E0
G1 X37.338 Y51.523 E0.0307 F2430
G1 X37.204 Y51.902 E0.0614
G1 X37.136 Y52.299 E0.0922
G1 X37.136 Y52.701 E0.1229
G1 X37.204 Y53.098 E0.1536
G1 X37.338 Y53.477 E0.1843
G1 X37.534 Y53.829 E0.2150
G1 X37.787 Y54.142 E0.2457
G1 X38.089 Y54.408 E0.2765
G1 X38.432 Y54.619 E0.3072
G1 X38.805 Y54.769 E0.3379
G1 X39.199 Y54.853 E0.3686
G1 X39.601 Y54.870 E0.3993
G1 X40.000 Y54.819 E0.4300
G1 X40.385 Y54.702 E0.4608
G1 X40.744 Y54.520 E0.4915
G1 X41.068 Y54.281 E0.5222
G1 X41.346 Y53.991 E0.5529
G1 X41.571 Y53.657 E0.5836
G1 X41.737 Y53.290 E0.6144
G1 X41.838 Y52.901 E0.6451
G1 X41.873 Y52.500 E0.6758
G1 X41.838 Y52.099 E0.7065
G1 X41.737 Y51.710 E0.7372
G1 X41.571 Y51.343 E0.7679
G1 X41.346 Y51.009 E0.7987
G1 X41.068 Y50.719 E0.8294
G1 X40.744 Y50.480 E0.8601
G1 X40.385 Y50.298 E0.8908
G1 X40.000 Y50.181 E0.9215
G1 X39.601 Y50.130 E0.9522
G1 X39.199 Y50.147 E0.9830
G1 X38.805 Y50.231 E1.0137
G1 X38.432 Y50.381 E1.0444
G1 X38.089 Y50.592 E1.0751
G1 X37.787 Y50.858 E1.1058
G1 X37.534 Y51.171 E1.1366
G1 X37.135 Y50.902 F5100
G92 E0
G1 X36.899 Y51.324 E0.0370 F2430
G1 X36.738 Y51.781 E0.0739
G1 X36.656 Y52.258 E0.1109
G1 X36.656 Y52.742 E0.1478
G1 X36.738 Y53.219 E0.1848
G1 X36.899 Y53.676 E0.2217
G1 X37.135 Y54.098 E0.2587
G1 X37.439 Y54.475 E0.2956
G1 X37.803 Y54.795 E0.3326
G1 X38.215 Y55.049 E0.3695
G1 X38.664 Y55.229 E0.4065
G1 X39.137 Y55.331 E0.4435
G1 X39.621 Y55.352 E0.4804
G1 X40.101 Y55.290 E0.5174
G1 X40.564 Y55.148 E0.5543
G1 X40.997 Y54.931 E0.5913
G1 X41.386 Y54.643 E0.6282
G1 X41.721 Y54.293 E0.6652
G1 X41.992 Y53.892 E0.7021
G1 X42.191 Y53.451 E0.7391
G1 X42.313 Y52.982 E0.7760
G1 X42.354 Y52.500 E0.8130
G1 X42.313 Y52.018 E0.8500
G1 X42.191 Y51.549 E0.8869
G1 X41.992 Y51.108 E0.9239
G1 X41.721 Y50.707 E0.9608
G1 X41.386 Y50.357 E0.9978
G1 X40.997 Y50.069 E1.0347
G1 X40.564 Y49.851 E1.0717
G1 X40.101 Y49.710 E1.1086
G1 X39.621 Y49.648 E1.1456
G1 X39.137 Y49.669 E1.1825
G1 X38.664 Y49.771 E1.2195
G1 X38.215 Y49.951 E1.2565
G1 X37.803 Y50.205 E1.2934
G1 X37.439 Y50.525 E1.3304
G1 X37.135 Y50.902 E1.3673
G92 E0
G1 E-3.0000 F1500
; outer perimeter
G1 X50.616 Y52.340 F5100
G1 E0.0000 F1500
G92 E0
G1 X50.616 Y52.660 E0.0245 F2160
G1 X50.670 Y52.976 E0.0490
G1 X50.777 Y53.279 E0.0734
G1 X50.933 Y53.559 E0.0979
G1 X51.135 Y53.808 E0.1224
G1 X51.376 Y54.020 E0.1469
G1 X51.649 Y54.188 E0.1714
G1 X51.946 Y54.308 E0.1958
G1 X52.260 Y54.376 E0.2203
G1 X52.580 Y54.389 E0.2448
G1 X52.898 Y54.348 E0.2693
G1 X53.205 Y54.255 E0.2938
G1 X53.491 Y54.110 E0.3182
G1 X53.749 Y53.919 E0.3427
G1 X53.971 Y53.688 E0.3672
G1 X54.151 Y53.422 E0.3917
G1 X54.283 Y53.130 E0.4162
G1 X54.364 Y52.820 E0.4407
G1 X54.391 Y52.500 E0.4651
G1 X54.364 Y52.180 E0.4896
G1 X54.283 Y51.870 E0.5141
G1 X54.151 Y51.578 E0.5386
G1 X53.971 Y51.312 E0.5631
G1 X53.749 Y51.081 E0.5875
G1 X53.491 Y50.890 E0.6120
G1 X53.205 Y50.745 E0.6365
G1 X52.898 Y50.652 E0.6610
G1 X52.580 Y50.611 E0.6855
G1 X52.260 Y50.624 E0.7099
G1 X51.946 Y50.692 E0.7344
G1 X51.649 Y50.812 E0.7589
G1 X51.376 Y50.980 E0.7834
G1 X51.135 Y51.192 E0.8079
G1 X50.933 Y51.441 E0.8323
G1 X50.777 Y51.721 E0.8568
G1 X50.670 Y52.023 E0.8813
G1 X50.616 Y52.340 E0.9058
; inner perimeter
G1 X50.136 Y52.299 F5100
G92 E0
G1 X50.136 Y52.701 E0.0307 F2430
G1 X50.204 Y53.098 E0.0614
G1 X50.338 Y53.477 E0.0922
G1 X50.534 Y53.829 E0.1229
G1 X50.787 Y54.142 E0.1536
G1 X51.089 Y54.408 E0.1843
G1 X51.432 Y54.619 E0.2150
G1 X51.805 Y54.769 E0.2457
G1 X52.199 Y54.853 E0.2765
G1 X52.601 Y54.870 E0.3072
G1 X53.000 Y54.819 E0.3379
G1 X53.385 Y54.702 E0.3686
G1 X53.744 Y54.520 E0.3993
G1 X54.068 Y54.281 E0.4301
G1 X54.346 Y53.991 E0.4608
G1 X54.571 Y53.657 E0.4915
G1 X54.737 Y53.290 E0.5222
G1 X54.838 Y52.901 E0.5529
G1 X54.873 Y52.500 E0.5836
G1 X54.838 Y52.099 E0.6144
G1 X54.737 Y51.710 E0.6451
G1 X54.571 Y51.343 E0.6758
G1 X54.346 Y51.009 E0.7065
G1 X54.068 Y50.719 E0.7372
G1 X53.744 Y50.480 E0.7679
G1 X53.385 Y50.298 E0.7987
G1 X53.000 Y50.181 E0.8294
G1 X52.601 Y50.130 E0.8601
G1 X52.199 Y50.147 E0.8908
G1 X51.805 Y50.231 E0.9215
G1 X51.432 Y50.381 E0.9522
G1 X51.089 Y50.592 E0.9830
G1 X50.787 Y50.858 E1.0137
G1 X50.534 Y51.171 E1.0444
G1 X50.338 Y51.523 E1.0751
G1 X50.204 Y51.902 E1.1058
G1 X50.136 Y52.299 E1.1366
G1 X49.656 Y52.258 F5100
G92 E0
G1 X49.656 Y52.742 E0.0370 F2430
G1 X49.738 Y53.219 E0.0739
G1 X49.899 Y53.676 E0.1109
G1 X50.135 Y54.098 E0.1478
G1 X50.439 Y54.475 E0.1848
G1 X50.803 Y54.795 E0.2217
G1 X51.215 Y55.049 E0.2587
G1 X51.664 Y55.229 E0.2956
G1 X52.137 Y55.331 E0.3326
G1 X52.621 Y55.352 E0.3696
G1 X53.101 Y55.290 E0.4065
G1 X53.564 Y55.149 E0.4435
G1 X53.997 Y54.931 E0.4804
G1 X54.386 Y54.643 E0.5174
G1 X54.721 Y54.293 E0.5543
G1 X54.992 Y53.892 E0.5913
G1 X55.191 Y53.451 E0.6282
G1 X55.313 Y52.982 E0.6652
G1 X55.354 Y52.500 E0.7021
G1 X55.313 Y52.018 E0.7391
G1 X55.191 Y51.549 E0.7760
G1 X54.992 Y51.108 E0.8130
G1 X54.721 Y50.707 E0.8500
G1 X54.386 Y50.357 E0.8869
G1 X53.997 Y50.069 E0.9239
G1 X53.564 Y49.851 E0.9608
G1 X53.101 Y49.710 E0.9978
G1 X52.621 Y49.648 E1.0347
G1 X52.137 Y49.669 E1.0717
G1 X51.664 Y49.771 E1.1086
G1 X51.215 Y49.951 E1.1456
G1 X50.803 Y50.205 E1.1825
G1 X50.439 Y50.525 E1.2195
G1 X50.135 Y50.902 E1.2565
G1 X49.899 Y51.324 E1.2934
G1 X49.738 Y51.781 E1.3304
G1 X49.656 Y52.258 E1.3673
G92 E0
G1 E-3.0000 F1500
; outer perimeter
G1 X63.616 Y52.340 F5100
G1 E0.0000 F1500
G92 E0
G1 X63.616 Y52.660 E0.0245 F2160
G1 X63.670 Y52.976 E0.0490
G1 X63.777 Y53.279 E0.0734
G1 X63.933 Y53.559 E0.0979
G1 X64.135 Y53.808 E0.1224
G1 X64.376 Y54.020 E0.1469
G1 X64.649 Y54.188 E0.1714
G1 X64.946 Y54.308 E0.1958
G1 X65.260 Y54.376 E0.2203
G1 X65.580 Y54.389 E0.2448
G1 X65.898 Y54.348 E0.2693
G1 X66.205 Y54.255 E0.2938
G1 X66.491 Y54.110 E0.3182
G1 X66.749 Y53.919 E0.3427
G1 X66.971 Y53.688 E0.3672
G1 X67.151 Y53.422 E0.3917
G1 X67.283 Y53.130 E0.4162
G1 X67.364 Y52.820 E0.4407
G1 X67.391 Y52.500 E0.4651
G1 X67.364 Y52.180 E0.4896
G1 X67.283 Y51.870 E0.5141
G1 X67.151 Y51.578 E0.5386
G1 X66.971 Y51.312 E0.5631
G1 X66.749 Y51.081 E0.5875
