; G-Code generated by Simplify3D(R) Version 4.1.0
; Jun 13, 2019 at 7:19:52 PM
; Settings Summary
;   processName,general PLA
;   applyToModels,Spool holder
;   profileName,BortBot (modified)
;   profileVersion,2018-03-11 18:52:45
;   baseProfile,Default
;   printMaterial,PLA
;   printQuality,Medium
;   printExtruders,
;   extruderName,Extruder 1
;   extruderToolheadNumber,0
;   extruderDiameter,0.8
;   extruderAutoWidth,1
;   extruderWidth,0.96
;   extrusionMultiplier,1.02
;   extruderUseRetract,1
;   extruderRetractionDistance,3.2
;   extruderExtraRestartDistance,0.1
;   extruderRetractionZLift,0
;   extruderRetractionSpeed,2400
;   extruderUseCoasting,0
;   extruderCoastingDistance,1.4
;   extruderUseWipe,0
;   extruderWipeDistance,2
;   primaryExtruder,0
;   layerHeight,0.6
;   topSolidLayers,4
;   bottomSolidLayers,3
;   perimeterOutlines,2
;   printPerimetersInsideOut,0
;   startPointOption,3
;   startPointOriginX,200
;   startPointOriginY,100
;   sequentialIslands,0
;   spiralVaseMode,0
;   firstLayerHeightPercentage,100
;   firstLayerWidthPercentage,102
;   firstLayerUnderspeed,0.6
;   useRaft,0
;   raftExtruder,0
;   raftTopLayers,2
;   raftBaseLayers,2
;   raftOffset,3
;   raftSeparationDistance,0.3
;   raftTopInfill,90
;   aboveRaftSpeedMultiplier,0.3
;   useSkirt,1
;   skirtExtruder,0
;   skirtLayers,1
;   skirtOutlines,2
;   skirtOffset,2
;   usePrimePillar,0
;   primePillarExtruder,999
;   primePillarWidth,12
;   primePillarLocation,7
;   primePillarSpeedMultiplier,1
;   useOozeShield,0
;   oozeShieldExtruder,999
;   oozeShieldOffset,2
;   oozeShieldOutlines,1
;   oozeShieldSidewallShape,1
;   oozeShieldSidewallAngle,30
;   oozeShieldSpeedMultiplier,1
;   infillExtruder,0
;   internalInfillPattern,Triangular
;   externalInfillPattern,Rectilinear
;   infillPercentage,15
;   outlineOverlapPercentage,5
;   infillExtrusionWidthPercentage,101
;   minInfillLength,5
;   infillLayerInterval,1
;   internalInfillAngles,0,60,-60
;   overlapInternalInfillAngles,1
;   externalInfillAngles,45,-45
;   generateSupport,0
;   supportExtruder,0
;   supportInfillPercentage,5
;   supportExtraInflation,0
;   supportBaseLayers,1
;   denseSupportExtruder,0
;   denseSupportLayers,2
;   denseSupportInfillPercentage,90
;   supportLayerInterval,1
;   supportHorizontalPartOffset,0.5
;   supportUpperSeparationLayers,1
;   supportLowerSeparationLayers,1
;   supportType,0
;   supportGridSpacing,1
;   maxOverhangAngle,46
;   supportAngles,90
;   temperatureName,Extruder 1,Heated Bed
;   temperatureNumber,0,1
;   temperatureSetpointCount,1,1
;   temperatureSetpointLayers,1,1
;   temperatureSetpointTemperatures,220,60
;   temperatureStabilizeAtStartup,1,1
;   temperatureHeatedBed,0,1
;   fanLayers,1,3
;   fanSpeeds,0,60
;   blipFanToFullPower,1
;   adjustSpeedForCooling,0
;   minSpeedLayerTime,15
;   minCoolingSpeedSlowdown,20
;   increaseFanForCooling,1
;   minFanLayerTime,45
;   maxCoolingFanSpeed,75
;   increaseFanForBridging,1
;   bridgingFanSpeed,75
;   use5D,1
;   relativeEdistances,0
;   allowEaxisZeroing,1
;   independentExtruderAxes,0
;   includeM10123,0
;   stickySupport,1
;   applyToolheadOffsets,0
;   gcodeXoffset,0
;   gcodeYoffset,0
;   gcodeZoffset,0
;   overrideMachineDefinition,0
;   machineTypeOverride,0
;   strokeXoverride,100
;   strokeYoverride,100
;   strokeZoverride,100
;   originOffsetXoverride,0
;   originOffsetYoverride,0
;   originOffsetZoverride,0
;   homeXdirOverride,-1
;   homeYdirOverride,-1
;   homeZdirOverride,-1
;   flipXoverride,1
;   flipYoverride,-1
;   flipZoverride,1
;   toolheadOffsets,0,0|0,0|0,0|0,0|0,0|0,0
;   overrideFirmwareConfiguration,0
;   firmwareTypeOverride,RepRap (Marlin/Repetier/Sprinter)
;   GPXconfigOverride,r2
;   baudRateOverride,115200
;   overridePrinterModels,0
;   printerModelsOverride
;   startingGcode,G11 S1; Unretract,;G28 XY ; HOME XY,;M561 ; Clear any bed transform,G1 X100 Y80 Z25; move to center of bed,G30 ;Do a single Z probe,G29 S1 ; Load bed compensating height map,;G1 Z10; ,M572 D0 S0.15,
;   layerChangeGcode,
;   retractionGcode,
;   toolChangeGcode,
;   endingGcode,G10 S1; retract filament to relieve pressure,M104 S0 ; turn off extruder,M140 S0 ; turn off bed,G91 G1 Z10 ; Clearance from part,G90 G1 X0 Y0 ; Go to starting position (X0 Y0 Z300),M84 ; disable motor,M107; Turn off fan
;   exportFileFormat,gcode
;   celebration,0
;   celebrationSong,Random Song
;   postProcessing,
;   defaultSpeed,3600
;   outlineUnderspeed,0.8
;   solidInfillUnderspeed,1
;   supportUnderspeed,1
;   rapidXYspeed,3600
;   rapidZspeed,1800
;   minBridgingArea,10
;   bridgingExtraInflation,5
;   bridgingExtrusionMultiplier,0.9
;   bridgingSpeedMultiplier,0.6
;   useFixedBridgingAngle,0
;   fixedBridgingAngle,0
;   applyBridgingToPerimeters,1
;   filamentDiameters,1.75|1.75|1.75|1.75|1.75|1.75
;   filamentPricesPerKg,20|46|46|46|46|46
;   filamentDensities,1.33|1.25|1.25|1.25|1.25|1.25
;   useMinPrintHeight,0
;   minPrintHeight,50
;   useMaxPrintHeight,0
;   maxPrintHeight,23
;   useDiaphragm,0
;   diaphragmLayerInterval,20
;   robustSlicing,1
;   mergeAllIntoSolid,0
;   onlyRetractWhenCrossingOutline,1
;   retractBetweenLayers,0
;   useRetractionMinTravel,0
;   retractionMinTravel,3
;   retractWhileWiping,0
;   onlyWipeOutlines,1
;   avoidCrossingOutline,1
;   maxMovementDetourFactor,5
;   toolChangeRetractionDistance,12
;   toolChangeExtraRestartDistance,-0.5
;   toolChangeRetractionSpeed,600
;   externalThinWallType,1
;   internalThinWallType,1
;   thinWallAllowedOverlapPercentage,30
;   singleExtrusionMinLength,1
;   singleExtrusionMinPrintingWidthPercentage,50
;   singleExtrusionMaxPrintingWidthPercentage,200
;   singleExtrusionEndpointExtension,1.5
;   horizontalSizeCompensation,0
G90
M82
M106 S0
M140 S60
M190 S60
M104 S220 T0
M109 S220 T0
G11 S1; Unretract
;G28 XY ; HOME XY
;M561 ; Clear any bed transform
G1 X100 Y80 Z25; move to center of bed
G30 ;Do a single Z probe
G29 S1 ; Load bed compensating height map
;G1 Z10; 
M572 D0 S0.15
; process general PLA
; layer 1, Z = 0.600
T0
; feature skirt
; tool H0.600 W0.979
G1 Z0.600 F1800
G1 X146.969 Y98.563 F3600
G92 E0.0000
G1 X146.969 Y123.859 E6.3023 F2160
G1 X144.937 Y125.891 E7.0183
G1 X137.063 Y125.891 E8.9800
G1 X135.031 Y123.859 E9.6959
G1 X135.031 Y115.891 E11.6812
G1 X69.278 Y115.890 E28.0635
G1 X69.146 Y116.038 E28.1128
G1 X68.878 Y116.382 E28.2215
G1 X68.428 Y117.051 E28.4225
G1 X68.037 Y117.722 E28.6160
G1 X67.587 Y118.674 E28.8781
G1 X67.261 Y119.597 E29.1220
G1 X67.055 Y120.487 E29.3497
G1 X66.983 Y121.090 E29.5010
G1 X66.969 Y121.500 E29.6033
G1 X66.969 Y141.437 E34.5704
G1 X64.937 Y143.469 E35.2864
G1 X55.063 Y143.469 E37.7464
G1 X53.031 Y141.437 E38.4624
G1 X53.031 Y38.563 E64.0931
G1 X55.063 Y36.531 E64.8091
G1 X64.937 Y36.531 E67.2690
G1 X66.968 Y38.562 E67.9848
G1 X66.974 Y57.999 E72.8274
G1 X66.987 Y58.140 E72.8626
G1 X67.006 Y58.239 E72.8878
G1 X67.092 Y58.517 E72.9604
G1 X67.133 Y58.610 E72.9855
G1 X67.201 Y58.733 E73.0207
G1 X67.258 Y58.816 E73.0458
G1 X67.502 Y59.097 E73.1384
G1 X104.432 Y96.026 E86.1504
G1 X104.595 Y96.175 E86.2055
G1 X104.676 Y96.236 E86.2307
G1 X104.892 Y96.363 E86.2933
G1 X105.087 Y96.444 E86.3458
G1 X105.330 Y96.507 E86.4084
G1 X105.430 Y96.521 E86.4335
G1 X105.651 Y96.531 E86.4887
G1 X144.937 Y96.531 E96.2766
G1 X146.969 Y98.563 E96.9925
G92 E0.0000
G1 E-3.2000 F2400
G1 X145.990 Y98.969 F3600
G1 E0.1000 F2400
G92 E0.0000
G1 X145.990 Y123.453 E6.1002 F2160
G1 X144.531 Y124.911 E6.6141
G1 X137.469 Y124.911 E8.3737
G1 X136.010 Y123.453 E8.8875
G1 X136.010 Y114.911 E11.0156
G1 X68.839 Y114.911 E27.7512
G1 X68.393 Y115.410 E27.9180
G1 X68.084 Y115.807 E28.0433
G1 X67.598 Y116.531 E28.2607
G1 X67.170 Y117.266 E28.4725
G1 X66.680 Y118.300 E28.7577
G1 X66.320 Y119.322 E29.0277
G1 X66.089 Y120.318 E29.2823
G1 X66.006 Y121.015 E29.4572
G1 X65.990 Y121.483 E29.5739
G1 X65.990 Y141.031 E34.4442
G1 X64.531 Y142.490 E34.9581
G1 X55.469 Y142.490 E37.2160
G1 X54.010 Y141.031 E37.7298
G1 X54.010 Y38.969 E63.1585
G1 X55.469 Y37.510 E63.6723
G1 X64.531 Y37.510 E65.9302
G1 X65.989 Y38.968 E66.4439
G1 X65.995 Y58.044 E71.1967
G1 X66.016 Y58.275 E71.2545
G1 X66.054 Y58.475 E71.3050
G1 X66.173 Y58.861 E71.4058
G1 X66.255 Y59.047 E71.4563
G1 X66.368 Y59.249 E71.5140
G1 X66.482 Y59.416 E71.5646
G1 X66.786 Y59.765 E71.6797
G1 X103.755 Y96.734 E84.7058
G1 X103.969 Y96.929 E84.7779
G1 X104.131 Y97.052 E84.8284
G1 X104.455 Y97.242 E84.9220
G1 X104.775 Y97.375 E85.0084
G1 X105.139 Y97.469 E85.1020
G1 X105.340 Y97.497 E85.1525
G1 X105.629 Y97.510 E85.2246
G1 X144.531 Y97.510 E94.9171
G1 X145.990 Y98.969 E95.4310
G92 E0.0000
G1 E-3.2000 F2400
; feature outer perimeter
G1 X143.010 Y100.490 F3600
G1 E0.1000 F2400
G92 E0.0000
G1 X143.010 Y121.932 E5.3424 F1728
G1 X138.990 Y121.932 E6.3442
G1 X138.990 Y111.932 E8.8356
G1 X68.476 Y111.932 E26.4040
G1 X68.175 Y111.961 E26.4794
G1 X67.865 Y112.053 E26.5597
G1 X67.583 Y112.184 E26.6374
G1 X67.309 Y112.343 E26.7162
G1 X67.041 Y112.546 E26.8000
G1 X66.561 Y112.989 E26.9626
G1 X66.104 Y113.501 E27.1338
G1 X65.673 Y114.055 E27.3088
G1 X65.266 Y114.640 E27.4862
G1 X65.072 Y114.948 E27.5768
G1 X64.884 Y115.249 E27.6653
G1 X64.532 Y115.875 E27.8442
G1 X64.211 Y116.515 E28.0225
G1 X63.922 Y117.165 E28.1998
G1 X63.670 Y117.823 E28.3755
G1 X63.456 Y118.487 E28.5493
G1 X63.279 Y119.162 E28.7232
G1 X63.149 Y119.811 E28.8879
G1 X63.033 Y120.787 E29.1329
G1 X63.010 Y121.432 E29.2936
G1 X63.010 Y139.510 E33.7978
G1 X56.990 Y139.510 E35.2979
G1 X56.990 Y40.490 E59.9687
G1 X63.011 Y40.490 E61.4688
G1 X63.016 Y58.183 E65.8770
G1 X63.063 Y58.688 E66.0033
G1 X63.156 Y59.186 E66.1296
G1 X63.293 Y59.668 E66.2546
G1 X63.383 Y59.917 E66.3206
G1 X63.583 Y60.371 E66.4441
G1 X63.704 Y60.600 E66.5087
G1 X63.835 Y60.824 E66.5733
G1 X64.119 Y61.237 E66.6982
G1 X64.439 Y61.623 E66.8232
G1 X64.614 Y61.807 E66.8863
G1 X101.697 Y98.890 E79.9525
G1 X102.064 Y99.224 E80.0760
G1 X102.468 Y99.529 E80.2024
G1 X102.895 Y99.793 E80.3273
G1 X103.124 Y99.914 E80.3919
G1 X103.359 Y100.024 E80.4565
G1 X103.821 Y100.203 E80.5800
G1 X104.074 Y100.282 E80.6460
G1 X104.562 Y100.397 E80.7710
G1 X105.064 Y100.467 E80.8973
G1 X105.560 Y100.490 E81.0208
G1 X143.010 Y100.490 E90.3516
; feature inner perimeter
G1 X142.031 Y101.469 F3600
G92 E0.0000
G1 X142.031 Y120.953 E4.8545 F1944
G1 X139.969 Y120.953 E5.3683
G1 X139.969 Y110.953 E7.8598
G1 X68.428 Y110.952 E25.6840
G1 X67.986 Y110.996 E25.7946
G1 X67.519 Y111.134 E25.9160
G1 X67.129 Y111.315 E26.0231
G1 X66.766 Y111.527 E26.1278
G1 X66.412 Y111.793 E26.2382
G1 X65.862 Y112.302 E26.4248
G1 X65.352 Y112.874 E26.6158
G1 X64.884 Y113.475 E26.8056
G1 X64.449 Y114.100 E26.9952
G1 X64.242 Y114.428 E27.0920
G1 X64.042 Y114.750 E27.1865
G1 X63.668 Y115.415 E27.3764
G1 X63.325 Y116.096 E27.5665
G1 X63.017 Y116.791 E27.7559
G1 X62.746 Y117.498 E27.9445
G1 X62.516 Y118.213 E28.1316
G1 X62.324 Y118.942 E28.3194
G1 X62.181 Y119.657 E28.5011
G1 X62.056 Y120.712 E28.7659
G1 X62.031 Y121.415 E28.9410
G1 X62.031 Y138.531 E33.2056
G1 X57.969 Y138.531 E34.2177
G1 X57.969 Y41.469 E58.4006
G1 X62.032 Y41.469 E59.4128
G1 X62.037 Y58.228 E63.5883
G1 X62.092 Y58.823 E63.7372
G1 X62.201 Y59.410 E63.8861
G1 X62.360 Y59.969 E64.0308
G1 X62.473 Y60.282 E64.1137
G1 X62.701 Y60.797 E64.2541
G1 X62.848 Y61.077 E64.3328
G1 X63.008 Y61.349 E64.4115
G1 X63.337 Y61.828 E64.5562
G1 X63.707 Y62.275 E64.7008
G1 X63.914 Y62.491 E64.7753
G1 X101.021 Y99.598 E77.8499
G1 X101.437 Y99.978 E77.9903
G1 X101.914 Y100.338 E78.1392
G1 X102.408 Y100.644 E78.2839
G1 X102.687 Y100.791 E78.3626
G1 X102.973 Y100.925 E78.4413
G1 X103.499 Y101.129 E78.5817
G1 X103.817 Y101.227 E78.6646
G1 X104.382 Y101.360 E78.8093
G1 X104.974 Y101.443 E78.9582
G1 X105.537 Y101.469 E79.0986
G1 X142.031 Y101.469 E88.1910
; feature outer perimeter
G1 X108.690 Y100.490 F3600
G1 X105.560 Y100.490
G1 X105.064 Y100.467
G1 X104.562 Y100.397
G1 X104.425 Y100.364
G1 X92.020 Y100.000
G92 E0.0000
G1 X91.996 Y99.493 E0.1263 F1728
G1 X91.926 Y98.991 E0.2527
G1 X91.811 Y98.503 E0.3777
G1 X91.735 Y98.256 E0.4422
G1 X91.646 Y98.011 E0.5068
G1 X91.444 Y97.553 E0.6317
G1 X91.197 Y97.110 E0.7581
G1 X90.911 Y96.692 E0.8844
G1 X90.590 Y96.306 E1.0094
G1 X90.415 Y96.122 E1.0725
G1 X72.374 Y78.081 E7.4294
G1 X72.011 Y77.751 E7.5515
G1 X71.804 Y77.586 E7.6176
G1 X71.395 Y77.306 E7.7410
G1 X71.166 Y77.172 E7.8071
G1 X70.723 Y76.951 E7.9306
G1 X70.478 Y76.849 E7.9966
G1 X70.008 Y76.692 E8.1201
G1 X69.751 Y76.625 E8.1861
G1 X69.264 Y76.534 E8.3096
G1 X69.001 Y76.504 E8.3757
G1 X68.506 Y76.481 E8.4991
G1 X68.241 Y76.487 E8.5652
G1 X67.747 Y76.533 E8.6887
G1 X67.486 Y76.575 E8.7547
G1 X67.003 Y76.689 E8.8782
G1 X66.750 Y76.767 E8.9442
G1 X66.288 Y76.946 E9.0678
G1 X66.053 Y77.056 E9.1323
G1 X65.824 Y77.177 E9.1969
G1 X65.397 Y77.441 E9.3219
G1 X64.997 Y77.743 E9.4468
G1 X64.802 Y77.914 E9.5114
G1 X64.614 Y78.093 E9.5760
G1 X64.276 Y78.463 E9.7009
G1 X63.974 Y78.863 E9.8258
G1 X63.832 Y79.081 E9.8905
G1 X63.701 Y79.304 E9.9550
G1 X63.480 Y79.748 E10.0786
G1 X63.379 Y79.993 E10.1446
G1 X63.221 Y80.463 E10.2681
G1 X63.155 Y80.719 E10.3341
G1 X63.062 Y81.212 E10.4591
G1 X63.016 Y81.720 E10.5862
G1 X63.010 Y100.011 E15.1434
G1 X63.033 Y100.501 E15.2654
G1 X63.064 Y100.764 E15.3315
G1 X63.156 Y101.257 E15.4564
G1 X63.294 Y101.745 E15.5827
G1 X63.478 Y102.218 E15.7091
G1 X63.704 Y102.671 E15.8354
G1 X63.968 Y103.098 E15.9604
G1 X64.122 Y103.313 E16.0264
G1 X64.443 Y103.699 E16.1513
G1 X64.801 Y104.057 E16.2776
G1 X65.187 Y104.378 E16.4026
G1 X65.402 Y104.532 E16.4686
G1 X65.828 Y104.796 E16.5935
G1 X66.277 Y105.020 E16.7185
G1 X66.522 Y105.121 E16.7844
G1 X66.998 Y105.281 E16.9094
G1 X67.486 Y105.395 E17.0343
G1 X67.747 Y105.438 E17.1003
G1 X68.246 Y105.484 E17.2253
G1 X86.783 Y105.484 E21.8436
G1 X87.282 Y105.438 E21.9685
G1 X87.544 Y105.395 E22.0345
G1 X88.032 Y105.281 E22.1594
G1 X88.507 Y105.121 E22.2844
G1 X88.752 Y105.020 E22.3504
G1 X89.201 Y104.796 E22.4753
G1 X89.627 Y104.532 E22.6002
G1 X89.842 Y104.378 E22.6663
G1 X90.228 Y104.057 E22.7912
G1 X90.587 Y103.699 E22.9176
G1 X90.911 Y103.308 E23.0439
G1 X91.197 Y102.890 E23.1702
G1 X91.444 Y102.447 E23.2966
G1 X91.647 Y101.988 E23.4215
G1 X91.735 Y101.744 E23.4862
G1 X91.811 Y101.497 E23.5507
G1 X91.926 Y101.009 E23.6757
G1 X91.996 Y100.507 E23.8020
G1 X92.020 Y100.000 E23.9283
; feature inner perimeter
G1 X93.000 Y100.000 F3600
G92 E0.0000
G1 X92.972 Y99.403 E0.1489 F1944
G1 X92.890 Y98.811 E0.2978
G1 X92.757 Y98.246 E0.4425
G1 X92.663 Y97.944 E0.5211
G1 X92.556 Y97.647 E0.5999
G1 X92.321 Y97.116 E0.7445
G1 X92.031 Y96.594 E0.8934
G1 X91.693 Y96.101 E1.0423
G1 X91.322 Y95.654 E1.1870
G1 X91.116 Y95.438 E1.2614
G1 X73.050 Y77.372 E7.6268
G1 X72.646 Y77.004 E7.7630
G1 X72.385 Y76.797 E7.8459
G1 X71.920 Y76.479 E7.9863
G1 X71.633 Y76.310 E8.0693
G1 X71.129 Y76.059 E8.2097
G1 X70.821 Y75.932 E8.2926
G1 X70.287 Y75.753 E8.4330
G1 X69.965 Y75.669 E8.5160
G1 X69.411 Y75.565 E8.6564
G1 X69.080 Y75.527 E8.7393
G1 X68.517 Y75.501 E8.8797
G1 X68.184 Y75.509 E8.9627
G1 X67.623 Y75.561 E9.1031
G1 X67.295 Y75.614 E9.1860
G1 X66.746 Y75.743 E9.3264
G1 X66.428 Y75.842 E9.4094
G1 X65.902 Y76.045 E9.5498
G1 X65.616 Y76.180 E9.6285
G1 X65.337 Y76.327 E9.7072
G1 X64.843 Y76.632 E9.8518
G1 X64.380 Y76.982 E9.9965
G1 X64.142 Y77.190 E10.0752
G1 X63.913 Y77.408 E10.1539
G1 X63.522 Y77.837 E10.2986
G1 X63.172 Y78.300 E10.4432
G1 X63.000 Y78.565 E10.5219
G1 X62.840 Y78.837 E10.6006
G1 X62.589 Y79.342 E10.7410
G1 X62.461 Y79.649 E10.8240
G1 X62.282 Y80.184 E10.9644
G1 X62.198 Y80.506 E11.0473
G1 X62.092 Y81.077 E11.1921
G1 X62.036 Y81.675 E11.3418
G1 X62.031 Y100.034 E15.9158
G1 X62.056 Y100.580 E16.0520
G1 X62.095 Y100.911 E16.1349
G1 X62.202 Y101.481 E16.2796
G1 X62.365 Y102.056 E16.4285
G1 X62.581 Y102.614 E16.5774
G1 X62.847 Y103.148 E16.7263
G1 X63.153 Y103.642 E16.8709
G1 X63.347 Y103.912 E16.9539
G1 X63.718 Y104.359 E17.0985
G1 X64.141 Y104.782 E17.2474
G1 X64.588 Y105.153 E17.3921
G1 X64.858 Y105.347 E17.4750
G1 X65.352 Y105.653 E17.6197
G1 X65.871 Y105.911 E17.7644
G1 X66.179 Y106.039 E17.8473
G1 X66.729 Y106.223 E17.9920
