; G-Code generated by Simplify3D(R) Version 4.0.0
; Feb 25, 2018 at 5:36:44 PM
; Settings Summary
;   processName,Basic 
;   applyToModels,Focuser reduced
;   profileName,BortBot (modified)
;   profileVersion,2017-10-07 14:50:40
;   baseProfile,Default
;   printMaterial,PLA
;   printQuality,Medium
;   printExtruders,
;   extruderName,Extruder 1
;   extruderToolheadNumber,0
;   extruderDiameter,0.4
;   extruderAutoWidth,1
;   extruderWidth,0.48
;   extrusionMultiplier,1.06
;   extruderUseRetract,1
;   extruderRetractionDistance,2.6
;   extruderExtraRestartDistance,1
;   extruderRetractionZLift,0
;   extruderRetractionSpeed,6000
;   extruderUseCoasting,0
;   extruderCoastingDistance,0.2
;   extruderUseWipe,0
;   extruderWipeDistance,5
;   primaryExtruder,0
;   layerHeight,0.25
;   topSolidLayers,3
;   bottomSolidLayers,3
;   perimeterOutlines,2
;   printPerimetersInsideOut,0
;   startPointOption,2
;   startPointOriginX,0
;   startPointOriginY,0
;   sequentialIslands,0
;   spiralVaseMode,0
;   firstLayerHeightPercentage,100
;   firstLayerWidthPercentage,100
;   firstLayerUnderspeed,0.5
;   useRaft,0
;   raftExtruder,0
;   raftTopLayers,2
;   raftBaseLayers,2
;   raftOffset,3
;   raftSeparationDistance,0.3
;   raftTopInfill,90
;   aboveRaftSpeedMultiplier,0.3
;   useSkirt,1
;   skirtExtruder,0
;   skirtLayers,1
;   skirtOutlines,3
;   skirtOffset,8
;   usePrimePillar,0
;   primePillarExtruder,999
;   primePillarWidth,12
;   primePillarLocation,7
;   primePillarSpeedMultiplier,1
;   useOozeShield,0
;   oozeShieldExtruder,999
;   oozeShieldOffset,2
;   oozeShieldOutlines,1
;   oozeShieldSidewallShape,1
;   oozeShieldSidewallAngle,30
;   oozeShieldSpeedMultiplier,1
;   infillExtruder,0
;   internalInfillPattern,Triangular
;   externalInfillPattern,Rectilinear
;   infillPercentage,50
;   outlineOverlapPercentage,35
;   infillExtrusionWidthPercentage,100
;   minInfillLength,5
;   infillLayerInterval,1
;   internalInfillAngles,0,60,-60
;   overlapInternalInfillAngles,1
;   externalInfillAngles,45,-45
;   generateSupport,1
;   supportExtruder,0
;   supportInfillPercentage,30
;   supportExtraInflation,0
;   supportBaseLayers,0
;   denseSupportExtruder,0
;   denseSupportLayers,0
;   denseSupportInfillPercentage,70
;   supportLayerInterval,1
;   supportHorizontalPartOffset,0.3
;   supportUpperSeparationLayers,1
;   supportLowerSeparationLayers,1
;   supportType,0
;   supportGridSpacing,4
;   maxOverhangAngle,45
;   supportAngles,0
;   temperatureName,Extruder 1
;   temperatureNumber,0
;   temperatureSetpointCount,1
;   temperatureSetpointLayers,1
;   temperatureSetpointTemperatures,200
;   temperatureStabilizeAtStartup,1
;   temperatureHeatedBed,0
;   temperatureRelayBetweenLayers,1
;   temperatureRelayBetweenLoops,1
;   fanLayers,1,3
;   fanSpeeds,0,60
;   blipFanToFullPower,1
;   adjustSpeedForCooling,1
;   minSpeedLayerTime,15
;   minCoolingSpeedSlowdown,20
;   increaseFanForCooling,0
;   minFanLayerTime,45
;   maxCoolingFanSpeed,100
;   increaseFanForBridging,0
;   bridgingFanSpeed,100
;   use5D,1
;   relativeEdistances,0
;   allowEaxisZeroing,1
;   independentExtruderAxes,0
;   includeM10123,0
;   stickySupport,1
;   applyToolheadOffsets,0
;   gcodeXoffset,0
;   gcodeYoffset,0
;   gcodeZoffset,0
;   overrideMachineDefinition,0
;   machineTypeOverride,0
;   strokeXoverride,100
;   strokeYoverride,100
;   strokeZoverride,100
;   originOffsetXoverride,0
;   originOffsetYoverride,0
;   originOffsetZoverride,0
;   homeXdirOverride,-1
;   homeYdirOverride,-1
;   homeZdirOverride,-1
;   flipXoverride,1
;   flipYoverride,-1
;   flipZoverride,1
;   toolheadOffsets,0,0|0,0|0,0|0,0|0,0|0,0
;   overrideFirmwareConfiguration,0
;   firmwareTypeOverride,RepRap (Marlin/Repetier/Sprinter)
;   GPXconfigOverride,r2
;   baudRateOverride,115200
;   overridePrinterModels,0
;   printerModelsOverride
;   startingGcode,;G28  ; Home all,;M208S7; DISABLE THE PROBE,;G1 Z5; probe z clearance,;G1 X0 Y0; ,;M280S3; Enable the probe,;G32; probe the grid,;M374; save the grid,;G1 Z20 ; Set Z20 for ooze
;   layerChangeGcode,
;   retractionGcode,
;   toolChangeGcode,
;   endingGcode,M104 S0 ; turn off extruder,M140 S0 ; turn off bed,G91 G1 Z10 ; Clearance from part,G90 G1 X0 Y0 Z118 ; Go to starting position (X0 Y0 Z 122),M84 ; disable motor
;   exportFileFormat,gcode
;   celebration,0
;   celebrationSong,Random Song
;   postProcessing,
;   defaultSpeed,3300
;   outlineUnderspeed,0.7
;   solidInfillUnderspeed,0.8
;   supportUnderspeed,0.8
;   rapidXYspeed,3600
;   rapidZspeed,1002
;   minBridgingArea,50
;   bridgingExtraInflation,0
;   bridgingExtrusionMultiplier,1
;   bridgingSpeedMultiplier,1
;   useFixedBridgingAngle,0
;   fixedBridgingAngle,0
;   applyBridgingToPerimeters,0
;   filamentDiameters,1.75|1.75|1.75|1.75|1.75|1.75
;   filamentPricesPerKg,46|46|46|46|46|46
;   filamentDensities,1.27|1.25|1.25|1.25|1.25|1.25
;   useMinPrintHeight,0
;   minPrintHeight,0
;   useMaxPrintHeight,0
;   maxPrintHeight,0
;   useDiaphragm,0
;   diaphragmLayerInterval,20
;   robustSlicing,1
;   mergeAllIntoSolid,0
;   onlyRetractWhenCrossingOutline,1
;   retractBetweenLayers,1
;   useRetractionMinTravel,0
;   retractionMinTravel,3
;   retractWhileWiping,0
;   onlyWipeOutlines,1
;   avoidCrossingOutline,0
;   maxMovementDetourFactor,3
;   toolChangeRetractionDistance,12
;   toolChangeExtraRestartDistance,-0.5
;   toolChangeRetractionSpeed,600
;   externalThinWallType,0
;   internalThinWallType,2
;   thinWallAllowedOverlapPercentage,10
;   singleExtrusionMinLength,1
;   singleExtrusionMinPrintingWidthPercentage,50
;   singleExtrusionMaxPrintingWidthPercentage,200
;   singleExtrusionEndpointExtension,0.2
;   horizontalSizeCompensation,0
G90
M82
M106 S255
G4 P500
M106 S0
M104 S200 T0
M109 S200 T0
;G28  ; Home all
;M208S7; DISABLE THE PROBE
;G1 Z5; probe z clearance
;G1 X0 Y0; 
;M280S3; Enable the probe
;G32; probe the grid
;M374; save the grid
;G1 Z20 ; Set Z20 for ooze
G92 E0
G1 E-2.6000 F6000
G1 Z0.250 F1002
; process Basic 
; layer 1, Z = 0.250
M105
T0
; tool H0.250 W0.480
; skirt
G1 X48.309 Y48.175 F3600
G1 E1.0000 F1800
G92 E0
G1 X51.357 Y44.969 E0.2340 F1650
G1 X51.379 Y44.947 E0.2356
G1 X51.695 Y44.647 E0.2586
G1 X51.717 Y44.626 E0.2602
G1 X55.074 Y41.745 E0.4942
G1 X55.098 Y41.726 E0.4958
G1 X55.442 Y41.459 E0.5188
G1 X55.467 Y41.441 E0.5204
G1 X59.098 Y38.914 E0.7544
G1 X59.123 Y38.897 E0.7560
G1 X59.493 Y38.666 E0.7791
G1 X59.519 Y38.651 E0.7807
G1 X63.387 Y36.504 E1.0146
G1 X63.414 Y36.490 E1.0162
G1 X63.806 Y36.298 E1.0393
G1 X63.833 Y36.285 E1.0409
G1 X67.899 Y34.541 E1.2748
G1 X67.927 Y34.529 E1.2765
G1 X68.336 Y34.378 E1.2995
G1 X68.364 Y34.368 E1.3011
G1 X72.586 Y33.044 E1.5351
G1 X72.615 Y33.035 E1.5367
G1 X73.037 Y32.926 E1.5597
G1 X73.066 Y32.919 E1.5613
G1 X77.400 Y32.029 E1.7953
G1 X77.430 Y32.023 E1.7969
G1 X77.861 Y31.957 E1.8199
G1 X77.891 Y31.954 E1.8216
G1 X82.292 Y31.506 E2.0555
G1 X82.322 Y31.504 E2.0571
G1 X82.758 Y31.482 E2.0802
G1 X82.788 Y31.481 E2.0818
G1 X87.212 Y31.481 E2.3157
G1 X87.242 Y31.482 E2.3173
G1 X87.678 Y31.504 E2.3404
G1 X87.708 Y31.506 E2.3420
G1 X92.109 Y31.954 E2.5760
G1 X92.139 Y31.957 E2.5776
G1 X92.570 Y32.023 E2.6006
G1 X92.600 Y32.029 E2.6022
G1 X96.934 Y32.919 E2.8362
G1 X96.963 Y32.926 E2.8378
G1 X97.385 Y33.035 E2.8608
G1 X97.414 Y33.044 E2.8624
G1 X101.636 Y34.368 E3.0964
G1 X101.664 Y34.378 E3.0980
G1 X102.073 Y34.529 E3.1211
G1 X102.101 Y34.541 E3.1227
G1 X106.167 Y36.285 E3.3566
G1 X106.194 Y36.298 E3.3582
G1 X106.586 Y36.490 E3.3813
G1 X106.613 Y36.504 E3.3829
G1 X110.481 Y38.651 E3.6168
G1 X110.507 Y38.666 E3.6184
G1 X110.877 Y38.897 E3.6415
G1 X110.902 Y38.914 E3.6431
G1 X114.533 Y41.441 E3.8771
G1 X114.558 Y41.459 E3.8787
G1 X114.902 Y41.726 E3.9017
G1 X114.926 Y41.745 E3.9033
G1 X118.283 Y44.626 E4.1373
G1 X118.305 Y44.647 E4.1389
G1 X118.621 Y44.947 E4.1619
G1 X118.643 Y44.969 E4.1635
G1 X121.691 Y48.175 E4.3975
G1 X121.711 Y48.198 E4.3991
G1 X121.995 Y48.529 E4.4222
G1 X122.014 Y48.552 E4.4238
G1 X124.722 Y52.050 E4.6577
G1 X124.740 Y52.075 E4.6593
G1 X124.989 Y52.433 E4.6824
G1 X125.006 Y52.458 E4.6840
G1 X127.346 Y56.212 E4.9179
G1 X127.361 Y56.239 E4.9196
G1 X127.573 Y56.620 E4.9426
G1 X127.587 Y56.647 E4.9442
G1 X129.535 Y60.618 E5.1782
G1 X129.548 Y60.646 E5.1798
G1 X129.720 Y61.047 E5.2028
G1 X129.731 Y61.075 E5.2044
G1 X131.267 Y65.223 E5.4384
G1 X131.277 Y65.252 E5.4400
G1 X131.408 Y65.668 E5.4630
G1 X131.416 Y65.697 E5.4647
G1 X132.525 Y69.980 E5.6986
G1 X132.532 Y70.010 E5.7002
G1 X132.620 Y70.437 E5.7233
G1 X132.625 Y70.467 E5.7249
G1 X133.295 Y74.840 E5.9588
G1 X133.299 Y74.870 E5.9604
G1 X133.343 Y75.303 E5.9835
G1 X133.345 Y75.334 E5.9851
G1 X133.569 Y79.752 E6.2190
G1 X133.570 Y79.782 E6.2207
G1 X133.570 Y80.218 E6.2437
G1 X133.569 Y80.249 E6.2453
G1 X133.345 Y84.667 E6.4793
G1 X133.343 Y84.697 E6.4809
G1 X133.299 Y85.131 E6.5039
G1 X133.295 Y85.161 E6.5055
G1 X132.625 Y89.534 E6.7395
G1 X132.620 Y89.564 E6.7411
G1 X132.532 Y89.991 E6.7641
G1 X132.525 Y90.020 E6.7657
G1 X131.416 Y94.303 E6.9997
G1 X131.408 Y94.332 E7.0013
G1 X131.277 Y94.748 E7.0244
G1 X131.268 Y94.777 E7.0260
G1 X129.731 Y98.926 E7.2599
G1 X129.720 Y98.954 E7.2616
G1 X129.548 Y99.355 E7.2846
G1 X129.535 Y99.383 E7.2862
G1 X127.587 Y103.354 E7.5202
G1 X127.573 Y103.381 E7.5218
G1 X127.361 Y103.761 E7.5448
G1 X127.346 Y103.788 E7.5464
G1 X125.006 Y107.542 E7.7804
G1 X124.989 Y107.568 E7.7820
G1 X124.740 Y107.925 E7.8050
G1 X124.722 Y107.950 E7.8066
G1 X122.014 Y111.449 E8.0406
G1 X121.995 Y111.472 E8.0422
G1 X121.711 Y111.804 E8.0653
G1 X121.690 Y111.826 E8.0669
G1 X118.642 Y115.032 E8.3008
G1 X118.621 Y115.054 E8.3024
G1 X118.305 Y115.353 E8.3255
G1 X118.283 Y115.374 E8.3271
G1 X114.926 Y118.256 E8.5610
G1 X114.902 Y118.275 E8.5626
G1 X114.557 Y118.542 E8.5857
G1 X114.533 Y118.560 E8.5873
G1 X110.902 Y121.087 E8.8213
G1 X110.877 Y121.104 E8.8229
G1 X110.507 Y121.334 E8.8459
G1 X110.481 Y121.349 E8.8475
G1 X106.613 Y123.497 E9.0815
G1 X106.586 Y123.511 E9.0831
G1 X106.194 Y123.703 E9.1062
G1 X106.166 Y123.716 E9.1078
G1 X102.100 Y125.460 E9.3418
G1 X102.072 Y125.471 E9.3434
G1 X101.664 Y125.622 E9.3664
G1 X101.635 Y125.632 E9.3680
G1 X97.415 Y126.957 E9.6019
G1 X97.385 Y126.965 E9.6035
G1 X96.964 Y127.074 E9.6266
G1 X96.934 Y127.081 E9.6282
G1 X92.600 Y127.972 E9.8621
G1 X92.570 Y127.977 E9.8638
G1 X92.139 Y128.043 E9.8868
G1 X92.108 Y128.047 E9.8885
G1 X87.707 Y128.494 E10.1224
G1 X87.677 Y128.496 E10.1240
G1 X87.242 Y128.518 E10.1470
G1 X87.212 Y128.519 E10.1486
G1 X82.788 Y128.519 E10.3826
G1 X82.758 Y128.518 E10.3842
G1 X82.323 Y128.496 E10.4072
G1 X82.293 Y128.494 E10.4088
G1 X77.892 Y128.047 E10.6428
G1 X77.861 Y128.043 E10.6444
G1 X77.430 Y127.977 E10.6675
G1 X77.400 Y127.972 E10.6691
G1 X73.066 Y127.081 E10.9030
G1 X73.036 Y127.074 E10.9047
G1 X72.615 Y126.965 E10.9277
G1 X72.585 Y126.957 E10.9293
G1 X68.365 Y125.632 E11.1632
G1 X68.336 Y125.622 E11.1648
G1 X67.928 Y125.471 E11.1879
G1 X67.900 Y125.460 E11.1895
G1 X63.834 Y123.716 E11.4234
G1 X63.806 Y123.703 E11.4250
G1 X63.414 Y123.511 E11.4481
G1 X63.387 Y123.497 E11.4498
G1 X59.519 Y121.349 E11.6837
G1 X59.493 Y121.334 E11.6853
G1 X59.123 Y121.104 E11.7083
G1 X59.098 Y121.087 E11.7099
G1 X55.467 Y118.560 E11.9439
G1 X55.443 Y118.542 E11.9455
G1 X55.098 Y118.275 E11.9686
G1 X55.074 Y118.256 E11.9702
G1 X51.717 Y115.374 E12.2041
G1 X51.695 Y115.353 E12.2057
G1 X51.379 Y115.054 E12.2288
G1 X51.358 Y115.032 E12.2304
G1 X48.310 Y111.826 E12.4643
G1 X48.289 Y111.804 E12.4659
G1 X48.005 Y111.472 E12.4890
G1 X47.986 Y111.449 E12.4906
G1 X45.278 Y107.950 E12.7246
G1 X45.260 Y107.925 E12.7262
G1 X45.011 Y107.568 E12.7493
G1 X44.994 Y107.542 E12.7509
G1 X42.654 Y103.788 E12.9848
G1 X42.639 Y103.761 E12.9864
G1 X42.427 Y103.381 E13.0095
G1 X42.413 Y103.354 E13.0111
G1 X40.465 Y99.383 E13.2450
G1 X40.452 Y99.355 E13.2466
G1 X40.280 Y98.954 E13.2697
G1 X40.269 Y98.926 E13.2713
G1 X38.732 Y94.777 E13.5052
G1 X38.723 Y94.748 E13.5068
G1 X38.592 Y94.332 E13.5299
G1 X38.584 Y94.303 E13.5315
G1 X37.475 Y90.020 E13.7655
G1 X37.468 Y89.991 E13.7671
G1 X37.380 Y89.564 E13.7901
G1 X37.375 Y89.534 E13.7917
G1 X36.705 Y85.161 E14.0257
G1 X36.701 Y85.131 E14.0273
G1 X36.657 Y84.697 E14.0503
G1 X36.655 Y84.667 E14.0519
G1 X36.431 Y80.249 E14.2859
G1 X36.430 Y80.218 E14.2875
G1 X36.430 Y79.782 E14.3106
G1 X36.431 Y79.752 E14.3122
G1 X36.655 Y75.334 E14.5461
G1 X36.657 Y75.303 E14.5477
G1 X36.701 Y74.870 E14.5708
G1 X36.705 Y74.840 E14.5724
G1 X37.375 Y70.467 E14.8063
G1 X37.380 Y70.437 E14.8079
G1 X37.468 Y70.010 E14.8310
G1 X37.475 Y69.980 E14.8326
G1 X38.584 Y65.697 E15.0666
G1 X38.592 Y65.668 E15.0682
G1 X38.723 Y65.252 E15.0912
G1 X38.733 Y65.223 E15.0928
G1 X40.269 Y61.075 E15.3268
G1 X40.280 Y61.047 E15.3284
G1 X40.452 Y60.646 E15.3514
G1 X40.465 Y60.618 E15.3531
G1 X42.413 Y56.647 E15.5870
G1 X42.427 Y56.620 E15.5886
G1 X42.639 Y56.239 E15.6117
G1 X42.654 Y56.212 E15.6133
G1 X44.994 Y52.458 E15.8472
G1 X45.011 Y52.433 E15.8488
G1 X45.260 Y52.075 E15.8719
G1 X45.278 Y52.050 E15.8735
G1 X47.986 Y48.552 E16.1074
G1 X48.005 Y48.529 E16.1091
G1 X48.289 Y48.198 E16.1321
G1 X48.309 Y48.175 E16.1337
G1 X48.661 Y48.502 F3600
G92 E0
G1 X51.701 Y45.304 E0.2333 F1650
G1 X51.714 Y45.291 E0.2343
G1 X52.021 Y44.999 E0.2567
G1 X52.035 Y44.987 E0.2577
G1 X55.382 Y42.113 E0.4910
G1 X55.396 Y42.102 E0.4919
G1 X55.731 Y41.842 E0.5143
G1 X55.746 Y41.831 E0.5153
G1 X59.367 Y39.311 E0.7486
G1 X59.382 Y39.301 E0.7496
G1 X59.742 Y39.077 E0.7720
G1 X59.758 Y39.068 E0.7730
G1 X63.615 Y36.927 E1.0063
G1 X63.631 Y36.918 E1.0072
G1 X64.012 Y36.732 E1.0296
G1 X64.028 Y36.724 E1.0306
G1 X68.082 Y34.984 E1.2639
G1 X68.099 Y34.977 E1.2649
G1 X68.497 Y34.830 E1.2873
G1 X68.514 Y34.824 E1.2882
G1 X72.723 Y33.504 E1.5216
G1 X72.741 Y33.499 E1.5225
G1 X73.151 Y33.392 E1.5449
G1 X73.169 Y33.388 E1.5459
G1 X77.490 Y32.500 E1.7792
G1 X77.508 Y32.497 E1.7802
G1 X77.927 Y32.433 E1.8026
G1 X77.945 Y32.430 E1.8035
G1 X82.334 Y31.984 E2.0369
G1 X82.353 Y31.983 E2.0378
G1 X82.776 Y31.961 E2.0602
G1 X82.794 Y31.961 E2.0612
G1 X87.206 Y31.961 E2.2945
G1 X87.224 Y31.961 E2.2955
G1 X87.647 Y31.983 E2.3179
G1 X87.666 Y31.984 E2.3188
G1 X92.055 Y32.430 E2.5522
G1 X92.073 Y32.433 E2.5531
G1 X92.492 Y32.497 E2.5755
G1 X92.510 Y32.500 E2.5765
G1 X96.831 Y33.388 E2.8098
G1 X96.849 Y33.392 E2.8108
G1 X97.259 Y33.499 E2.8332
G1 X97.277 Y33.504 E2.8341
G1 X101.486 Y34.824 E3.0675
G1 X101.503 Y34.830 E3.0684
G1 X101.901 Y34.977 E3.0908
G1 X101.918 Y34.984 E3.0918
G1 X105.972 Y36.724 E3.3251
G1 X105.988 Y36.732 E3.3261
G1 X106.369 Y36.918 E3.3485
G1 X106.385 Y36.927 E3.3494
G1 X110.242 Y39.068 E3.5827
G1 X110.258 Y39.077 E3.5837
G1 X110.618 Y39.301 E3.6061
G1 X110.633 Y39.311 E3.6071
G1 X114.254 Y41.831 E3.8404
G1 X114.269 Y41.842 E3.8414
G1 X114.604 Y42.102 E3.8638
G1 X114.618 Y42.113 E3.8647
G1 X117.965 Y44.987 E4.0980
G1 X117.979 Y44.999 E4.0990
G1 X118.286 Y45.291 E4.1214
G1 X118.299 Y45.304 E4.1224
G1 X121.338 Y48.502 E4.3557
G1 X121.351 Y48.515 E4.3567
G1 X121.627 Y48.837 E4.3791
G1 X121.638 Y48.851 E4.3800
G1 X124.339 Y52.339 E4.6133
G1 X124.349 Y52.354 E4.6143
G1 X124.592 Y52.702 E4.6367
G1 X124.602 Y52.717 E4.6377
G1 X126.935 Y56.461 E4.8710
G1 X126.945 Y56.477 E4.8720
G1 X127.150 Y56.847 E4.8944
G1 X127.159 Y56.864 E4.8953
G1 X129.101 Y60.824 E5.1286
G1 X129.109 Y60.841 E5.1296
G1 X129.276 Y61.230 E5.1520
G1 X129.283 Y61.247 E5.1530
G1 X130.815 Y65.384 E5.3863
G1 X130.821 Y65.402 E5.3872
G1 X130.948 Y65.806 E5.4097
G1 X130.953 Y65.824 E5.4106
G1 X132.059 Y70.095 E5.6439
G1 X132.063 Y70.112 E5.6449
G1 X132.148 Y70.527 E5.6673
G1 X132.151 Y70.545 E5.6683
G1 X132.820 Y74.906 E5.9016
G1 X132.822 Y74.924 E5.9025
G1 X132.865 Y75.346 E5.9250
G1 X132.866 Y75.364 E5.9259
G1 X133.090 Y79.770 E6.1592
G1 X133.090 Y79.788 E6.1602
G1 X133.090 Y80.212 E6.1826
G1 X133.090 Y80.230 E6.1836
G1 X132.866 Y84.637 E6.4169
G1 X132.865 Y84.655 E6.4178
G1 X132.822 Y85.076 E6.4403
G1 X132.820 Y85.094 E6.4412
G1 X132.151 Y89.455 E6.6745
G1 X132.148 Y89.473 E6.6755
G1 X132.063 Y89.888 E6.6979
G1 X132.059 Y89.906 E6.6989
