; G-Code generated by Simplify3D(R) Version 4.0.1
; Sep 9, 2018 at 5:49:32 PM
; Settings Summary
;   processName,Process1
;   applyToModels,Focuser,eyepiece spacer,calicat,calicat(2)
;   profileName,BortBot (modified)
;   profileVersion,2018-03-11 18:52:45
;   baseProfile,Default
;   printMaterial,PLA
;   printQuality,Medium
;   printExtruders,
;   extruderName,Extruder 1
;   extruderToolheadNumber,0
;   extruderDiameter,0.5
;   extruderAutoWidth,1
;   extruderWidth,0.6
;   extrusionMultiplier,1.02
;   extruderUseRetract,1
;   extruderRetractionDistance,1.2
;   extruderExtraRestartDistance,0
;   extruderRetractionZLift,0
;   extruderRetractionSpeed,6000
;   extruderUseCoasting,1
;   extruderCoastingDistance,1.4
;   extruderUseWipe,0
;   extruderWipeDistance,4.4
;   primaryExtruder,0
;   layerHeight,0.4
;   topSolidLayers,3
;   bottomSolidLayers,2
;   perimeterOutlines,3
;   printPerimetersInsideOut,0
;   startPointOption,2
;   startPointOriginX,0
;   startPointOriginY,0
;   sequentialIslands,0
;   spiralVaseMode,0
;   firstLayerHeightPercentage,125
;   firstLayerWidthPercentage,100
;   firstLayerUnderspeed,0.75
;   useRaft,0
;   raftExtruder,0
;   raftTopLayers,2
;   raftBaseLayers,2
;   raftOffset,3
;   raftSeparationDistance,0.3
;   raftTopInfill,90
;   aboveRaftSpeedMultiplier,0.3
;   useSkirt,1
;   skirtExtruder,0
;   skirtLayers,1
;   skirtOutlines,2
;   skirtOffset,3
;   usePrimePillar,0
;   primePillarExtruder,999
;   primePillarWidth,12
;   primePillarLocation,7
;   primePillarSpeedMultiplier,1
;   useOozeShield,0
;   oozeShieldExtruder,999
;   oozeShieldOffset,2
;   oozeShieldOutlines,1
;   oozeShieldSidewallShape,1
;   oozeShieldSidewallAngle,30
;   oozeShieldSpeedMultiplier,1
;   infillExtruder,0
;   internalInfillPattern,Rectilinear
;   externalInfillPattern,Rectilinear
;   infillPercentage,30
;   outlineOverlapPercentage,35
;   infillExtrusionWidthPercentage,100
;   minInfillLength,5
;   infillLayerInterval,1
;   internalInfillAngles,45,-45
;   overlapInternalInfillAngles,0
;   externalInfillAngles,45,-45
;   generateSupport,0
;   supportExtruder,0
;   supportInfillPercentage,30
;   supportExtraInflation,0
;   supportBaseLayers,1
;   denseSupportExtruder,0
;   denseSupportLayers,4
;   denseSupportInfillPercentage,90
;   supportLayerInterval,1
;   supportHorizontalPartOffset,0.4
;   supportUpperSeparationLayers,1
;   supportLowerSeparationLayers,2
;   supportType,0
;   supportGridSpacing,1
;   maxOverhangAngle,46
;   supportAngles,30
;   temperatureName,Extruder 1,Heated Bed
;   temperatureNumber,0,1
;   temperatureSetpointCount,1,1
;   temperatureSetpointLayers,1,1
;   temperatureSetpointTemperatures,240,60
;   temperatureStabilizeAtStartup,1,1
;   temperatureHeatedBed,0,1
;   temperatureRelayBetweenLayers,1,0
;   temperatureRelayBetweenLoops,1,0
;   fanLayers,1,3
;   fanSpeeds,0,40
;   blipFanToFullPower,0
;   adjustSpeedForCooling,1
;   minSpeedLayerTime,15
;   minCoolingSpeedSlowdown,20
;   increaseFanForCooling,1
;   minFanLayerTime,45
;   maxCoolingFanSpeed,100
;   increaseFanForBridging,1
;   bridgingFanSpeed,100
;   use5D,1
;   relativeEdistances,0
;   allowEaxisZeroing,1
;   independentExtruderAxes,0
;   includeM10123,0
;   stickySupport,1
;   applyToolheadOffsets,0
;   gcodeXoffset,0
;   gcodeYoffset,0
;   gcodeZoffset,0
;   overrideMachineDefinition,0
;   machineTypeOverride,0
;   strokeXoverride,100
;   strokeYoverride,100
;   strokeZoverride,100
;   originOffsetXoverride,0
;   originOffsetYoverride,0
;   originOffsetZoverride,0
;   homeXdirOverride,-1
;   homeYdirOverride,-1
;   homeZdirOverride,-1
;   flipXoverride,1
;   flipYoverride,-1
;   flipZoverride,1
;   toolheadOffsets,0,0|0,0|0,0|0,0|0,0|0,0
;   overrideFirmwareConfiguration,0
;   firmwareTypeOverride,RepRap (Marlin/Repetier/Sprinter)
;   GPXconfigOverride,r2
;   baudRateOverride,115200
;   overridePrinterModels,0
;   printerModelsOverride
;   startingGcode,G28  ; Home all,;M208S7; DISABLE THE PROBE,;G1 Z5; probe z clearance,;G1 X0 Y0; ,;M280S3; Enable the probe,;G32; probe the grid,;M374; save the grid,;G1 Z20 ; Set Z20 for ooze
;   layerChangeGcode,
;   retractionGcode,
;   toolChangeGcode,
;   endingGcode,G10 S1; retract filament to relieve pressure,M104 S0 ; turn off extruder,M140 S0 ; turn off bed,G91 G1 Z10 ; Clearance from part,G90 G1 X0 Y0 Z170 ; Go to starting position (X0 Y0 Z 170),;M84 ; disable motor,M107; Turn off fan
;   exportFileFormat,gcode
;   celebration,0
;   celebrationSong,Random Song
;   postProcessing,
;   defaultSpeed,2400
;   outlineUnderspeed,0.8
;   solidInfillUnderspeed,1
;   supportUnderspeed,1
;   rapidXYspeed,9000
;   rapidZspeed,1800
;   minBridgingArea,10
;   bridgingExtraInflation,5
;   bridgingExtrusionMultiplier,0.9
;   bridgingSpeedMultiplier,0.6
;   useFixedBridgingAngle,0
;   fixedBridgingAngle,0
;   applyBridgingToPerimeters,1
;   filamentDiameters,1.75|1.75|1.75|1.75|1.75|1.75
;   filamentPricesPerKg,12|46|46|46|46|46
;   filamentDensities,1.33|1.25|1.25|1.25|1.25|1.25
;   useMinPrintHeight,0
;   minPrintHeight,0
;   useMaxPrintHeight,0
;   maxPrintHeight,2.75
;   useDiaphragm,0
;   diaphragmLayerInterval,20
;   robustSlicing,1
;   mergeAllIntoSolid,0
;   onlyRetractWhenCrossingOutline,1
;   retractBetweenLayers,0
;   useRetractionMinTravel,0
;   retractionMinTravel,3
;   retractWhileWiping,0
;   onlyWipeOutlines,1
;   avoidCrossingOutline,0
;   maxMovementDetourFactor,3
;   toolChangeRetractionDistance,12
;   toolChangeExtraRestartDistance,-0.5
;   toolChangeRetractionSpeed,600
;   externalThinWallType,1
;   internalThinWallType,1
;   thinWallAllowedOverlapPercentage,10
;   singleExtrusionMinLength,1
;   singleExtrusionMinPrintingWidthPercentage,50
;   singleExtrusionMaxPrintingWidthPercentage,200
;   singleExtrusionEndpointExtension,0.2
;   horizontalSizeCompensation,0
G90
M82
M106 S0
M140 S60
M190 S60
M104 S240 T0
M109 S240 T0
G28  ; Home all
;M208S7; DISABLE THE PROBE
;G1 Z5; probe z clearance
;G1 X0 Y0; 
;M280S3; Enable the probe
;G32; probe the grid
;M374; save the grid
;G1 Z20 ; Set Z20 for ooze
G92 E0
G1 E-1.2000 F6000
G1 Z0.500 F1800
; process Process1
; layer 1, Z = 0.500
M105
T0
; tool H0.500 W0.600
; skirt
G1 X46.202 Y36.903 F9000
G1 E0.0000 F1800
G92 E0
G1 X49.163 Y33.074 E0.6157 F1800
G1 X49.178 Y33.057 E0.6186
G1 X49.292 Y32.923 E0.6410
G1 X49.307 Y32.906 E0.6439
G1 X52.619 Y29.423 E1.2554
G1 X52.635 Y29.407 E1.2583
G1 X52.762 Y29.286 E1.2805
G1 X52.779 Y29.271 E1.2834
G1 X56.425 Y26.140 E1.8949
G1 X56.443 Y26.126 E1.8978
G1 X56.581 Y26.019 E1.9200
G1 X56.600 Y26.005 E1.9229
G1 X60.544 Y23.260 E2.5343
G1 X60.563 Y23.247 E2.5372
G1 X60.712 Y23.155 E2.5595
G1 X60.731 Y23.143 E2.5624
G1 X64.934 Y20.811 E3.1738
G1 X64.954 Y20.800 E3.1767
G1 X65.111 Y20.723 E3.1990
G1 X65.132 Y20.714 E3.2019
G1 X69.548 Y18.818 E3.8133
G1 X69.570 Y18.810 E3.8162
G1 X69.733 Y18.749 E3.8385
G1 X69.755 Y18.742 E3.8414
G1 X74.341 Y17.303 E4.4528
G1 X74.363 Y17.297 E4.4557
G1 X74.532 Y17.253 E4.4780
G1 X74.554 Y17.248 E4.4809
G1 X79.262 Y16.280 E5.0923
G1 X79.285 Y16.276 E5.0952
G1 X79.457 Y16.250 E5.1175
G1 X79.480 Y16.247 E5.1204
G1 X84.262 Y15.760 E5.7318
G1 X84.284 Y15.759 E5.7347
G1 X84.459 Y15.750 E5.7569
G1 X84.482 Y15.749 E5.7599
G1 X89.288 Y15.749 E6.3713
G1 X89.311 Y15.750 E6.3742
G1 X89.485 Y15.759 E6.3964
G1 X89.508 Y15.760 E6.3993
G1 X94.290 Y16.247 E7.0108
G1 X94.312 Y16.250 E7.0137
G1 X94.485 Y16.276 E7.0359
G1 X94.508 Y16.280 E7.0388
G1 X99.215 Y17.248 E7.6503
G1 X99.238 Y17.253 E7.6532
G1 X99.407 Y17.297 E7.6754
G1 X99.429 Y17.303 E7.6783
G1 X104.015 Y18.742 E8.2898
G1 X104.036 Y18.749 E8.2927
G1 X104.200 Y18.810 E8.3149
G1 X104.221 Y18.818 E8.3178
G1 X108.638 Y20.714 E8.9293
G1 X108.659 Y20.723 E8.9322
G1 X108.816 Y20.800 E8.9544
G1 X108.836 Y20.811 E8.9573
G1 X113.038 Y23.143 E9.5688
G1 X113.058 Y23.155 E9.5717
G1 X113.206 Y23.247 E9.5939
G1 X113.225 Y23.260 E9.5968
G1 X117.170 Y26.005 E10.2082
G1 X117.188 Y26.019 E10.2111
G1 X117.327 Y26.126 E10.2334
G1 X117.344 Y26.140 E10.2363
G1 X120.991 Y29.271 E10.8477
G1 X121.008 Y29.286 E10.8506
G1 X121.135 Y29.407 E10.8729
G1 X121.151 Y29.423 E10.8758
G1 X124.462 Y32.906 E11.4872
G1 X124.477 Y32.923 E11.4901
G1 X124.591 Y33.056 E11.5124
G1 X124.606 Y33.073 E11.5153
G1 X127.548 Y36.875 E12.1268
G1 X127.562 Y36.894 E12.1298
G1 X127.663 Y37.039 E12.1523
G1 X127.675 Y37.058 E12.1552
G1 X130.260 Y41.215 E12.7780
G1 X130.272 Y41.235 E12.7809
G1 X130.356 Y41.387 E12.8030
G1 X130.367 Y41.407 E12.8059
G1 X132.440 Y45.644 E13.4060
G1 X132.450 Y45.664 E13.4089
G1 X132.518 Y45.824 E13.4310
G1 X132.527 Y45.845 E13.4338
G1 X134.196 Y50.351 E14.0452
G1 X134.203 Y50.373 E14.0481
G1 X134.255 Y50.540 E14.0703
G1 X134.262 Y50.562 E14.0732
G1 X135.466 Y55.214 E14.6847
G1 X135.471 Y55.237 E14.6876
G1 X135.507 Y55.408 E14.7098
G1 X135.511 Y55.430 E14.7127
G1 X136.238 Y60.181 E15.3242
G1 X136.241 Y60.204 E15.3271
G1 X136.259 Y60.378 E15.3493
G1 X136.261 Y60.400 E15.3522
G1 X136.502 Y65.157 E15.9581
G1 X136.502 Y65.168 E15.9595
G1 X136.505 Y65.255 E15.9707
G1 X136.505 Y65.267 E15.9721
G1 X136.505 Y112.452 E21.9750
G1 X136.368 Y112.783 E22.0206
G1 X134.357 Y114.794 E22.3823
G1 X134.026 Y114.931 E22.4279
G1 X77.010 Y114.931 E29.6815
G1 X78.246 Y116.101 E29.8981
G1 X78.263 Y116.119 E29.9012
G1 X78.392 Y116.254 E29.9250
G1 X78.408 Y116.273 E29.9281
G1 X79.953 Y118.092 E30.2318
G1 X79.969 Y118.111 E30.2349
G1 X80.082 Y118.260 E30.2587
G1 X80.096 Y118.280 E30.2618
G1 X81.436 Y120.255 E30.5655
G1 X81.449 Y120.276 E30.5686
G1 X81.545 Y120.436 E30.5924
G1 X81.557 Y120.457 E30.5955
G1 X82.675 Y122.566 E30.8991
G1 X82.686 Y122.588 E30.9022
G1 X82.765 Y122.758 E30.9260
G1 X82.774 Y122.780 E30.9291
G1 X83.658 Y124.998 E31.2328
G1 X83.666 Y125.021 E31.2359
G1 X83.726 Y125.198 E31.2597
G1 X83.733 Y125.221 E31.2628
G1 X84.372 Y127.521 E31.5665
G1 X84.378 Y127.545 E31.5696
G1 X84.418 Y127.727 E31.5934
G1 X84.422 Y127.751 E31.5965
G1 X84.809 Y130.107 E31.9002
G1 X84.812 Y130.131 E31.9033
G1 X84.832 Y130.317 E31.9270
G1 X84.834 Y130.341 E31.9301
G1 X84.963 Y132.725 E32.2338
G1 X84.964 Y132.749 E32.2369
G1 X84.964 Y132.936 E32.2607
G1 X84.963 Y132.960 E32.2638
G1 X84.834 Y135.344 E32.5675
G1 X84.832 Y135.368 E32.5706
G1 X84.812 Y135.554 E32.5944
G1 X84.809 Y135.578 E32.5975
G1 X84.422 Y137.934 E32.9012
G1 X84.418 Y137.958 E32.9043
G1 X84.378 Y138.140 E32.9280
G1 X84.372 Y138.164 E32.9311
G1 X83.733 Y140.464 E33.2348
G1 X83.726 Y140.488 E33.2379
G1 X83.666 Y140.665 E33.2617
G1 X83.658 Y140.688 E33.2648
G1 X82.774 Y142.905 E33.5685
G1 X82.765 Y142.928 E33.5716
G1 X82.686 Y143.097 E33.5954
G1 X82.675 Y143.119 E33.5985
G1 X81.557 Y145.228 E33.9022
G1 X81.545 Y145.249 E33.9053
G1 X81.449 Y145.409 E33.9291
G1 X81.436 Y145.430 E33.9322
G1 X80.096 Y147.406 E34.2359
G1 X80.082 Y147.426 E34.2390
G1 X79.969 Y147.574 E34.2627
G1 X79.953 Y147.593 E34.2658
G1 X78.408 Y149.413 E34.5695
G1 X78.392 Y149.431 E34.5726
G1 X78.263 Y149.567 E34.5964
G1 X78.246 Y149.584 E34.5995
G1 X76.513 Y151.225 E34.9032
G1 X76.495 Y151.242 E34.9063
G1 X76.352 Y151.363 E34.9301
G1 X76.333 Y151.378 E34.9332
G1 X74.433 Y152.823 E35.2369
G1 X74.413 Y152.837 E35.2400
G1 X74.259 Y152.942 E35.2637
G1 X74.238 Y152.955 E35.2668
G1 X72.193 Y154.186 E35.5705
G1 X72.171 Y154.198 E35.5736
G1 X72.006 Y154.285 E35.5974
G1 X71.984 Y154.296 E35.6005
G1 X69.818 Y155.298 E35.9042
G1 X69.795 Y155.308 E35.9073
G1 X69.622 Y155.377 E35.9311
G1 X69.599 Y155.385 E35.9342
G1 X67.337 Y156.148 E36.2379
G1 X67.313 Y156.155 E36.2410
G1 X67.133 Y156.205 E36.2648
G1 X67.110 Y156.211 E36.2679
G1 X64.778 Y156.724 E36.5715
G1 X64.754 Y156.728 E36.5746
G1 X64.570 Y156.759 E36.5984
G1 X64.546 Y156.762 E36.6015
G1 X62.173 Y157.020 E36.9052
G1 X62.148 Y157.022 E36.9083
G1 X61.962 Y157.032 E36.9321
G1 X61.937 Y157.033 E36.9352
G1 X59.550 Y157.033 E37.2389
G1 X59.526 Y157.032 E37.2420
G1 X59.339 Y157.022 E37.2658
G1 X59.315 Y157.020 E37.2689
G1 X56.942 Y156.762 E37.5726
G1 X56.918 Y156.759 E37.5756
G1 X56.733 Y156.728 E37.5994
G1 X56.709 Y156.724 E37.6025
G1 X54.378 Y156.211 E37.9062
G1 X54.354 Y156.205 E37.9093
G1 X54.174 Y156.155 E37.9331
G1 X54.151 Y156.148 E37.9362
G1 X51.889 Y155.385 E38.2399
G1 X51.866 Y155.377 E38.2430
G1 X51.692 Y155.308 E38.2668
G1 X51.670 Y155.298 E38.2699
G1 X49.503 Y154.296 E38.5736
G1 X49.482 Y154.285 E38.5767
G1 X49.316 Y154.198 E38.6004
G1 X49.295 Y154.186 E38.6035
G1 X47.250 Y152.955 E38.9072
G1 X47.229 Y152.942 E38.9103
G1 X47.075 Y152.837 E38.9341
G1 X47.055 Y152.823 E38.9372
G1 X45.154 Y151.378 E39.2409
G1 X45.135 Y151.363 E39.2440
G1 X44.993 Y151.242 E39.2678
G1 X44.975 Y151.225 E39.2709
G1 X43.242 Y149.584 E39.5746
G1 X43.225 Y149.567 E39.5777
G1 X43.096 Y149.431 E39.6015
G1 X43.080 Y149.413 E39.6046
G1 X41.534 Y147.593 E39.9082
G1 X41.519 Y147.574 E39.9113
G1 X41.406 Y147.426 E39.9351
G1 X41.392 Y147.406 E39.9382
G1 X40.052 Y145.430 E40.2419
G1 X40.039 Y145.409 E40.2450
G1 X39.943 Y145.249 E40.2688
G1 X39.931 Y145.228 E40.2719
G1 X38.812 Y143.119 E40.5756
G1 X38.802 Y143.097 E40.5787
G1 X38.723 Y142.928 E40.6025
G1 X38.714 Y142.905 E40.6056
G1 X37.830 Y140.688 E40.9092
G1 X37.822 Y140.665 E40.9123
G1 X37.762 Y140.488 E40.9361
G1 X37.755 Y140.464 E40.9392
G1 X37.116 Y138.164 E41.2429
G1 X37.110 Y138.140 E41.2460
G1 X37.070 Y137.958 E41.2698
G1 X37.065 Y137.934 E41.2729
G1 X36.679 Y135.578 E41.5766
G1 X36.676 Y135.554 E41.5797
G1 X36.656 Y135.368 E41.6035
G1 X36.654 Y135.344 E41.6066
G1 X36.525 Y132.960 E41.9103
G1 X36.524 Y132.936 E41.9134
G1 X36.524 Y132.749 E41.9371
G1 X36.525 Y132.725 E41.9402
G1 X36.654 Y130.341 E42.2439
G1 X36.656 Y130.317 E42.2470
G1 X36.676 Y130.131 E42.2708
G1 X36.679 Y130.107 E42.2739
G1 X37.065 Y127.751 E42.5776
G1 X37.070 Y127.727 E42.5807
G1 X37.110 Y127.545 E42.6045
G1 X37.116 Y127.521 E42.6076
G1 X37.755 Y125.221 E42.9113
G1 X37.762 Y125.198 E42.9144
G1 X37.822 Y125.021 E42.9382
G1 X37.830 Y124.998 E42.9413
G1 X38.714 Y122.780 E43.2449
G1 X38.723 Y122.758 E43.2481
G1 X38.802 Y122.588 E43.2718
G1 X38.813 Y122.566 E43.2749
G1 X39.931 Y120.457 E43.5786
G1 X39.943 Y120.436 E43.5817
G1 X40.039 Y120.276 E43.6055
G1 X40.052 Y120.255 E43.6086
G1 X41.392 Y118.280 E43.9123
G1 X41.406 Y118.260 E43.9154
G1 X41.519 Y118.111 E43.9392
G1 X41.534 Y118.092 E43.9423
G1 X43.080 Y116.273 E44.2460
G1 X43.096 Y116.254 E44.2491
G1 X43.225 Y116.119 E44.2728
G1 X43.242 Y116.101 E44.2759
G1 X44.478 Y114.931 E44.4926
G1 X39.743 Y114.931 E45.0949
G1 X39.412 Y114.794 E45.1405
G1 X37.402 Y112.783 E45.5022
G1 X37.265 Y112.452 E45.5477
G1 X37.265 Y65.267 E51.5507
G1 X37.265 Y65.255 E51.5521
G1 X37.267 Y65.168 E51.5632
G1 X37.268 Y65.157 E51.5647
G1 X37.509 Y60.400 E52.1706
G1 X37.511 Y60.378 E52.1735
G1 X37.528 Y60.204 E52.1957
G1 X37.531 Y60.181 E52.1986
G1 X38.259 Y55.430 E52.8101
G1 X38.263 Y55.408 E52.8129
G1 X38.298 Y55.237 E52.8352
G1 X38.303 Y55.214 E52.8381
G1 X39.508 Y50.562 E53.4495
G1 X39.514 Y50.540 E53.4524
G1 X39.567 Y50.373 E53.4747
G1 X39.574 Y50.351 E53.4776
G1 X41.243 Y45.844 E54.0890
G1 X41.252 Y45.823 E54.0919
G1 X41.320 Y45.663 E54.1141
G1 X41.330 Y45.643 E54.1170
G1 X43.431 Y41.355 E54.7244
G1 X43.442 Y41.335 E54.7273
G1 X43.526 Y41.182 E54.7495
G1 X43.538 Y41.163 E54.7524
G1 X45.453 Y38.085 E55.2135
G1 X46.076 Y37.084 F1800
G1 X46.089 Y37.065 F1800
G1 X46.189 Y36.921 F1800
G1 X46.202 Y36.903 F1800
G92 E0
G1 E-1.2000 F6000
G1 X112.426 Y119.841 F9000
G1 E0.0000 F6000
G92 E0
G1 X112.745 Y119.679 E0.0456 F1800
G1 X115.580 Y119.464 E0.4073
G1 X115.920 Y119.576 E0.4528
G1 X124.146 Y126.642 E1.8323
G1 X124.307 Y126.961 E1.8779
G1 X124.334 Y127.310 E1.9224
G1 X124.683 Y127.284 E1.9669
G1 X125.023 Y127.396 E2.0125
G1 X133.248 Y134.462 E3.3920
G1 X133.410 Y134.781 E3.4375
G1 X133.624 Y137.616 E3.7993
G1 X133.513 Y137.956 E3.8448
G1 X125.795 Y146.940 E5.3515
G1 X125.720 Y146.978 E5.3623
G1 X125.693 Y147.059 E5.3731
G1 X117.976 Y156.042 E6.8798
G1 X117.656 Y156.204 E6.9253
G1 X114.821 Y156.419 E7.2871
G1 X114.481 Y156.307 E7.3326
G1 X110.672 Y153.035 E7.9715
G1 X107.400 Y156.844 E8.6103
G1 X107.080 Y157.006 E8.6559
G1 X104.245 Y157.221 E9.0176
G1 X103.905 Y157.109 E9.0632
