; G-Code generated by Simplify3D(R) Version 4.0.0
; Jul 26, 2018 at 7:33:23 PM
; Settings Summary
;   processName,Process1
;   applyToModels,Lower Ring Clamp - inner,Lower Ring Clamp - outer
;   profileName,BortBot (modified)
;   profileVersion,2018-03-11 18:52:45
;   baseProfile,Default
;   printMaterial,PLA
;   printQuality,Medium
;   printExtruders,
;   extruderName,Extruder 1
;   extruderToolheadNumber,0
;   extruderDiameter,0.5
;   extruderAutoWidth,0
;   extruderWidth,0.6
;   extrusionMultiplier,1.03
;   extruderUseRetract,1
;   extruderRetractionDistance,1.4
;   extruderExtraRestartDistance,0
;   extruderRetractionZLift,0
;   extruderRetractionSpeed,6000
;   extruderUseCoasting,1
;   extruderCoastingDistance,1.2
;   extruderUseWipe,1
;   extruderWipeDistance,4.4
;   primaryExtruder,0
;   layerHeight,0.2
;   topSolidLayers,3
;   bottomSolidLayers,3
;   perimeterOutlines,4
;   printPerimetersInsideOut,0
;   startPointOption,2
;   startPointOriginX,0
;   startPointOriginY,0
;   sequentialIslands,0
;   spiralVaseMode,0
;   firstLayerHeightPercentage,100
;   firstLayerWidthPercentage,100
;   firstLayerUnderspeed,0.75
;   useRaft,0
;   raftExtruder,0
;   raftTopLayers,2
;   raftBaseLayers,2
;   raftOffset,3
;   raftSeparationDistance,0.3
;   raftTopInfill,90
;   aboveRaftSpeedMultiplier,0.3
;   useSkirt,1
;   skirtExtruder,0
;   skirtLayers,1
;   skirtOutlines,2
;   skirtOffset,3
;   usePrimePillar,0
;   primePillarExtruder,999
;   primePillarWidth,12
;   primePillarLocation,7
;   primePillarSpeedMultiplier,1
;   useOozeShield,0
;   oozeShieldExtruder,999
;   oozeShieldOffset,2
;   oozeShieldOutlines,1
;   oozeShieldSidewallShape,1
;   oozeShieldSidewallAngle,30
;   oozeShieldSpeedMultiplier,1
;   infillExtruder,0
;   internalInfillPattern,Rectilinear
;   externalInfillPattern,Rectilinear
;   infillPercentage,40
;   outlineOverlapPercentage,35
;   infillExtrusionWidthPercentage,90
;   minInfillLength,5
;   infillLayerInterval,2
;   internalInfillAngles,45,-45
;   overlapInternalInfillAngles,0
;   externalInfillAngles,45,-45
;   generateSupport,0
;   supportExtruder,0
;   supportInfillPercentage,30
;   supportExtraInflation,0
;   supportBaseLayers,1
;   denseSupportExtruder,0
;   denseSupportLayers,4
;   denseSupportInfillPercentage,90
;   supportLayerInterval,2
;   supportHorizontalPartOffset,0.4
;   supportUpperSeparationLayers,1
;   supportLowerSeparationLayers,2
;   supportType,0
;   supportGridSpacing,1
;   maxOverhangAngle,46
;   supportAngles,30
;   temperatureName,Extruder 1,Heated Bed
;   temperatureNumber,0,1
;   temperatureSetpointCount,1,1
;   temperatureSetpointLayers,1,1
;   temperatureSetpointTemperatures,245,60
;   temperatureStabilizeAtStartup,1,1
;   temperatureHeatedBed,0,1
;   temperatureRelayBetweenLayers,1,0
;   temperatureRelayBetweenLoops,1,0
;   fanLayers,1,3
;   fanSpeeds,0,40
;   blipFanToFullPower,0
;   adjustSpeedForCooling,1
;   minSpeedLayerTime,15
;   minCoolingSpeedSlowdown,20
;   increaseFanForCooling,1
;   minFanLayerTime,45
;   maxCoolingFanSpeed,100
;   increaseFanForBridging,1
;   bridgingFanSpeed,100
;   use5D,1
;   relativeEdistances,0
;   allowEaxisZeroing,1
;   independentExtruderAxes,0
;   includeM10123,0
;   stickySupport,1
;   applyToolheadOffsets,0
;   gcodeXoffset,0
;   gcodeYoffset,0
;   gcodeZoffset,0
;   overrideMachineDefinition,0
;   machineTypeOverride,0
;   strokeXoverride,100
;   strokeYoverride,100
;   strokeZoverride,100
;   originOffsetXoverride,0
;   originOffsetYoverride,0
;   originOffsetZoverride,0
;   homeXdirOverride,-1
;   homeYdirOverride,-1
;   homeZdirOverride,-1
;   flipXoverride,1
;   flipYoverride,-1
;   flipZoverride,1
;   toolheadOffsets,0,0|0,0|0,0|0,0|0,0|0,0
;   overrideFirmwareConfiguration,0
;   firmwareTypeOverride,RepRap (Marlin/Repetier/Sprinter)
;   GPXconfigOverride,r2
;   baudRateOverride,115200
;   overridePrinterModels,0
;   printerModelsOverride
;   startingGcode,;G28  ; Home all,;M208S7; DISABLE THE PROBE,;G1 Z5; probe z clearance,;G1 X0 Y0; ,;M280S3; Enable the probe,;G32; probe the grid,;M374; save the grid,;G1 Z20 ; Set Z20 for ooze
;   layerChangeGcode,
;   retractionGcode,
;   toolChangeGcode,
;   endingGcode,G10 S2.5; retract filament to relieve pressure,M104 S0 ; turn off extruder,M140 S0 ; turn off bed,G91 G1 Z10 ; Clearance from part,G90 G1 X0 Y0 Z170 ; Go to starting position (X0 Y0 Z 170),;M84 ; disable motor,M107; Turn off fan
;   exportFileFormat,gcode
;   celebration,0
;   celebrationSong,Random Song
;   postProcessing,
;   defaultSpeed,2400
;   outlineUnderspeed,0.8
;   solidInfillUnderspeed,1
;   supportUnderspeed,1
;   rapidXYspeed,9000
;   rapidZspeed,1800
;   minBridgingArea,10
;   bridgingExtraInflation,5
;   bridgingExtrusionMultiplier,0.9
;   bridgingSpeedMultiplier,0.6
;   useFixedBridgingAngle,0
;   fixedBridgingAngle,0
;   applyBridgingToPerimeters,1
;   filamentDiameters,1.75|1.75|1.75|1.75|1.75|1.75
;   filamentPricesPerKg,12|46|46|46|46|46
;   filamentDensities,1.33|1.25|1.25|1.25|1.25|1.25
;   useMinPrintHeight,0
;   minPrintHeight,0
;   useMaxPrintHeight,0
;   maxPrintHeight,2.75
;   useDiaphragm,0
;   diaphragmLayerInterval,20
;   robustSlicing,1
;   mergeAllIntoSolid,0
;   onlyRetractWhenCrossingOutline,1
;   retractBetweenLayers,0
;   useRetractionMinTravel,0
;   retractionMinTravel,3
;   retractWhileWiping,1
;   onlyWipeOutlines,1
;   avoidCrossingOutline,0
;   maxMovementDetourFactor,3
;   toolChangeRetractionDistance,12
;   toolChangeExtraRestartDistance,-0.5
;   toolChangeRetractionSpeed,600
;   externalThinWallType,1
;   internalThinWallType,1
;   thinWallAllowedOverlapPercentage,10
;   singleExtrusionMinLength,1
;   singleExtrusionMinPrintingWidthPercentage,50
;   singleExtrusionMaxPrintingWidthPercentage,200
;   singleExtrusionEndpointExtension,0.2
;   horizontalSizeCompensation,0
G90
M82
M106 S0
M140 S60
M190 S60
M104 S245 T0
M109 S245 T0
;G28  ; Home all
;M208S7; DISABLE THE PROBE
;G1 Z5; probe z clearance
;G1 X0 Y0; 
;M280S3; Enable the probe
;G32; probe the grid
;M374; save the grid
;G1 Z20 ; Set Z20 for ooze
G92 E0
G1 E-1.4000 F6000
G1 Z0.200 F1800
; process Process1
; layer 1, Z = 0.200
M105
T0
; tool H0.200 W0.600
; skirt
G1 X46.236 Y34.594 F9000
G1 E0.0000 F1800
G92 E0
G1 X46.259 Y34.566 E0.0018 F1800
G1 X47.481 Y33.160 E0.0976
G1 X47.506 Y33.134 E0.0994
G1 X47.702 Y32.942 E0.1135
G1 X47.728 Y32.918 E0.1154
G1 X49.158 Y31.723 E0.2111
G1 X49.187 Y31.701 E0.2130
G1 X49.411 Y31.543 E0.2271
G1 X49.441 Y31.523 E0.2289
G1 X51.042 Y30.570 E0.3247
G1 X51.074 Y30.553 E0.3265
G1 X51.320 Y30.432 E0.3406
G1 X51.352 Y30.417 E0.3425
G1 X53.084 Y29.730 E0.4382
G1 X53.118 Y29.718 E0.4400
G1 X53.381 Y29.637 E0.4542
G1 X53.415 Y29.628 E0.4560
G1 X55.234 Y29.224 E0.5517
G1 X55.269 Y29.217 E0.5536
G1 X55.541 Y29.179 E0.5677
G1 X55.577 Y29.176 E0.5695
G1 X57.437 Y29.064 E0.6653
G1 X57.473 Y29.064 E0.6671
G1 X57.747 Y29.069 E0.6812
G1 X57.783 Y29.071 E0.6831
G1 X59.550 Y29.247 E0.7743
G1 X59.562 Y29.249 E0.7750
G1 X59.660 Y29.261 E0.7800
G1 X59.673 Y29.263 E0.7807
G1 X66.062 Y30.271 E1.1131
G1 X72.353 Y30.977 E1.4384
G1 X78.670 Y31.401 E1.7637
G1 X85.000 Y31.543 E2.0891
G1 X91.330 Y31.401 E2.4144
G1 X97.647 Y30.977 E2.7398
G1 X103.938 Y30.271 E3.0651
G1 X110.327 Y29.263 E3.3975
G1 X110.340 Y29.261 E3.3981
G1 X110.438 Y29.249 E3.4032
G1 X110.450 Y29.247 E3.4039
G1 X112.217 Y29.071 E3.4951
G1 X112.253 Y29.069 E3.4969
G1 X112.527 Y29.064 E3.5110
G1 X112.563 Y29.064 E3.5129
G1 X114.423 Y29.176 E3.6086
G1 X114.459 Y29.179 E3.6105
G1 X114.731 Y29.217 E3.6246
G1 X114.766 Y29.224 E3.6264
G1 X116.585 Y29.628 E3.7222
G1 X116.619 Y29.637 E3.7240
G1 X116.882 Y29.718 E3.7381
G1 X116.916 Y29.730 E3.7400
G1 X118.647 Y30.417 E3.8357
G1 X118.680 Y30.432 E3.8375
G1 X118.926 Y30.553 E3.8517
G1 X118.958 Y30.570 E3.8535
G1 X120.559 Y31.523 E3.9492
G1 X120.589 Y31.543 E3.9511
G1 X120.813 Y31.701 E3.9652
G1 X120.842 Y31.723 E3.9670
G1 X122.272 Y32.918 E4.0628
G1 X122.298 Y32.942 E4.0646
G1 X122.494 Y33.134 E4.0787
G1 X122.519 Y33.160 E4.0806
G1 X123.741 Y34.566 E4.1763
G1 X123.764 Y34.594 E4.1782
G1 X123.927 Y34.815 E4.1923
G1 X123.947 Y34.845 E4.1941
G1 X124.932 Y36.427 E4.2899
G1 X124.949 Y36.458 E4.2917
G1 X125.075 Y36.702 E4.3058
G1 X125.090 Y36.734 E4.3076
G1 X125.812 Y38.452 E4.4034
G1 X125.825 Y38.486 E4.4052
G1 X125.910 Y38.746 E4.4193
G1 X125.920 Y38.781 E4.4212
G1 X126.361 Y40.591 E4.5169
G1 X126.368 Y40.627 E4.5188
G1 X126.411 Y40.898 E4.5329
G1 X126.415 Y40.933 E4.5347
G1 X126.558 Y42.722 E4.6269
G1 X126.559 Y42.740 E4.6279
G1 X126.565 Y42.877 E4.6349
G1 X126.565 Y42.895 E4.6358
G1 X126.565 Y62.899 E5.6638
G1 X126.461 Y63.192 E5.6797
G1 X124.912 Y65.089 E5.8056
G1 X124.646 Y65.250 E5.8216
G1 X118.695 Y66.466 E6.1337
G1 X118.689 Y66.468 E6.1340
G1 X118.640 Y66.477 E6.1366
G1 X118.634 Y66.478 E6.1369
G1 X113.142 Y67.436 E6.4234
G1 X113.135 Y67.437 E6.4237
G1 X113.082 Y67.446 E6.4265
G1 X113.075 Y67.447 E6.4269
G1 X107.554 Y68.232 E6.7134
G1 X107.547 Y68.233 E6.7138
G1 X107.493 Y68.240 E6.7166
G1 X107.486 Y68.241 E6.7169
G1 X101.944 Y68.853 E7.0035
G1 X101.937 Y68.853 E7.0038
G1 X101.883 Y68.858 E7.0066
G1 X101.876 Y68.859 E7.0070
G1 X96.316 Y69.296 E7.2935
G1 X96.309 Y69.297 E7.2939
G1 X96.255 Y69.300 E7.2967
G1 X96.248 Y69.301 E7.2971
G1 X90.678 Y69.563 E7.5836
G1 X90.671 Y69.564 E7.5840
G1 X90.617 Y69.565 E7.5867
G1 X90.610 Y69.565 E7.5871
G1 X85.034 Y69.653 E7.8737
G1 X85.027 Y69.653 E7.8740
G1 X84.973 Y69.653 E7.8768
G1 X84.966 Y69.653 E7.8772
G1 X79.390 Y69.565 E8.1637
G1 X79.383 Y69.565 E8.1641
G1 X79.329 Y69.564 E8.1669
G1 X79.322 Y69.563 E8.1672
G1 X73.752 Y69.301 E8.4538
G1 X73.745 Y69.300 E8.4541
G1 X73.691 Y69.297 E8.4569
G1 X73.684 Y69.296 E8.4573
G1 X68.124 Y68.859 E8.7438
G1 X68.117 Y68.858 E8.7442
G1 X68.063 Y68.853 E8.7470
G1 X68.056 Y68.853 E8.7474
G1 X62.514 Y68.241 E9.0339
G1 X62.507 Y68.240 E9.0343
G1 X62.453 Y68.233 E9.0371
G1 X62.446 Y68.232 E9.0374
G1 X56.923 Y67.447 E9.3241
G1 X56.915 Y67.445 E9.3245
G1 X56.857 Y67.436 E9.3275
G1 X56.850 Y67.435 E9.3279
G1 X49.897 Y66.202 E9.6908
G1 X49.888 Y66.201 E9.6912
G1 X49.823 Y66.188 E9.6946
G1 X49.815 Y66.186 E9.6951
G1 X45.322 Y65.211 E9.9313
G1 X45.060 Y65.049 E9.9471
G1 X43.538 Y63.160 E10.0718
G1 X43.435 Y62.870 E10.0876
G1 X43.435 Y42.895 E11.1141
G1 X43.435 Y42.877 E11.1150
G1 X43.441 Y42.740 E11.1220
G1 X43.442 Y42.722 E11.1229
G1 X43.584 Y40.933 E11.2152
G1 X43.589 Y40.898 E11.2170
G1 X43.632 Y40.627 E11.2311
G1 X43.639 Y40.591 E11.2329
G1 X44.080 Y38.781 E11.3287
G1 X44.090 Y38.746 E11.3305
G1 X44.175 Y38.486 E11.3446
G1 X44.188 Y38.452 E11.3465
G1 X44.910 Y36.734 E11.4422
G1 X44.925 Y36.702 E11.4441
G1 X45.051 Y36.458 E11.4582
G1 X45.068 Y36.427 E11.4600
G1 X45.583 Y35.600 E11.5101
G1 X46.053 Y34.845 F1800
G1 X46.073 Y34.815 F1800
G1 X46.236 Y34.594 F1800
G92 E0
G1 E-1.4000 F6000
G1 X55.234 Y83.411 F9000
G1 E0.0000 F6000
G92 E0
G1 X55.269 Y83.404 E0.0018 F1800
G1 X55.541 Y83.366 E0.0159
G1 X55.577 Y83.363 E0.0178
G1 X57.437 Y83.251 E0.1135
G1 X57.473 Y83.251 E0.1154
G1 X57.747 Y83.256 E0.1295
G1 X57.783 Y83.258 E0.1313
G1 X59.550 Y83.434 E0.2226
G1 X59.562 Y83.436 E0.2232
G1 X59.660 Y83.448 E0.2283
G1 X59.673 Y83.450 E0.2290
G1 X66.062 Y84.458 E0.5613
G1 X72.353 Y85.164 E0.8866
G1 X78.670 Y85.588 E1.2120
G1 X85.000 Y85.730 E1.5373
G1 X91.330 Y85.588 E1.8627
G1 X97.647 Y85.164 E2.1880
G1 X103.938 Y84.458 E2.5134
G1 X110.327 Y83.450 E2.8457
G1 X110.340 Y83.448 E2.8464
G1 X110.438 Y83.436 E2.8515
G1 X110.450 Y83.434 E2.8521
G1 X112.217 Y83.258 E2.9433
G1 X112.253 Y83.256 E2.9452
G1 X112.527 Y83.251 E2.9593
G1 X112.563 Y83.251 E2.9611
G1 X114.423 Y83.363 E3.0569
G1 X114.459 Y83.366 E3.0587
G1 X114.731 Y83.404 E3.0728
G1 X114.766 Y83.411 E3.0747
G1 X116.585 Y83.815 E3.1704
G1 X116.619 Y83.824 E3.1723
G1 X116.882 Y83.905 E3.1864
G1 X116.916 Y83.917 E3.1882
G1 X118.647 Y84.604 E3.2840
G1 X118.680 Y84.619 E3.2858
G1 X118.927 Y84.740 E3.2999
G1 X118.958 Y84.757 E3.3017
G1 X120.559 Y85.710 E3.3975
G1 X120.589 Y85.730 E3.3993
G1 X120.813 Y85.889 E3.4134
G1 X120.842 Y85.910 E3.4153
G1 X122.272 Y87.105 E3.5110
G1 X122.298 Y87.129 E3.5129
G1 X122.494 Y87.321 E3.5270
G1 X122.519 Y87.347 E3.5288
G1 X123.741 Y88.753 E3.6246
G1 X123.764 Y88.781 E3.6264
G1 X123.927 Y89.002 E3.6405
G1 X123.947 Y89.032 E3.6424
G1 X124.932 Y90.614 E3.7381
G1 X124.949 Y90.645 E3.7400
G1 X125.075 Y90.889 E3.7541
G1 X125.091 Y90.921 E3.7559
G1 X125.812 Y92.639 E3.8517
G1 X125.825 Y92.673 E3.8535
G1 X125.910 Y92.933 E3.8676
G1 X125.920 Y92.968 E3.8694
G1 X126.361 Y94.778 E3.9652
G1 X126.368 Y94.814 E3.9670
G1 X126.411 Y95.085 E3.9811
G1 X126.416 Y95.120 E3.9830
G1 X126.558 Y96.909 E4.0752
G1 X126.559 Y96.927 E4.0761
G1 X126.565 Y97.064 E4.0832
G1 X126.565 Y97.082 E4.0841
G1 X126.565 Y111.357 E4.8176
G1 X126.462 Y111.649 E4.8335
G1 X124.930 Y113.540 E4.9586
G1 X124.666 Y113.702 E4.9745
G1 X118.969 Y114.913 E5.2738
G1 X118.962 Y114.914 E5.2741
G1 X118.915 Y114.923 E5.2767
G1 X118.908 Y114.925 E5.2770
G1 X113.805 Y115.859 E5.5436
G1 X113.798 Y115.860 E5.5439
G1 X113.747 Y115.869 E5.5466
G1 X113.740 Y115.870 E5.5470
G1 X108.609 Y116.650 E5.8136
G1 X108.603 Y116.651 E5.8140
G1 X108.551 Y116.658 E5.8167
G1 X108.544 Y116.659 E5.8170
G1 X103.393 Y117.284 E6.0837
G1 X103.386 Y117.284 E6.0840
G1 X103.334 Y117.290 E6.0867
G1 X103.327 Y117.290 E6.0871
G1 X98.159 Y117.760 E6.3537
G1 X98.152 Y117.760 E6.3541
G1 X98.100 Y117.764 E6.3568
G1 X98.093 Y117.765 E6.3571
G1 X92.913 Y118.078 E6.6238
G1 X92.907 Y118.078 E6.6241
G1 X92.855 Y118.080 E6.6268
G1 X92.848 Y118.081 E6.6272
G1 X87.660 Y118.237 E6.8938
G1 X87.654 Y118.237 E6.8942
G1 X87.602 Y118.238 E6.8969
G1 X87.595 Y118.238 E6.8972
G1 X82.405 Y118.238 E7.1639
G1 X82.398 Y118.238 E7.1642
G1 X82.346 Y118.237 E7.1669
G1 X82.340 Y118.237 E7.1673
G1 X77.152 Y118.081 E7.4340
G1 X77.145 Y118.080 E7.4343
G1 X77.093 Y118.078 E7.4370
G1 X77.087 Y118.078 E7.4373
G1 X71.906 Y117.765 E7.7040
G1 X71.900 Y117.764 E7.7044
G1 X71.848 Y117.760 E7.7070
G1 X71.841 Y117.760 E7.7074
G1 X66.673 Y117.290 E7.9741
G1 X66.666 Y117.290 E7.9744
G1 X66.614 Y117.284 E7.9771
G1 X66.607 Y117.284 E7.9774
G1 X61.456 Y116.659 E8.2441
G1 X61.449 Y116.658 E8.2445
G1 X61.397 Y116.651 E8.2471
G1 X61.391 Y116.650 E8.2475
G1 X56.260 Y115.870 E8.5142
G1 X56.253 Y115.869 E8.5145
G1 X56.202 Y115.860 E8.5172
G1 X56.195 Y115.859 E8.5175
G1 X51.091 Y114.924 E8.7842
G1 X51.085 Y114.923 E8.7845
G1 X51.037 Y114.914 E8.7870
G1 X51.030 Y114.912 E8.7874
G1 X45.333 Y113.700 E9.0867
G1 X45.069 Y113.538 E9.1026
G1 X43.538 Y111.647 E9.2276
G1 X43.435 Y111.355 E9.2435
G1 X43.435 Y97.082 E9.9770
G1 X43.435 Y97.064 E9.9779
G1 X43.441 Y96.927 E9.9849
G1 X43.442 Y96.909 E9.9859
G1 X43.584 Y95.120 E10.0781
G1 X43.589 Y95.085 E10.0799
G1 X43.632 Y94.814 E10.0940
G1 X43.639 Y94.779 E10.0959
G1 X44.080 Y92.968 E10.1916
G1 X44.090 Y92.933 E10.1935
G1 X44.175 Y92.673 E10.2076
G1 X44.188 Y92.639 E10.2094
G1 X44.910 Y90.921 E10.3052
G1 X44.925 Y90.889 E10.3070
G1 X45.051 Y90.645 E10.3211
G1 X45.068 Y90.614 E10.3229
G1 X46.053 Y89.032 E10.4187
G1 X46.073 Y89.002 E10.4205
G1 X46.236 Y88.781 E10.4346
G1 X46.259 Y88.753 E10.4365
G1 X47.481 Y87.347 E10.5322
G1 X47.506 Y87.321 E10.5341
G1 X47.702 Y87.129 E10.5482
G1 X47.728 Y87.105 E10.5500
G1 X49.158 Y85.910 E10.6458
G1 X49.187 Y85.889 E10.6476
G1 X49.411 Y85.730 E10.6617
G1 X49.441 Y85.710 E10.6636
G1 X51.042 Y84.757 E10.7593
G1 X51.074 Y84.740 E10.7612
G1 X51.320 Y84.619 E10.7753
G1 X51.352 Y84.604 E10.7771
G1 X53.084 Y83.917 E10.8728
G1 X53.118 Y83.905 E10.8747
G1 X53.381 Y83.824 E10.8888
G1 X53.415 Y83.815 E10.8906
G1 X54.063 Y83.671 E10.9247
G1 X55.234 Y83.411 F1800
G1 X55.353 Y83.999 F9000
G92 E0
G1 X55.364 Y83.997 E0.0006 F1800
G1 X55.613 Y83.962 E0.0135
G1 X55.624 Y83.961 E0.0141
G1 X57.461 Y83.851 E0.1086
G1 X57.473 Y83.851 E0.1092
G1 X57.723 Y83.856 E0.1221
G1 X57.735 Y83.856 E0.1227
G1 X59.486 Y84.031 E0.2131
G1 X59.490 Y84.031 E0.2134
G1 X59.579 Y84.043 E0.2180
G1 X59.584 Y84.043 E0.2182
G1 X65.981 Y85.053 E0.5510
G1 X72.300 Y85.762 E0.8778
G1 X78.644 Y86.188 E1.2045
G1 X85.000 Y86.330 E1.5312
G1 X91.356 Y86.188 E1.8579
