; G-Code generated by Simplify3D(R) Version 4.1.0
; May 8, 2019 at 4:23:53 PM
; Settings Summary
;   processName,general PLA fine
;   applyToModels,o-ring test print
;   profileName,BortBot (modified)
;   profileVersion,2018-03-11 18:52:45
;   baseProfile,Default
;   printMaterial,PLA
;   printQuality,Medium
;   printExtruders,
;   extruderName,Extruder 1
;   extruderToolheadNumber,0
;   extruderDiameter,0.4
;   extruderAutoWidth,1
;   extruderWidth,0.48
;   extrusionMultiplier,1.02
;   extruderUseRetract,1
;   extruderRetractionDistance,2
;   extruderExtraRestartDistance,0
;   extruderRetractionZLift,0
;   extruderRetractionSpeed,3000
;   extruderUseCoasting,0
;   extruderCoastingDistance,1.4
;   extruderUseWipe,0
;   extruderWipeDistance,2
;   primaryExtruder,0
;   layerHeight,0.12
;   topSolidLayers,6
;   bottomSolidLayers,4
;   perimeterOutlines,2
;   printPerimetersInsideOut,1
;   startPointOption,3
;   startPointOriginX,200
;   startPointOriginY,100
;   sequentialIslands,0
;   spiralVaseMode,0
;   firstLayerHeightPercentage,150
;   firstLayerWidthPercentage,115
;   firstLayerUnderspeed,0.65
;   useRaft,0
;   raftExtruder,0
;   raftTopLayers,2
;   raftBaseLayers,2
;   raftOffset,3
;   raftSeparationDistance,0.3
;   raftTopInfill,90
;   aboveRaftSpeedMultiplier,0.3
;   useSkirt,1
;   skirtExtruder,0
;   skirtLayers,1
;   skirtOutlines,2
;   skirtOffset,2
;   usePrimePillar,0
;   primePillarExtruder,999
;   primePillarWidth,12
;   primePillarLocation,7
;   primePillarSpeedMultiplier,1
;   useOozeShield,0
;   oozeShieldExtruder,999
;   oozeShieldOffset,2
;   oozeShieldOutlines,1
;   oozeShieldSidewallShape,1
;   oozeShieldSidewallAngle,30
;   oozeShieldSpeedMultiplier,1
;   infillExtruder,0
;   internalInfillPattern,Fast Honeycomb
;   externalInfillPattern,Rectilinear
;   infillPercentage,20
;   outlineOverlapPercentage,50
;   infillExtrusionWidthPercentage,100
;   minInfillLength,5
;   infillLayerInterval,1
;   internalInfillAngles,0
;   overlapInternalInfillAngles,0
;   externalInfillAngles,45,-45
;   generateSupport,0
;   supportExtruder,0
;   supportInfillPercentage,15
;   supportExtraInflation,0
;   supportBaseLayers,1
;   denseSupportExtruder,0
;   denseSupportLayers,2
;   denseSupportInfillPercentage,75
;   supportLayerInterval,1
;   supportHorizontalPartOffset,0.5
;   supportUpperSeparationLayers,1
;   supportLowerSeparationLayers,1
;   supportType,0
;   supportGridSpacing,1
;   maxOverhangAngle,46
;   supportAngles,45
;   temperatureName,Extruder 1,Heated Bed
;   temperatureNumber,0,1
;   temperatureSetpointCount,1,1
;   temperatureSetpointLayers,1,1
;   temperatureSetpointTemperatures,210,60
;   temperatureStabilizeAtStartup,1,1
;   temperatureHeatedBed,0,1
;   fanLayers,1,3
;   fanSpeeds,0,60
;   blipFanToFullPower,1
;   adjustSpeedForCooling,0
;   minSpeedLayerTime,15
;   minCoolingSpeedSlowdown,20
;   increaseFanForCooling,1
;   minFanLayerTime,45
;   maxCoolingFanSpeed,100
;   increaseFanForBridging,1
;   bridgingFanSpeed,100
;   use5D,1
;   relativeEdistances,0
;   allowEaxisZeroing,1
;   independentExtruderAxes,0
;   includeM10123,0
;   stickySupport,1
;   applyToolheadOffsets,0
;   gcodeXoffset,0
;   gcodeYoffset,0
;   gcodeZoffset,0
;   overrideMachineDefinition,0
;   machineTypeOverride,0
;   strokeXoverride,100
;   strokeYoverride,100
;   strokeZoverride,100
;   originOffsetXoverride,0
;   originOffsetYoverride,0
;   originOffsetZoverride,0
;   homeXdirOverride,-1
;   homeYdirOverride,-1
;   homeZdirOverride,-1
;   flipXoverride,1
;   flipYoverride,-1
;   flipZoverride,1
;   toolheadOffsets,0,0|0,0|0,0|0,0|0,0|0,0
;   overrideFirmwareConfiguration,0
;   firmwareTypeOverride,RepRap (Marlin/Repetier/Sprinter)
;   GPXconfigOverride,r2
;   baudRateOverride,115200
;   overridePrinterModels,0
;   printerModelsOverride
;   startingGcode,;G28 XY ; HOME XY,;M561 ; Clear any bed transform,G1 X100 Y80 Z25; move to center of bed,G30 ;Do a single Z probe,G29 S1 ; Load bed compensating height map,;G1 Z10; ,M572 D0 S0.15
;   layerChangeGcode,
;   retractionGcode,
;   toolChangeGcode,
;   endingGcode,G10 S5; retract filament to relieve pressure,M104 S0 ; turn off extruder,M140 S0 ; turn off bed,G91 G1 Z10 ; Clearance from part,G90 G1 X0 Y0 ; Go to starting position (X0 Y0 Z300),M84 ; disable motor,M107; Turn off fan
;   exportFileFormat,gcode
;   celebration,0
;   celebrationSong,Random Song
;   postProcessing,
;   defaultSpeed,3600
;   outlineUnderspeed,0.8
;   solidInfillUnderspeed,1
;   supportUnderspeed,1
;   rapidXYspeed,3600
;   rapidZspeed,1800
;   minBridgingArea,10
;   bridgingExtraInflation,5
;   bridgingExtrusionMultiplier,0.9
;   bridgingSpeedMultiplier,0.6
;   useFixedBridgingAngle,0
;   fixedBridgingAngle,0
;   applyBridgingToPerimeters,1
;   filamentDiameters,1.75|1.75|1.75|1.75|1.75|1.75
;   filamentPricesPerKg,20|46|46|46|46|46
;   filamentDensities,1.33|1.25|1.25|1.25|1.25|1.25
;   useMinPrintHeight,0
;   minPrintHeight,22
;   useMaxPrintHeight,0
;   maxPrintHeight,60
;   useDiaphragm,0
;   diaphragmLayerInterval,20
;   robustSlicing,1
;   mergeAllIntoSolid,0
;   onlyRetractWhenCrossingOutline,1
;   retractBetweenLayers,0
;   useRetractionMinTravel,0
;   retractionMinTravel,3
;   retractWhileWiping,0
;   onlyWipeOutlines,1
;   avoidCrossingOutline,0
;   maxMovementDetourFactor,3
;   toolChangeRetractionDistance,12
;   toolChangeExtraRestartDistance,-0.5
;   toolChangeRetractionSpeed,600
;   externalThinWallType,1
;   internalThinWallType,1
;   thinWallAllowedOverlapPercentage,30
;   singleExtrusionMinLength,1
;   singleExtrusionMinPrintingWidthPercentage,50
;   singleExtrusionMaxPrintingWidthPercentage,200
;   singleExtrusionEndpointExtension,0.2
;   horizontalSizeCompensation,0
G90
M82
M106 S0
M140 S60
M190 S60
M104 S210 T0
M109 S210 T0
;G28 XY ; HOME XY
;M561 ; Clear any bed transform
G1 X100 Y80 Z25; move to center of bed
G30 ;Do a single Z probe
G29 S1 ; Load bed compensating height map
;G1 Z10; 
M572 D0 S0.15
; process general PLA fine
; layer 1, Z = 0.180
T0
; feature skirt
; tool H0.180 W0.552
G1 Z0.180 F1800
G1 X187.577 Y97.027 F3600
G92 E0.0000
G1 X187.572 Y97.091 E0.0027 F2340
G1 X187.146 Y101.180 E0.1759
G1 X187.138 Y101.247 E0.1788
G1 X186.531 Y105.224 E0.3483
G1 X186.520 Y105.289 E0.3511
G1 X185.729 Y109.234 E0.5206
G1 X185.715 Y109.298 E0.5234
G1 X184.742 Y113.202 E0.6929
G1 X184.724 Y113.265 E0.6956
G1 X183.570 Y117.119 E0.8652
G1 X183.550 Y117.182 E0.8679
G1 X182.218 Y120.978 E1.0374
G1 X182.195 Y121.039 E1.0402
G1 X180.688 Y124.769 E1.2097
G1 X180.662 Y124.830 E1.2125
G1 X178.983 Y128.486 E1.3820
G1 X178.954 Y128.545 E1.3848
G1 X177.107 Y132.119 E1.5543
G1 X177.075 Y132.177 E1.5571
G1 X175.064 Y135.661 E1.7266
G1 X175.029 Y135.717 E1.7294
G1 X172.858 Y139.104 E1.8989
G1 X172.821 Y139.158 E1.9016
G1 X170.494 Y142.440 E2.0712
G1 X170.455 Y142.493 E2.0739
G1 X167.978 Y145.663 E2.2434
G1 X167.937 Y145.714 E2.2462
G1 X165.315 Y148.766 E2.4157
G1 X165.271 Y148.815 E2.4185
G1 X162.510 Y151.741 E2.5880
G1 X162.464 Y151.788 E2.5908
G1 X159.570 Y154.582 E2.7603
G1 X159.522 Y154.627 E2.7631
G1 X156.501 Y157.284 E2.9326
G1 X156.450 Y157.326 E2.9354
G1 X153.309 Y159.840 E3.1049
G1 X153.257 Y159.880 E3.1076
G1 X150.002 Y162.244 E3.2771
G1 X149.948 Y162.282 E3.2799
G1 X146.587 Y164.492 E3.4494
G1 X146.531 Y164.527 E3.4522
G1 X143.071 Y166.579 E3.6217
G1 X143.013 Y166.611 E3.6245
G1 X139.461 Y168.500 E3.7940
G1 X139.402 Y168.530 E3.7968
G1 X135.766 Y170.251 E3.9663
G1 X135.706 Y170.278 E3.9691
G1 X131.994 Y171.828 E4.1386
G1 X131.932 Y171.852 E4.1413
G1 X128.152 Y173.228 E4.3109
G1 X128.090 Y173.249 E4.3136
G1 X124.249 Y174.448 E4.4831
G1 X124.186 Y174.466 E4.4859
G1 X120.294 Y175.484 E4.6554
G1 X120.230 Y175.500 E4.6582
G1 X116.295 Y176.336 E4.8277
G1 X116.230 Y176.348 E4.8305
G1 X112.260 Y177.001 E5.0000
G1 X112.195 Y177.010 E5.0028
G1 X108.199 Y177.477 E5.1723
G1 X108.134 Y177.483 E5.1751
G1 X104.121 Y177.764 E5.3446
G1 X104.055 Y177.767 E5.3473
G1 X100.033 Y177.860 E5.5169
G1 X99.967 Y177.860 E5.5196
G1 X95.945 Y177.767 E5.6891
G1 X95.879 Y177.764 E5.6919
G1 X91.866 Y177.483 E5.8614
G1 X91.801 Y177.477 E5.8642
G1 X87.805 Y177.010 E6.0337
G1 X87.740 Y177.001 E6.0365
G1 X83.770 Y176.348 E6.2060
G1 X83.705 Y176.336 E6.2088
G1 X79.857 Y175.518 E6.3745
G1 X79.794 Y175.503 E6.3773
G1 X75.816 Y174.466 E6.5505
G1 X75.751 Y174.448 E6.5533
G1 X71.910 Y173.249 E6.7228
G1 X71.848 Y173.228 E6.7256
G1 X68.068 Y171.852 E6.8951
G1 X68.006 Y171.828 E6.8979
G1 X64.294 Y170.278 E7.0674
G1 X64.234 Y170.251 E7.0702
G1 X60.598 Y168.530 E7.2397
G1 X60.539 Y168.500 E7.2425
G1 X56.987 Y166.611 E7.4120
G1 X56.929 Y166.579 E7.4148
G1 X53.469 Y164.527 E7.5843
G1 X53.413 Y164.492 E7.5870
G1 X50.052 Y162.282 E7.7566
G1 X49.998 Y162.244 E7.7593
G1 X46.743 Y159.880 E7.9288
G1 X46.691 Y159.840 E7.9316
G1 X43.550 Y157.326 E8.1011
G1 X43.499 Y157.284 E8.1039
G1 X40.478 Y154.627 E8.2734
G1 X40.430 Y154.582 E8.2762
G1 X37.536 Y151.788 E8.4457
G1 X37.490 Y151.741 E8.4485
G1 X34.729 Y148.815 E8.6180
G1 X34.685 Y148.766 E8.6208
G1 X32.121 Y145.781 E8.7865
G1 X32.080 Y145.732 E8.7892
G1 X29.546 Y142.495 E8.9625
G1 X29.506 Y142.441 E8.9653
G1 X27.179 Y139.158 E9.1348
G1 X27.142 Y139.104 E9.1376
G1 X24.971 Y135.717 E9.3071
G1 X24.936 Y135.661 E9.3099
G1 X22.925 Y132.177 E9.4794
G1 X22.893 Y132.119 E9.4822
G1 X21.046 Y128.545 E9.6517
G1 X21.017 Y128.486 E9.6545
G1 X19.338 Y124.830 E9.8240
G1 X19.312 Y124.769 E9.8267
G1 X17.805 Y121.039 E9.9963
G1 X17.782 Y120.978 E9.9990
G1 X16.450 Y117.182 E10.1685
G1 X16.430 Y117.119 E10.1713
G1 X15.276 Y113.265 E10.3408
G1 X15.258 Y113.202 E10.3436
G1 X14.285 Y109.298 E10.5131
G1 X14.271 Y109.234 E10.5159
G1 X13.480 Y105.289 E10.6854
G1 X13.469 Y105.224 E10.6882
G1 X12.862 Y101.247 E10.8577
G1 X12.854 Y101.182 E10.8605
G1 X12.434 Y97.181 E11.0300
G1 X12.428 Y97.115 E11.0327
G1 X12.194 Y93.099 E11.2023
G1 X12.192 Y93.033 E11.2050
G1 X12.145 Y89.011 E11.3745
G1 X12.146 Y88.945 E11.3773
G1 X12.286 Y84.924 E11.5468
G1 X12.290 Y84.859 E11.5496
G1 X12.617 Y80.849 E11.7191
G1 X12.624 Y80.783 E11.7219
G1 X13.138 Y76.793 E11.8914
G1 X13.148 Y76.728 E11.8942
G1 X13.846 Y72.766 E12.0637
G1 X13.859 Y72.702 E12.0665
G1 X14.741 Y68.777 E12.2360
G1 X14.757 Y68.713 E12.2387
G1 X15.821 Y64.833 E12.4083
G1 X15.840 Y64.770 E12.4110
G1 X17.083 Y60.944 E12.5805
G1 X17.105 Y60.882 E12.5833
G1 X18.525 Y57.117 E12.7528
G1 X18.550 Y57.056 E12.7556
G1 X20.143 Y53.362 E12.9251
G1 X20.171 Y53.303 E12.9279
G1 X21.934 Y49.687 E13.0974
G1 X21.964 Y49.628 E13.1002
G1 X23.894 Y46.098 E13.2697
G1 X23.927 Y46.041 E13.2724
G1 X26.019 Y42.605 E13.4420
G1 X26.055 Y42.550 E13.4447
G1 X28.304 Y39.214 E13.6142
G1 X28.342 Y39.161 E13.6170
G1 X30.745 Y35.934 E13.7865
G1 X30.785 Y35.882 E13.7893
G1 X33.335 Y32.770 E13.9588
G1 X33.378 Y32.720 E13.9616
G1 X36.070 Y29.730 E14.1311
G1 X36.115 Y29.683 E14.1339
G1 X38.943 Y26.821 E14.3034
G1 X38.991 Y26.776 E14.3062
G1 X41.949 Y24.049 E14.4757
G1 X41.998 Y24.006 E14.4784
G1 X45.080 Y21.420 E14.6480
G1 X45.132 Y21.379 E14.6507
G1 X48.330 Y18.939 E14.8202
G1 X48.384 Y18.900 E14.8230
G1 X51.692 Y16.612 E14.9925
G1 X51.747 Y16.576 E14.9953
G1 X55.159 Y14.444 E15.1648
G1 X55.216 Y14.410 E15.1676
G1 X58.723 Y12.439 E15.3371
G1 X58.781 Y12.408 E15.3399
G1 X62.376 Y10.603 E15.5094
G1 X62.436 Y10.575 E15.5122
G1 X66.111 Y8.938 E15.6817
G1 X66.172 Y8.913 E15.6844
G1 X69.919 Y7.450 E15.8540
G1 X69.981 Y7.427 E15.8567
G1 X73.792 Y6.139 E16.0262
G1 X73.855 Y6.120 E16.0290
G1 X77.722 Y5.011 E16.1985
G1 X77.786 Y4.994 E16.2013
G1 X81.701 Y4.066 E16.3708
G1 X81.765 Y4.053 E16.3736
G1 X85.719 Y3.308 E16.5431
G1 X85.783 Y3.297 E16.5459
G1 X89.767 Y2.738 E16.7154
G1 X89.833 Y2.730 E16.7181
G1 X93.838 Y2.356 E16.8877
G1 X93.904 Y2.351 E16.8904
G1 X97.915 Y2.165 E17.0596
G1 X97.965 Y2.163 E17.0617
G1 X100.029 Y2.140 E17.1487
G1 X100.061 Y2.140 E17.1500
G1 X102.036 Y2.163 E17.2333
G1 X102.086 Y2.165 E17.2354
G1 X106.096 Y2.351 E17.4045
G1 X106.162 Y2.356 E17.4073
G1 X110.167 Y2.730 E17.5768
G1 X110.233 Y2.738 E17.5796
G1 X114.217 Y3.297 E17.7491
G1 X114.281 Y3.308 E17.7519
G1 X118.235 Y4.053 E17.9214
G1 X118.299 Y4.066 E17.9242
G1 X122.214 Y4.994 E18.0937
G1 X122.278 Y5.011 E18.0964
G1 X126.145 Y6.120 E18.2660
G1 X126.208 Y6.139 E18.2687
G1 X130.019 Y7.427 E18.4382
G1 X130.081 Y7.450 E18.4410
G1 X133.828 Y8.913 E18.6105
G1 X133.889 Y8.938 E18.6133
G1 X137.564 Y10.575 E18.7828
G1 X137.624 Y10.603 E18.7856
G1 X141.219 Y12.408 E18.9551
G1 X141.277 Y12.439 E18.9579
G1 X144.784 Y14.410 E19.1274
G1 X144.841 Y14.444 E19.1302
G1 X148.253 Y16.576 E19.2997
G1 X148.308 Y16.612 E19.3024
G1 X151.616 Y18.900 E19.4719
G1 X151.670 Y18.939 E19.4747
G1 X154.868 Y21.379 E19.6442
G1 X154.920 Y21.420 E19.6470
G1 X158.002 Y24.006 E19.8165
G1 X158.051 Y24.049 E19.8193
G1 X161.009 Y26.776 E19.9888
G1 X161.057 Y26.821 E19.9916
G1 X163.885 Y29.683 E20.1611
G1 X163.930 Y29.730 E20.1639
G1 X166.622 Y32.720 E20.3334
G1 X166.665 Y32.770 E20.3361
G1 X169.215 Y35.882 E20.5057
G1 X169.255 Y35.934 E20.5084
G1 X171.658 Y39.161 E20.6779
G1 X171.696 Y39.214 E20.6807
G1 X173.945 Y42.550 E20.8502
G1 X173.981 Y42.605 E20.8530
G1 X176.073 Y46.041 E21.0225
G1 X176.106 Y46.098 E21.0253
G1 X178.036 Y49.628 E21.1948
G1 X178.066 Y49.687 E21.1976
G1 X179.829 Y53.303 E21.3671
G1 X179.857 Y53.362 E21.3699
G1 X181.450 Y57.056 E21.5394
G1 X181.475 Y57.117 E21.5421
G1 X182.895 Y60.882 E21.7117
G1 X182.917 Y60.944 E21.7144
G1 X184.160 Y64.770 E21.8839
G1 X184.179 Y64.833 E21.8867
G1 X185.243 Y68.713 E22.0562
G1 X185.259 Y68.777 E22.0590
G1 X186.141 Y72.702 E22.2285
G1 X186.154 Y72.766 E22.2313
G1 X186.852 Y76.728 E22.4008
G1 X186.862 Y76.793 E22.4036
G1 X187.376 Y80.783 E22.5731
G1 X187.382 Y80.849 E22.5759
G1 X187.710 Y84.859 E22.7454
G1 X187.714 Y84.924 E22.7481
G1 X187.854 Y88.945 E22.9176
G1 X187.855 Y89.011 E22.9204
G1 X187.808 Y93.033 E23.0899
G1 X187.806 Y93.099 E23.0927
G1 X187.577 Y97.027 E23.2585
G92 E0.0000
G1 E-2.0000 F3000
G1 X187.026 Y96.989 F3600
G1 E0.0000 F3000
G92 E0.0000
G1 X187.022 Y97.040 E0.0022 F2340
G1 X186.598 Y101.116 E0.1748
G1 X186.591 Y101.170 E0.1771
G1 X185.987 Y105.135 E0.3461
G1 X185.977 Y105.187 E0.3483
G1 X185.189 Y109.119 E0.5173
G1 X185.178 Y109.171 E0.5196
G1 X184.208 Y113.062 E0.6885
G1 X184.194 Y113.113 E0.6908
G1 X183.043 Y116.955 E0.8597
G1 X183.027 Y117.005 E0.8620
G1 X181.699 Y120.789 E1.0309
G1 X181.681 Y120.838 E1.0332
G1 X180.178 Y124.557 E1.2021
G1 X180.157 Y124.606 E1.2044
G1 X178.484 Y128.250 E1.3733
G1 X178.461 Y128.297 E1.3756
G1 X176.619 Y131.860 E1.5446
G1 X176.594 Y131.906 E1.5468
G1 X174.589 Y135.379 E1.7157
G1 X174.561 Y135.424 E1.7180
G1 X172.397 Y138.800 E1.8870
G1 X172.367 Y138.844 E1.8892
G1 X170.048 Y142.116 E2.0582
G1 X170.016 Y142.158 E2.0604
G1 X167.547 Y145.318 E2.2294
G1 X167.514 Y145.359 E2.2316
G1 X164.900 Y148.401 E2.4006
G1 X164.865 Y148.441 E2.4028
G1 X162.113 Y151.357 E2.5718
G1 X162.076 Y151.395 E2.5740
G1 X159.191 Y154.181 E2.7430
G1 X159.152 Y154.216 E2.7452
G1 X156.141 Y156.865 E2.9142
G1 X156.101 Y156.899 E2.9164
G1 X152.970 Y159.405 E3.0854
G1 X152.927 Y159.437 E3.0876
G1 X149.683 Y161.794 E3.2566
G1 X149.639 Y161.824 E3.2588
G1 X146.289 Y164.028 E3.4278
G1 X146.244 Y164.056 E3.4300
G1 X142.794 Y166.101 E3.5990
G1 X142.749 Y166.127 E3.6012
G1 X139.207 Y168.010 E3.7702
G1 X139.160 Y168.034 E3.7724
G1 X135.536 Y169.749 E3.9414
G1 X135.487 Y169.771 E3.9436
G1 X131.787 Y171.316 E4.1126
G1 X131.738 Y171.336 E4.1148
G1 X127.969 Y172.707 E4.2838
G1 X127.919 Y172.724 E4.2860
G1 X124.091 Y173.919 E4.4550
G1 X124.040 Y173.934 E4.4572
G1 X120.161 Y174.949 E4.6262
G1 X120.109 Y174.961 E4.6284
G1 X116.186 Y175.795 E4.7974
G1 X116.134 Y175.805 E4.7996
G1 X112.177 Y176.455 E4.9686
G1 X112.125 Y176.462 E4.9708
G1 X108.142 Y176.928 E5.1398
G1 X108.089 Y176.933 E5.1420
G1 X104.088 Y177.213 E5.3110
G1 X104.036 Y177.215 E5.3132
G1 X100.027 Y177.308 E5.4822
G1 X99.973 Y177.308 E5.4844
G1 X95.964 Y177.215 E5.6534
G1 X95.912 Y177.213 E5.6556
G1 X91.911 Y176.933 E5.8246
G1 X91.858 Y176.928 E5.8268
G1 X87.875 Y176.462 E5.9958
G1 X87.823 Y176.455 E5.9981
G1 X83.866 Y175.805 E6.1670
