; G-Code generated by Simplify3D(R) Version 4.0.0
; Jul 21, 2018 at 4:27:27 PM
; Settings Summary
;   processName,Process1
;   applyToModels,Secondary mirror mount
;   profileName,BortBot (modified)
;   profileVersion,2018-03-11 18:52:45
;   baseProfile,Default
;   printMaterial,PLA
;   printQuality,Medium
;   printExtruders,
;   extruderName,Extruder 1
;   extruderToolheadNumber,0
;   extruderDiameter,0.5
;   extruderAutoWidth,0
;   extruderWidth,0.6
;   extrusionMultiplier,1.03
;   extruderUseRetract,1
;   extruderRetractionDistance,1.4
;   extruderExtraRestartDistance,0
;   extruderRetractionZLift,0
;   extruderRetractionSpeed,6000
;   extruderUseCoasting,1
;   extruderCoastingDistance,1.2
;   extruderUseWipe,1
;   extruderWipeDistance,4.4
;   primaryExtruder,0
;   layerHeight,0.2
;   topSolidLayers,3
;   bottomSolidLayers,3
;   perimeterOutlines,4
;   printPerimetersInsideOut,0
;   startPointOption,2
;   startPointOriginX,0
;   startPointOriginY,0
;   sequentialIslands,0
;   spiralVaseMode,0
;   firstLayerHeightPercentage,100
;   firstLayerWidthPercentage,100
;   firstLayerUnderspeed,0.75
;   useRaft,0
;   raftExtruder,0
;   raftTopLayers,2
;   raftBaseLayers,2
;   raftOffset,3
;   raftSeparationDistance,0.3
;   raftTopInfill,90
;   aboveRaftSpeedMultiplier,0.3
;   useSkirt,1
;   skirtExtruder,0
;   skirtLayers,1
;   skirtOutlines,2
;   skirtOffset,3
;   usePrimePillar,0
;   primePillarExtruder,999
;   primePillarWidth,12
;   primePillarLocation,7
;   primePillarSpeedMultiplier,1
;   useOozeShield,0
;   oozeShieldExtruder,999
;   oozeShieldOffset,2
;   oozeShieldOutlines,1
;   oozeShieldSidewallShape,1
;   oozeShieldSidewallAngle,30
;   oozeShieldSpeedMultiplier,1
;   infillExtruder,0
;   internalInfillPattern,Rectilinear
;   externalInfillPattern,Rectilinear
;   infillPercentage,40
;   outlineOverlapPercentage,35
;   infillExtrusionWidthPercentage,90
;   minInfillLength,5
;   infillLayerInterval,2
;   internalInfillAngles,45,-45
;   overlapInternalInfillAngles,0
;   externalInfillAngles,45,-45
;   generateSupport,0
;   supportExtruder,0
;   supportInfillPercentage,30
;   supportExtraInflation,0
;   supportBaseLayers,1
;   denseSupportExtruder,0
;   denseSupportLayers,4
;   denseSupportInfillPercentage,90
;   supportLayerInterval,2
;   supportHorizontalPartOffset,0.4
;   supportUpperSeparationLayers,1
;   supportLowerSeparationLayers,2
;   supportType,0
;   supportGridSpacing,1
;   maxOverhangAngle,46
;   supportAngles,30
;   temperatureName,Extruder 1,Heated Bed
;   temperatureNumber,0,1
;   temperatureSetpointCount,1,1
;   temperatureSetpointLayers,1,1
;   temperatureSetpointTemperatures,245,60
;   temperatureStabilizeAtStartup,1,1
;   temperatureHeatedBed,0,1
;   temperatureRelayBetweenLayers,1,0
;   temperatureRelayBetweenLoops,1,0
;   fanLayers,1,3
;   fanSpeeds,0,40
;   blipFanToFullPower,0
;   adjustSpeedForCooling,1
;   minSpeedLayerTime,15
;   minCoolingSpeedSlowdown,20
;   increaseFanForCooling,1
;   minFanLayerTime,45
;   maxCoolingFanSpeed,100
;   increaseFanForBridging,1
;   bridgingFanSpeed,100
;   use5D,1
;   relativeEdistances,0
;   allowEaxisZeroing,1
;   independentExtruderAxes,0
;   includeM10123,0
;   stickySupport,1
;   applyToolheadOffsets,0
;   gcodeXoffset,0
;   gcodeYoffset,0
;   gcodeZoffset,0
;   overrideMachineDefinition,0
;   machineTypeOverride,0
;   strokeXoverride,100
;   strokeYoverride,100
;   strokeZoverride,100
;   originOffsetXoverride,0
;   originOffsetYoverride,0
;   originOffsetZoverride,0
;   homeXdirOverride,-1
;   homeYdirOverride,-1
;   homeZdirOverride,-1
;   flipXoverride,1
;   flipYoverride,-1
;   flipZoverride,1
;   toolheadOffsets,0,0|0,0|0,0|0,0|0,0|0,0
;   overrideFirmwareConfiguration,0
;   firmwareTypeOverride,RepRap (Marlin/Repetier/Sprinter)
;   GPXconfigOverride,r2
;   baudRateOverride,115200
;   overridePrinterModels,0
;   printerModelsOverride
;   startingGcode,;G28  ; Home all,;M208S7; DISABLE THE PROBE,;G1 Z5; probe z clearance,;G1 X0 Y0; ,;M280S3; Enable the probe,;G32; probe the grid,;M374; save the grid,;G1 Z20 ; Set Z20 for ooze
;   layerChangeGcode,
;   retractionGcode,
;   toolChangeGcode,
;   endingGcode,G10 S2.5; retract filament to relieve pressure,M104 S0 ; turn off extruder,M140 S0 ; turn off bed,G91 G1 Z10 ; Clearance from part,G90 G1 X0 Y0 Z170 ; Go to starting position (X0 Y0 Z 170),;M84 ; disable motor,M107; Turn off fan
;   exportFileFormat,gcode
;   celebration,0
;   celebrationSong,Random Song
;   postProcessing,
;   defaultSpeed,2400
;   outlineUnderspeed,0.8
;   solidInfillUnderspeed,1
;   supportUnderspeed,1
;   rapidXYspeed,9000
;   rapidZspeed,1800
;   minBridgingArea,10
;   bridgingExtraInflation,5
;   bridgingExtrusionMultiplier,0.9
;   bridgingSpeedMultiplier,0.6
;   useFixedBridgingAngle,0
;   fixedBridgingAngle,0
;   applyBridgingToPerimeters,1
;   filamentDiameters,1.75|1.75|1.75|1.75|1.75|1.75
;   filamentPricesPerKg,12|46|46|46|46|46
;   filamentDensities,1.33|1.25|1.25|1.25|1.25|1.25
;   useMinPrintHeight,0
;   minPrintHeight,0
;   useMaxPrintHeight,0
;   maxPrintHeight,2.75
;   useDiaphragm,0
;   diaphragmLayerInterval,20
;   robustSlicing,1
;   mergeAllIntoSolid,0
;   onlyRetractWhenCrossingOutline,1
;   retractBetweenLayers,0
;   useRetractionMinTravel,0
;   retractionMinTravel,3
;   retractWhileWiping,1
;   onlyWipeOutlines,1
;   avoidCrossingOutline,0
;   maxMovementDetourFactor,3
;   toolChangeRetractionDistance,12
;   toolChangeExtraRestartDistance,-0.5
;   toolChangeRetractionSpeed,600
;   externalThinWallType,1
;   internalThinWallType,1
;   thinWallAllowedOverlapPercentage,10
;   singleExtrusionMinLength,1
;   singleExtrusionMinPrintingWidthPercentage,50
;   singleExtrusionMaxPrintingWidthPercentage,200
;   singleExtrusionEndpointExtension,0.2
;   horizontalSizeCompensation,0
G90
M82
M106 S0
M140 S60
M190 S60
M104 S245 T0
M109 S245 T0
;G28  ; Home all
;M208S7; DISABLE THE PROBE
;G1 Z5; probe z clearance
;G1 X0 Y0; 
;M280S3; Enable the probe
;G32; probe the grid
;M374; save the grid
;G1 Z20 ; Set Z20 for ooze
G92 E0
G1 E-1.4000 F6000
G1 Z0.200 F1800
; process Process1
; layer 1, Z = 0.200
M105
T0
; tool H0.200 W0.600
; skirt
G1 X31.264 Y33.195 F9000
G1 E0.0000 F1800
G92 E0
G1 X35.265 Y31.864 E0.2167 F1800
G1 X35.762 Y31.982 E0.2429
G1 X37.665 Y33.885 E0.3812
G1 X38.883 Y32.664 E0.4699
G1 X36.984 Y30.764 E0.6079
G1 X36.866 Y30.266 E0.6342
G1 X38.204 Y26.261 E0.8512
G1 X38.597 Y25.934 E0.8774
G1 X41.139 Y25.574 E1.0094
G1 X41.185 Y25.570 E1.0118
G1 X41.546 Y25.556 E1.0303
G1 X41.593 Y25.557 E1.0327
G1 X42.360 Y25.609 E1.0722
G1 X42.447 Y25.624 E1.0768
G1 X43.104 Y25.802 E1.1118
G1 X43.187 Y25.834 E1.1163
G1 X43.908 Y26.192 E1.1577
G1 X43.971 Y26.230 E1.1615
G1 X44.428 Y26.560 E1.1904
G1 X44.484 Y26.608 E1.1942
G1 X48.952 Y31.097 E1.5197
G1 X52.465 Y34.519 E1.7717
G1 X52.466 Y34.520 E1.7718
G1 X52.476 Y34.530 E1.7725
G1 X52.477 Y34.531 E1.7726
G1 X56.778 Y38.788 E2.0835
G1 X56.783 Y38.793 E2.0838
G1 X72.070 Y54.035 E3.1931
G1 X72.113 Y54.084 E3.1964
G1 X72.410 Y54.479 E3.2219
G1 X72.445 Y54.534 E3.2252
G1 X72.870 Y55.312 E3.2708
G1 X73.416 Y56.080 E3.3192
G1 X74.135 Y56.884 E3.3746
G1 X135.957 Y118.706 E7.8673
G1 X136.094 Y119.037 E7.8857
G1 X136.094 Y121.880 E8.0318
G1 X135.957 Y122.211 E8.0502
G1 X127.211 Y130.957 E8.6858
G1 X126.880 Y131.094 E8.7042
G1 X124.037 Y131.094 E8.8503
G1 X123.706 Y130.957 E8.8687
G1 X61.884 Y69.135 E13.3614
G1 X61.080 Y68.416 E13.4168
G1 X60.312 Y67.870 E13.4653
G1 X59.533 Y67.445 E13.5109
G1 X59.479 Y67.410 E13.5142
G1 X59.084 Y67.113 E13.5396
G1 X59.035 Y67.070 E13.5429
G1 X43.794 Y51.783 E14.6522
G1 X43.789 Y51.778 E14.6525
G1 X39.531 Y47.477 E14.9635
G1 X39.530 Y47.476 E14.9636
G1 X39.520 Y47.466 E14.9643
G1 X39.519 Y47.465 E14.9643
G1 X36.109 Y43.965 E15.2155
G1 X31.597 Y39.553 E15.5397
G1 X31.550 Y39.499 E15.5434
G1 X31.222 Y39.057 E15.5717
G1 X31.185 Y38.996 E15.5754
G1 X30.841 Y38.334 E15.6137
G1 X30.809 Y38.254 E15.6181
G1 X30.623 Y37.626 E15.6518
G1 X30.606 Y37.543 E15.6562
G1 X30.534 Y36.820 E15.6935
G1 X30.532 Y36.765 E15.6963
G1 X30.541 Y36.347 E15.7178
G1 X30.546 Y36.292 E15.7206
G1 X30.838 Y34.266 E15.8258
G1 X30.936 Y33.587 F1800
G1 X31.264 Y33.195 F1800
G1 X31.615 Y33.711 F9000
G92 E0
G1 X35.292 Y32.487 E0.1992 F1800
G1 X35.458 Y32.527 E0.2079
G1 X37.665 Y34.733 E0.3683
G1 X39.731 Y32.663 E0.5186
G1 X37.529 Y30.460 E0.6787
G1 X37.490 Y30.294 E0.6875
G1 X38.719 Y26.613 E0.8869
G1 X38.850 Y26.504 E0.8957
G1 X41.207 Y26.170 E1.0180
G1 X41.223 Y26.169 E1.0188
G1 X41.552 Y26.157 E1.0357
G1 X41.568 Y26.157 E1.0365
G1 X42.290 Y26.206 E1.0737
G1 X42.319 Y26.211 E1.0752
G1 X42.919 Y26.374 E1.1072
G1 X42.946 Y26.384 E1.1087
G1 X43.619 Y26.718 E1.1473
G1 X43.640 Y26.731 E1.1486
G1 X44.057 Y27.032 E1.1750
G1 X44.076 Y27.048 E1.1763
G1 X48.530 Y31.524 E1.5007
G1 X52.046 Y34.949 E1.7530
G1 X52.055 Y34.958 E1.7536
G1 X56.355 Y39.214 E2.0645
G1 X56.360 Y39.218 E2.0648
G1 X71.632 Y54.445 E3.1730
G1 X71.646 Y54.461 E3.1741
G1 X71.917 Y54.822 E3.1973
G1 X71.928 Y54.840 E3.1984
G1 X72.361 Y55.631 E3.2447
G1 X72.946 Y56.455 E3.2966
G1 X73.699 Y57.297 E3.3546
G1 X135.448 Y119.046 E7.8421
G1 X135.494 Y119.156 E7.8482
G1 X135.494 Y121.761 E7.9821
G1 X135.448 Y121.871 E7.9882
G1 X126.871 Y130.448 E8.6115
G1 X126.761 Y130.494 E8.6176
G1 X124.156 Y130.494 E8.7515
G1 X124.046 Y130.448 E8.7576
G1 X62.297 Y68.699 E13.2450
G1 X61.455 Y67.946 E13.3031
G1 X60.631 Y67.361 E13.3550
G1 X59.840 Y66.928 E13.4013
G1 X59.822 Y66.917 E13.4024
G1 X59.461 Y66.646 E13.4256
G1 X59.445 Y66.632 E13.4267
G1 X44.219 Y51.360 E14.5349
G1 X44.214 Y51.356 E14.5352
G1 X39.958 Y47.056 E14.8461
G1 X39.949 Y47.046 E14.8467
G1 X36.534 Y43.541 E15.0982
G1 X32.034 Y39.141 E15.4216
G1 X32.018 Y39.123 E15.4228
G1 X31.719 Y38.719 E15.4487
G1 X31.706 Y38.699 E15.4499
G1 X31.387 Y38.083 E15.4855
G1 X31.376 Y38.056 E15.4870
G1 X31.206 Y37.483 E15.5177
G1 X31.201 Y37.455 E15.5192
G1 X31.133 Y36.778 E15.5541
G1 X31.133 Y36.760 E15.5551
G1 X31.141 Y36.378 E15.5747
G1 X31.142 Y36.360 E15.5756
G1 X31.359 Y34.857 E15.6537
G1 X31.505 Y33.841 F1800
G1 X31.615 Y33.711 F1800
G92 E0
G1 E-1.4000 F6000
; outer perimeter
G1 X37.605 Y39.080 F9000
G1 E0.0000 F6000
G92 E0
G1 X37.829 Y39.090 E0.0115 F1440
G1 X38.116 Y39.061 E0.0263
G1 X38.281 Y39.018 E0.0351
G1 X38.545 Y38.899 E0.0500
G1 X38.764 Y38.729 E0.0642
G1 X43.804 Y33.679 E0.4308
G1 X43.889 Y33.560 E0.4383
G1 X44.003 Y33.326 E0.4517
G1 X44.071 Y33.059 E0.4659
G1 X44.100 Y32.626 E0.4882
G1 X44.426 Y32.503 E0.5061
G1 X45.998 Y34.083 E0.6206
G1 X49.528 Y37.522 E0.8739
G1 X53.820 Y41.770 E1.1842
G1 X68.899 Y56.804 E2.2784
G1 X69.303 Y57.543 E2.3217
G1 X70.128 Y58.704 E2.3948
G1 X71.082 Y59.771 E2.4684
G1 X131.769 Y120.458 E6.8787
G1 X125.458 Y126.769 E7.3373
G1 X64.771 Y66.082 E11.7475
G1 X63.704 Y65.128 E11.8211
G1 X62.543 Y64.303 E11.8943
G1 X61.804 Y63.899 E11.9376
G1 X46.770 Y48.820 E13.0317
G1 X42.522 Y44.528 E13.3421
G1 X39.082 Y40.997 E13.5954
G1 X38.053 Y39.999 E13.6691
G1 X37.458 Y39.422 F1440
G1 X37.605 Y39.080 F1440
G1 X37.829 Y39.090 F2400
G1 X38.116 Y39.061 F2400
G1 X38.281 Y39.018 F2400
G1 X38.545 Y38.899 F2400
G1 X38.764 Y38.729 F2400
G1 X40.989 Y36.499 F2400
; inner perimeter
G1 X39.162 Y39.179 F9000
G92 E0
G1 X44.263 Y34.068 E0.3711 F1620
G1 X44.406 Y33.868 E0.3837
G1 X44.581 Y33.510 E0.4042
G1 X45.576 Y34.509 E0.4767
G1 X49.108 Y37.950 E0.7301
G1 X53.399 Y42.197 E1.0403
G1 X68.414 Y57.168 E2.1299
G1 X68.794 Y57.862 E2.1705
G1 X69.658 Y59.079 E2.2473
G1 X70.646 Y60.184 E2.3234
G1 X130.921 Y120.458 E6.7037
G1 X125.458 Y125.921 E7.1007
G1 X65.184 Y65.646 E11.4809
G1 X64.079 Y64.658 E11.5571
G1 X62.862 Y63.794 E11.6338
G1 X62.168 Y63.414 E11.6745
G1 X47.197 Y48.399 E12.7640
G1 X42.949 Y44.107 E13.0743
G1 X39.505 Y40.572 E13.3279
G1 X38.779 Y39.867 E13.3800
G1 X38.486 Y39.584 F1620
G1 X38.857 Y39.416 F1620
G1 X39.162 Y39.179 F1620
G1 X39.479 Y39.711 F9000
G92 E0
G1 X44.700 Y34.480 E0.3798 F1620
G1 X45.154 Y34.936 E0.4128
G1 X48.688 Y38.379 E0.6664
G1 X52.975 Y42.622 E0.9763
G1 X67.930 Y57.532 E2.0615
G1 X68.284 Y58.180 E2.0995
G1 X69.188 Y59.454 E2.1797
G1 X70.210 Y60.596 E2.2585
G1 X130.072 Y120.458 E6.6088
G1 X125.458 Y125.072 E6.9441
G1 X65.596 Y65.210 E11.2944
G1 X64.454 Y64.188 E11.3732
G1 X63.180 Y63.284 E11.4534
G1 X62.532 Y62.930 E11.4914
G1 X47.622 Y47.975 E12.5766
G1 X43.379 Y43.688 E12.8865
G1 X40.329 Y40.558 E13.1111
G1 X39.929 Y40.147 F1620
G1 X39.479 Y39.711 F1620
G1 X40.334 Y39.703 F9000
G92 E0
G1 X44.699 Y35.330 E0.3175 F1620
G1 X48.267 Y38.806 E0.5735
G1 X52.552 Y43.047 E0.8833
G1 X67.445 Y57.896 E1.9640
G1 X67.775 Y58.499 E1.9993
G1 X68.718 Y59.829 E2.0831
G1 X69.774 Y61.009 E2.1644
G1 X129.224 Y120.458 E6.4848
G1 X125.458 Y124.224 E6.7584
G1 X66.009 Y64.774 E11.0787
G1 X64.829 Y63.718 E11.1601
G1 X63.499 Y62.775 E11.2439
G1 X62.896 Y62.445 E11.2792
G1 X48.047 Y47.552 E12.3599
G1 X43.807 Y43.268 E12.6697
G1 X41.172 Y40.563 E12.8637
G1 X40.334 Y39.703 F1620
G92 E0
G1 E-1.4000 F6000
; external single extrusion
G1 X37.054 Y39.276 F9000
G1 E0.0000 F6000
G92 E0
; tool H0.200 W0.553
G1 X36.987 Y38.943 E0.0292 F1440
; tool H0.200 W0.626
G1 X36.901 Y38.867 E0.0354
; tool H0.200 W0.603
G1 X36.807 Y38.800 E0.0414
; tool H0.200 W0.570
G1 X36.714 Y38.731 E0.0470
; tool H0.200 W0.545
G1 X36.625 Y38.658 E0.0524
; tool H0.200 W0.525
G1 X36.536 Y38.586 E0.0576
; tool H0.200 W0.508
G1 X36.448 Y38.511 E0.0626
; tool H0.200 W0.495
G1 X36.280 Y38.356 E0.0723
; tool H0.200 W0.489
G1 X36.197 Y38.277 E0.0771
; tool H0.200 W0.491
G1 X35.870 Y37.955 E0.0963
; tool H0.200 W0.495
G1 X35.790 Y37.876 E0.1011
G1 X35.707 Y37.793 E0.1061
G1 X35.212 Y37.298 E0.1358
G1 X34.780 Y36.866 F1440
; tool H0.200 W0.497
G1 X34.722 Y36.810 F1440
; tool H0.200 W0.492
G1 X34.703 Y36.782 F1440
; tool H0.200 W0.464
G1 X34.666 Y36.714 F1440
; tool H0.200 W0.418
G1 X34.633 Y36.646 F1440
; tool H0.200 W0.353
G1 X34.605 Y36.561 F1440
; tool H0.200 W0.300
G1 X34.569 Y36.451 F1440
G1 X34.532 Y36.341 F1440
G92 E0
G1 E-1.4000 F6000
G1 X41.704 Y29.656 F9000
G1 E0.0000 F6000
; tool H0.200 W0.600
G92 E0
; tool H0.200 W0.439
G1 X43.261 Y31.217 E0.0829 F1440
G1 X43.343 Y31.302 E0.0874
; tool H0.200 W0.444
G1 X43.424 Y31.388 E0.0919
; tool H0.200 W0.451
G1 X43.469 Y31.437 E0.0944
G1 X43.504 Y31.475 F1440
; tool H0.200 W0.465
G1 X43.581 Y31.565 F1440
; tool H0.200 W0.484
G1 X43.657 Y31.655 F1440
; tool H0.200 W0.508
G1 X43.731 Y31.749 F1440
; tool H0.200 W0.538
G1 X43.802 Y31.844 F1440
; tool H0.200 W0.571
G1 X43.873 Y31.939 F1440
; tool H0.200 W0.598
G1 X43.949 Y32.030 F1440
; tool H0.200 W0.533
G1 X44.086 Y32.060 F1440
; tool H0.200 W0.381
G1 X44.223 Y32.090 F1440
; tool H0.200 W0.300
G1 X44.361 Y32.120 F1440
G1 X44.375 Y32.123 F1440
; tool H0.200 W0.600
; solid layer
G1 X44.491 Y36.091 F9000
G92 E0
G1 X68.268 Y59.867 E1.7279 F1800
G1 X68.413 Y60.072 E1.7408
G1 X69.491 Y61.277 E1.8239
G1 X128.672 Y120.458 E6.1247
G1 X128.341 Y120.789 E6.1488
G1 X44.067 Y36.515 E12.2731
G1 X43.643 Y36.940 E12.3040
G1 X127.917 Y121.214 E18.4283
G1 X127.493 Y121.638 E18.4591
G1 X43.219 Y37.365 E24.5834
G1 X42.796 Y37.789 E24.6143
G1 X127.068 Y122.062 E30.7385
G1 X126.644 Y122.486 E30.7694
G1 X42.372 Y38.214 E36.8936
G1 X41.948 Y38.639 E36.9245
G1 X126.220 Y122.911 E43.0487
G1 X125.796 Y123.335 E43.0795
G1 X41.524 Y39.063 E49.2037
G1 X41.100 Y39.488 E49.2345
G1 X64.061 Y62.449 E50.9032
G1 X64.910 Y63.298 F1800
; layer 2, Z = 0.400
M105
; outer perimeter
G1 X63.846 Y65.269 F9000
G1 Z0.400 F1800
G92 E0
G1 X62.684 Y64.445 E0.0732 F1920
G1 X61.462 Y63.776 E0.1448
G1 X61.125 Y63.643 E0.1634
; bridge
M106 S255
G1 X60.211 Y63.282 E0.2088 F1440
G1 X59.665 Y63.127 E0.2351
G1 X50.759 Y54.088 E0.8220
G1 X47.905 Y51.165 E1.0109
G1 X44.170 Y47.295 E1.2596
G1 X34.409 Y37.824 E1.8886
G1 X34.183 Y37.591 E1.9037
G1 X34.181 Y37.388 E1.9130
G1 X34.243 Y37.071 E1.9280
G1 X34.396 Y36.556 E1.9528
G1 X34.442 Y36.601 E1.9558
; outer perimeter
M106 S0
G1 X36.332 Y38.492 E2.0932 F1920
G1 X36.594 Y38.722 E2.1111
G1 X36.880 Y38.916 E2.1289
G1 X37.181 Y39.067 E2.1462
G1 X37.491 Y39.171 E2.1630
G1 X37.790 Y39.223 E2.1786
G1 X37.971 Y39.231 E2.1879
